(.../pcb-gcode-3.6.2.4/pcb-gcode.ulp)
(Copyright 2005 - 2012 by John Johnson)
(See readme.txt for licensing terms.)
(This file generated from the board:)
(.../consip/eagle/Tokaleds/tokaleds.brd)
(Current profile is .../pcb-gcode-3.6.2.4/profiles/mach.pp  )
(This file generated 3/1/21 6:40 PM)
(Settings from pcb-machine.h)
(spindle on time = 0.5000)
(  Tool Size)
(0.1000  )
(spindle speed = 1000.0000)
(tool change at 0.0000  0.0000  40.0000 )
(feed rate xy = F300   )
(feed rate z  = F90    )
(Z Axis Settings)
(  High     Up        Down     Drill)
(3.0000  	2.5400  	-0.0600 	-1.8000 )
(Settings from pcb-defaults.h)
(isolate min = 0.0254)
(isolate max = 0.5080)
(isolate step = 0.1270)
(Generated top outlines, top drill, bottom outlines, bottom drill, )
(Unit of measure: mm)
(Beginning of every file)
(Beginning of every top file)
(Outline Begin)
(Top outline Begin)
(Metric Mode)
G21
(Absolute Coordinates)
G90
S1000
G00 Z3.0000  
G00 X0.0000  Y0.0000  
M03
G04 P0.500000
G00 Z2.5400  
G00 X19.2894 Y9.0950  
G01 Z-0.0600 F90    
G01 X19.2096 Y9.2145  F300   
G01 X19.1546 Y9.3472  
G01 X19.1266 Y9.4882  
G01 X19.1266 Y9.6318  
G01 X19.1546 Y9.7728  
G01 X19.2096 Y9.9055  
G01 X19.2894 Y10.0250 
G01 X19.3910 Y10.1266 
G01 X19.5105 Y10.2064 
G01 X19.6432 Y10.2614 
G01 X19.7842 Y10.2894 
G01 X21.2358 Y10.2894 
G01 X21.3768 Y10.2614 
G01 X21.5095 Y10.2064 
G01 X21.6290 Y10.1266 
G01 X21.7306 Y10.0250 
G01 X21.8104 Y9.9055  
G01 X21.8654 Y9.7728  
G01 X21.8934 Y9.6318  
G01 X21.8934 Y9.4882  
G01 X21.8654 Y9.3472  
G01 X21.8104 Y9.2145  
G01 X21.7306 Y9.0950  
G01 X21.6290 Y8.9934  
G01 X21.5095 Y8.9136  
G01 X21.3768 Y8.8586  
G01 X21.2358 Y8.8306  
G01 X19.7842 Y8.8306  
G01 X19.6432 Y8.8586  
G01 X19.5105 Y8.9136  
G01 X19.3910 Y8.9934  
G01 X19.2894 Y9.0950  
G00 Z2.5400  
G00 X19.2894 Y11.6350 
G01 Z-0.0600 F90    
G01 X19.2096 Y11.7545 F300   
G01 X19.1546 Y11.8872 
G01 X19.1266 Y12.0282 
G01 X19.1266 Y12.1718 
G01 X19.1409 Y12.2436 
G01 X18.9899 Y12.2436 
G01 X18.8738 Y12.2747 
G01 X18.7698 Y12.3348 
G01 X10.5148 Y20.5898 
G01 X10.4298 Y20.6748 
G01 X10.3697 Y20.7788 
G01 X10.3386 Y20.8949 
G01 X10.3386 Y23.9776 
G01 X10.2832 Y24.0146 
G01 X10.1746 Y24.1232 
G01 X10.0893 Y24.2508 
G01 X10.0306 Y24.3927 
G01 X10.0006 Y24.5432 
G01 X10.0006 Y24.6968 
G01 X10.0306 Y24.8473 
G01 X10.0893 Y24.9892 
G01 X10.1746 Y25.1168 
G01 X10.2832 Y25.2254 
G01 X10.3386 Y25.2624 
G01 X10.3386 Y25.9776 
G01 X10.2832 Y26.0146 
G01 X10.1746 Y26.1232 
G01 X10.0893 Y26.2508 
G01 X10.0306 Y26.3927 
G01 X10.0006 Y26.5432 
G01 X10.0006 Y26.6968 
G01 X10.0306 Y26.8473 
G01 X10.0893 Y26.9892 
G01 X10.1746 Y27.1168 
G01 X10.2832 Y27.2254 
G01 X10.3386 Y27.2624 
G01 X10.3386 Y27.9776 
G01 X10.2832 Y28.0146 
G01 X10.1746 Y28.1232 
G01 X10.0893 Y28.2508 
G01 X10.0306 Y28.3927 
G01 X10.0006 Y28.5432 
G01 X10.0006 Y28.6968 
G01 X10.0306 Y28.8473 
G01 X10.0893 Y28.9892 
G01 X10.1746 Y29.1168 
G01 X10.2832 Y29.2254 
G01 X10.3386 Y29.2624 
G01 X10.3386 Y29.9776 
G01 X10.2832 Y30.0146 
G01 X10.1746 Y30.1232 
G01 X10.0893 Y30.2508 
G01 X10.0306 Y30.3927 
G01 X10.0006 Y30.5432 
G01 X10.0006 Y30.6968 
G01 X10.0306 Y30.8473 
G01 X10.0893 Y30.9892 
G01 X10.1746 Y31.1168 
G01 X10.2832 Y31.2254 
G01 X10.3386 Y31.2624 
G01 X10.3386 Y31.9776 
G01 X10.2832 Y32.0146 
G01 X10.1746 Y32.1232 
G01 X10.0893 Y32.2508 
G01 X10.0306 Y32.3927 
G01 X10.0006 Y32.5432 
G01 X10.0006 Y32.6968 
G01 X10.0306 Y32.8473 
G01 X10.0893 Y32.9892 
G01 X10.1746 Y33.1168 
G01 X10.2832 Y33.2254 
G01 X10.3386 Y33.2624 
G01 X10.3386 Y33.9776 
G01 X10.2832 Y34.0146 
G01 X10.1746 Y34.1232 
G01 X10.0893 Y34.2508 
G01 X10.0306 Y34.3927 
G01 X10.0006 Y34.5432 
G01 X10.0006 Y34.6968 
G01 X10.0306 Y34.8473 
G01 X10.0893 Y34.9892 
G01 X10.1746 Y35.1168 
G01 X10.2832 Y35.2254 
G01 X10.3386 Y35.2624 
G01 X10.3386 Y35.9776 
G01 X10.2832 Y36.0146 
G01 X10.1746 Y36.1232 
G01 X10.0893 Y36.2508 
G01 X10.0306 Y36.3927 
G01 X10.0006 Y36.5432 
G01 X10.0006 Y36.6968 
G01 X10.0306 Y36.8473 
G01 X10.0893 Y36.9892 
G01 X10.1746 Y37.1168 
G01 X10.2832 Y37.2254 
G01 X10.3386 Y37.2624 
G01 X10.3386 Y37.9776 
G01 X10.2832 Y38.0146 
G01 X10.1746 Y38.1232 
G01 X10.0893 Y38.2508 
G01 X10.0306 Y38.3927 
G01 X10.0006 Y38.5432 
G01 X10.0006 Y38.6968 
G01 X10.0306 Y38.8473 
G01 X10.0893 Y38.9892 
G01 X10.1746 Y39.1168 
G01 X10.2832 Y39.2254 
G01 X10.4108 Y39.3107 
G01 X10.5527 Y39.3694 
G01 X10.7032 Y39.3994 
G01 X10.8568 Y39.3994 
G01 X11.0073 Y39.3694 
G01 X11.1492 Y39.3107 
G01 X11.2768 Y39.2254 
G01 X11.3854 Y39.1168 
G01 X11.4707 Y38.9892 
G01 X11.5294 Y38.8473 
G01 X11.5594 Y38.6968 
G01 X11.5594 Y38.5432 
G01 X11.5294 Y38.3927 
G01 X11.4707 Y38.2508 
G01 X11.3854 Y38.1232 
G01 X11.2768 Y38.0146 
G01 X11.2514 Y37.9976 
G01 X11.2514 Y37.2424 
G01 X11.2768 Y37.2254 
G01 X11.3854 Y37.1168 
G01 X11.4707 Y36.9892 
G01 X11.5294 Y36.8473 
G01 X11.5594 Y36.6968 
G01 X11.5594 Y36.5432 
G01 X11.5294 Y36.3927 
G01 X11.4707 Y36.2508 
G01 X11.3854 Y36.1232 
G01 X11.2768 Y36.0146 
G01 X11.2514 Y35.9976 
G01 X11.2514 Y35.2424 
G01 X11.2768 Y35.2254 
G01 X11.3854 Y35.1168 
G01 X11.4707 Y34.9892 
G01 X11.5294 Y34.8473 
G01 X11.5594 Y34.6968 
G01 X11.5594 Y34.5432 
G01 X11.5294 Y34.3927 
G01 X11.4707 Y34.2508 
G01 X11.3854 Y34.1232 
G01 X11.2768 Y34.0146 
G01 X11.2514 Y33.9976 
G01 X11.2514 Y33.2424 
G01 X11.2768 Y33.2254 
G01 X11.3854 Y33.1168 
G01 X11.4707 Y32.9892 
G01 X11.5294 Y32.8473 
G01 X11.5594 Y32.6968 
G01 X11.5594 Y32.5432 
G01 X11.5294 Y32.3927 
G01 X11.4707 Y32.2508 
G01 X11.3854 Y32.1232 
G01 X11.2768 Y32.0146 
G01 X11.2514 Y31.9976 
G01 X11.2514 Y31.2424 
G01 X11.2768 Y31.2254 
G01 X11.3854 Y31.1168 
G01 X11.4707 Y30.9892 
G01 X11.5294 Y30.8473 
G01 X11.5594 Y30.6968 
G01 X11.5594 Y30.5432 
G01 X11.5294 Y30.3927 
G01 X11.4707 Y30.2508 
G01 X11.3854 Y30.1232 
G01 X11.2768 Y30.0146 
G01 X11.2514 Y29.9976 
G01 X11.2514 Y29.2642 
G01 X11.2528 Y29.2585 
G01 X11.2523 Y29.2418 
G01 X11.2768 Y29.2254 
G01 X11.3854 Y29.1168 
G01 X11.4707 Y28.9892 
G01 X11.5294 Y28.8473 
G01 X11.5594 Y28.6968 
G01 X11.5594 Y28.5432 
G01 X11.5294 Y28.3927 
G01 X11.4707 Y28.2508 
G01 X11.3854 Y28.1232 
G01 X11.2768 Y28.0146 
G01 X11.2514 Y27.9976 
G01 X11.2514 Y27.2424 
G01 X11.2768 Y27.2254 
G01 X11.3854 Y27.1168 
G01 X11.4707 Y26.9892 
G01 X11.5294 Y26.8473 
G01 X11.5594 Y26.6968 
G01 X11.5594 Y26.5432 
G01 X11.5294 Y26.3927 
G01 X11.4707 Y26.2508 
G01 X11.3854 Y26.1232 
G01 X11.2768 Y26.0146 
G01 X11.2525 Y25.9983 
G01 X11.2528 Y25.9866 
G01 X11.2514 Y25.9809 
G01 X11.2514 Y25.2424 
G01 X11.2768 Y25.2254 
G01 X11.3854 Y25.1168 
G01 X11.4707 Y24.9892 
G01 X11.5294 Y24.8473 
G01 X11.5594 Y24.6968 
G01 X11.5594 Y24.5432 
G01 X11.5294 Y24.3927 
G01 X11.4707 Y24.2508 
G01 X11.3854 Y24.1232 
G01 X11.2768 Y24.0146 
G01 X11.2514 Y23.9976 
G01 X11.2514 Y21.1440 
G01 X19.2390 Y13.1564 
G01 X20.3097 Y13.1564 
G01 X20.3595 Y13.1586 
G01 X20.3697 Y13.1564 
G01 X20.3801 Y13.1564 
G01 X20.4282 Y13.1435 
G01 X20.4769 Y13.1328 
G01 X20.4861 Y13.1280 
G01 X20.4962 Y13.1253 
G01 X20.5393 Y13.1004 
G01 X20.5836 Y13.0774 
G01 X20.5912 Y13.0704 
G01 X20.6002 Y13.0652 
G01 X20.6355 Y13.0300 
G01 X20.6508 Y13.0412 
G01 X20.6748 Y13.0652 
G01 X20.6976 Y13.0784 
G01 X20.7183 Y13.0948 
G01 X20.7495 Y13.1083 
G01 X20.7788 Y13.1253 
G01 X20.8044 Y13.1321 
G01 X20.8286 Y13.1426 
G01 X20.8621 Y13.1476 
G01 X20.8949 Y13.1564 
G01 X20.9213 Y13.1564 
G01 X20.9475 Y13.1603 
G01 X20.9812 Y13.1564 
G01 X31.1751 Y13.1564 
G01 X31.2912 Y13.1253 
G01 X31.3952 Y13.0652 
G01 X31.4802 Y12.9802 
G01 X32.7502 Y11.7102 
G01 X32.8103 Y11.6062 
G01 X32.8414 Y11.4901 
G01 X32.8414 Y9.7140  
G01 X34.4790 Y8.0764  
G01 X36.6409 Y8.0764  
G01 X37.6436 Y9.0790  
G01 X37.6436 Y9.5851  
G01 X37.6747 Y9.7012  
G01 X37.7348 Y9.8052  
G01 X37.8198 Y9.8902  
G01 X47.9211 Y19.9916 
G01 X47.9446 Y20.0204 
G01 X47.9634 Y20.0339 
G01 X47.9798 Y20.0502 
G01 X48.0120 Y20.0688 
G01 X48.0422 Y20.0905 
G01 X48.0638 Y20.0987 
G01 X48.0838 Y20.1103 
G01 X48.1198 Y20.1199 
G01 X48.1325 Y20.1247 
G01 X48.2232 Y20.2154 
G01 X48.3508 Y20.3007 
G01 X48.4927 Y20.3594 
G01 X48.6432 Y20.3894 
G01 X48.7968 Y20.3894 
G01 X48.9473 Y20.3594 
G01 X49.0892 Y20.3007 
G01 X49.2168 Y20.2154 
G01 X49.3254 Y20.1068 
G01 X49.4107 Y19.9792 
G01 X49.4694 Y19.8373 
G01 X49.4994 Y19.6868 
G01 X49.4994 Y19.5332 
G01 X49.4694 Y19.3827 
G01 X49.4107 Y19.2408 
G01 X49.3254 Y19.1132 
G01 X49.2168 Y19.0046 
G01 X49.0892 Y18.9193 
G01 X48.9473 Y18.8606 
G01 X48.7968 Y18.8306 
G01 X48.6432 Y18.8306 
G01 X48.4927 Y18.8606 
G01 X48.3508 Y18.9193 
G01 X48.2243 Y19.0038 
G01 X38.5564 Y9.3360  
G01 X38.5564 Y8.8299  
G01 X38.5253 Y8.7138  
G01 X38.4652 Y8.6098  
G01 X37.1952 Y7.3398  
G01 X37.1102 Y7.2548  
G01 X37.0062 Y7.1947  
G01 X36.8901 Y7.1636  
G01 X34.2299 Y7.1636  
G01 X34.1138 Y7.1947  
G01 X34.0098 Y7.2548  
G01 X32.1048 Y9.1598  
G01 X32.0198 Y9.2448  
G01 X31.9597 Y9.3488  
G01 X31.9286 Y9.4649  
G01 X31.9286 Y11.2409 
G01 X30.9260 Y12.2436 
G01 X21.8791 Y12.2436 
G01 X21.8934 Y12.1718 
G01 X21.8934 Y12.0282 
G01 X21.8654 Y11.8872 
G01 X21.8104 Y11.7545 
G01 X21.7306 Y11.6350 
G01 X21.6290 Y11.5334 
G01 X21.5095 Y11.4536 
G01 X21.3768 Y11.3986 
G01 X21.2358 Y11.3706 
G01 X19.7842 Y11.3706 
G01 X19.6432 Y11.3986 
G01 X19.5105 Y11.4536 
G01 X19.3910 Y11.5334 
G01 X19.2894 Y11.6350 
G00 Z2.5400  
G00 X19.2894 Y14.1750 
G01 Z-0.0600 F90    
G01 X19.2096 Y14.2945 F300   
G01 X19.1546 Y14.4272 
G01 X19.1266 Y14.5682 
G01 X19.1266 Y14.7118 
G01 X19.1546 Y14.8528 
G01 X19.2096 Y14.9855 
G01 X19.2894 Y15.1050 
G01 X19.3910 Y15.2066 
G01 X19.5105 Y15.2864 
G01 X19.6432 Y15.3414 
G01 X19.7842 Y15.3694 
G01 X21.2358 Y15.3694 
G01 X21.3768 Y15.3414 
G01 X21.5095 Y15.2864 
G01 X21.6290 Y15.2066 
G01 X21.7306 Y15.1050 
G01 X21.8104 Y14.9855 
G01 X21.8654 Y14.8528 
G01 X21.8934 Y14.7118 
G01 X21.8934 Y14.5682 
G01 X21.8654 Y14.4272 
G01 X21.8104 Y14.2945 
G01 X21.7306 Y14.1750 
G01 X21.6290 Y14.0734 
G01 X21.5095 Y13.9936 
G01 X21.3768 Y13.9386 
G01 X21.2358 Y13.9106 
G01 X19.7842 Y13.9106 
G01 X19.6432 Y13.9386 
G01 X19.5105 Y13.9936 
G01 X19.3910 Y14.0734 
G01 X19.2894 Y14.1750 
G00 Z2.5400  
G00 X19.2894 Y16.7150 
G01 Z-0.0600 F90    
G01 X19.2096 Y16.8345 F300   
G01 X19.1546 Y16.9672 
G01 X19.1266 Y17.1082 
G01 X19.1266 Y17.2518 
G01 X19.1546 Y17.3928 
G01 X19.2096 Y17.5255 
G01 X19.2894 Y17.6450 
G01 X19.3910 Y17.7466 
G01 X19.5105 Y17.8264 
G01 X19.6432 Y17.8814 
G01 X19.7842 Y17.9094 
G01 X21.2358 Y17.9094 
G01 X21.3768 Y17.8814 
G01 X21.5095 Y17.8264 
G01 X21.6290 Y17.7466 
G01 X21.7306 Y17.6450 
G01 X21.8104 Y17.5255 
G01 X21.8654 Y17.3928 
G01 X21.8934 Y17.2518 
G01 X21.8934 Y17.1082 
G01 X21.8654 Y16.9672 
G01 X21.8104 Y16.8345 
G01 X21.7306 Y16.7150 
G01 X21.6290 Y16.6134 
G01 X21.5095 Y16.5336 
G01 X21.3768 Y16.4786 
G01 X21.2358 Y16.4506 
G01 X19.7842 Y16.4506 
G01 X19.6432 Y16.4786 
G01 X19.5105 Y16.5336 
G01 X19.3910 Y16.6134 
G01 X19.2894 Y16.7150 
G00 Z2.5400  
G00 X19.2894 Y19.2550 
G01 Z-0.0600 F90    
G01 X19.2096 Y19.3745 F300   
G01 X19.1546 Y19.5072 
G01 X19.1266 Y19.6482 
G01 X19.1266 Y19.7918 
G01 X19.1409 Y19.8636 
G01 X17.7199 Y19.8636 
G01 X17.6038 Y19.8947 
G01 X17.4998 Y19.9548 
G01 X13.3584 Y24.0962 
G01 X13.2768 Y24.0146 
G01 X13.1492 Y23.9293 
G01 X13.0073 Y23.8706 
G01 X12.8568 Y23.8406 
G01 X12.7032 Y23.8406 
G01 X12.5527 Y23.8706 
G01 X12.4108 Y23.9293 
G01 X12.2832 Y24.0146 
G01 X12.1746 Y24.1232 
G01 X12.0893 Y24.2508 
G01 X12.0306 Y24.3927 
G01 X12.0006 Y24.5432 
G01 X12.0006 Y24.6968 
G01 X12.0306 Y24.8473 
G01 X12.0893 Y24.9892 
G01 X12.1746 Y25.1168 
G01 X12.2832 Y25.2254 
G01 X12.4108 Y25.3107 
G01 X12.5527 Y25.3694 
G01 X12.7032 Y25.3994 
G01 X12.8568 Y25.3994 
G01 X13.0073 Y25.3694 
G01 X13.1492 Y25.3107 
G01 X13.2768 Y25.2254 
G01 X13.2805 Y25.2217 
G01 X13.3364 Y25.2214 
G01 X13.3951 Y25.2214 
G01 X13.3979 Y25.2210 
G01 X13.4546 Y25.2055 
G01 X13.5112 Y25.1903 
G01 X13.5138 Y25.1892 
G01 X13.5645 Y25.1595 
G01 X13.6152 Y25.1302 
G01 X13.6587 Y25.0867 
G01 X17.9690 Y20.7764 
G01 X20.3097 Y20.7764 
G01 X20.3595 Y20.7786 
G01 X20.3697 Y20.7764 
G01 X20.3801 Y20.7764 
G01 X20.4282 Y20.7635 
G01 X20.4769 Y20.7528 
G01 X20.4861 Y20.7480 
G01 X20.4962 Y20.7453 
G01 X20.5393 Y20.7204 
G01 X20.5836 Y20.6974 
G01 X20.5912 Y20.6904 
G01 X20.6002 Y20.6852 
G01 X20.6355 Y20.6500 
G01 X20.6723 Y20.6163 
G01 X20.6779 Y20.6076 
G01 X20.6852 Y20.6002 
G01 X20.7101 Y20.5571 
G01 X20.7370 Y20.5151 
G01 X20.7401 Y20.5052 
G01 X20.7453 Y20.4962 
G01 X20.7578 Y20.4494 
G01 X21.2358 Y20.4494 
G01 X21.3768 Y20.4214 
G01 X21.5095 Y20.3664 
G01 X21.6290 Y20.2866 
G01 X21.7306 Y20.1850 
G01 X21.8104 Y20.0655 
G01 X21.8654 Y19.9328 
G01 X21.8934 Y19.7918 
G01 X21.8934 Y19.6482 
G01 X21.8654 Y19.5072 
G01 X21.8104 Y19.3745 
G01 X21.7306 Y19.2550 
G01 X21.6290 Y19.1534 
G01 X21.5095 Y19.0736 
G01 X21.3768 Y19.0186 
G01 X21.2358 Y18.9906 
G01 X19.7842 Y18.9906 
G01 X19.6432 Y19.0186 
G01 X19.5105 Y19.0736 
G01 X19.3910 Y19.1534 
G01 X19.2894 Y19.2550 
G00 Z2.5400  
G00 X19.2894 Y21.7950 
G01 Z-0.0600 F90    
G01 X19.2096 Y21.9145 F300   
G01 X19.1546 Y22.0472 
G01 X19.1266 Y22.1882 
G01 X19.1266 Y22.3318 
G01 X19.1409 Y22.4036 
G01 X17.0849 Y22.4036 
G01 X16.9688 Y22.4347 
G01 X16.8648 Y22.4948 
G01 X13.3109 Y26.0487 
G01 X13.2768 Y26.0146 
G01 X13.1492 Y25.9293 
G01 X13.0073 Y25.8706 
G01 X12.8568 Y25.8406 
G01 X12.7032 Y25.8406 
G01 X12.5527 Y25.8706 
G01 X12.4108 Y25.9293 
G01 X12.2832 Y26.0146 
G01 X12.1746 Y26.1232 
G01 X12.0893 Y26.2508 
G01 X12.0306 Y26.3927 
G01 X12.0006 Y26.5432 
G01 X12.0006 Y26.6968 
G01 X12.0306 Y26.8473 
G01 X12.0893 Y26.9892 
G01 X12.1746 Y27.1168 
G01 X12.2832 Y27.2254 
G01 X12.4108 Y27.3107 
G01 X12.5527 Y27.3694 
G01 X12.7032 Y27.3994 
G01 X12.8568 Y27.3994 
G01 X13.0073 Y27.3694 
G01 X13.1492 Y27.3107 
G01 X13.2768 Y27.2254 
G01 X13.3758 Y27.1264 
G01 X13.3951 Y27.1264 
G01 X13.4333 Y27.1162 
G01 X13.4723 Y27.1094 
G01 X13.4911 Y27.1007 
G01 X13.5112 Y27.0953 
G01 X13.5454 Y27.0755 
G01 X13.5813 Y27.0589 
G01 X13.5973 Y27.0456 
G01 X13.6152 Y27.0352 
G01 X13.6432 Y27.0072 
G01 X13.6736 Y26.9819 
G01 X13.6855 Y26.9649 
G01 X17.3340 Y23.3164 
G01 X20.3097 Y23.3164 
G01 X20.3595 Y23.3186 
G01 X20.3697 Y23.3164 
G01 X20.3801 Y23.3164 
G01 X20.4282 Y23.3035 
G01 X20.4769 Y23.2928 
G01 X20.4861 Y23.2880 
G01 X20.4962 Y23.2853 
G01 X20.5393 Y23.2604 
G01 X20.5836 Y23.2374 
G01 X20.5912 Y23.2304 
G01 X20.6002 Y23.2252 
G01 X20.6355 Y23.1900 
G01 X20.6723 Y23.1563 
G01 X20.6779 Y23.1476 
G01 X20.6852 Y23.1402 
G01 X20.7101 Y23.0971 
G01 X20.7370 Y23.0551 
G01 X20.7401 Y23.0452 
G01 X20.7453 Y23.0362 
G01 X20.7578 Y22.9894 
G01 X21.2358 Y22.9894 
G01 X21.3768 Y22.9614 
G01 X21.5095 Y22.9064 
G01 X21.6290 Y22.8266 
G01 X21.7306 Y22.7250 
G01 X21.8104 Y22.6055 
G01 X21.8654 Y22.4728 
G01 X21.8934 Y22.3318 
G01 X21.8934 Y22.1882 
G01 X21.8654 Y22.0472 
G01 X21.8104 Y21.9145 
G01 X21.7306 Y21.7950 
G01 X21.6290 Y21.6934 
G01 X21.5095 Y21.6136 
G01 X21.3768 Y21.5586 
G01 X21.2358 Y21.5306 
G01 X19.7842 Y21.5306 
G01 X19.6432 Y21.5586 
G01 X19.5105 Y21.6136 
G01 X19.3910 Y21.6934 
G01 X19.2894 Y21.7950 
G00 Z2.5400  
G00 X19.2894 Y24.3350 
G01 Z-0.0600 F90    
G01 X19.2096 Y24.4545 F300   
G01 X19.1546 Y24.5872 
G01 X19.1266 Y24.7282 
G01 X19.1266 Y24.8718 
G01 X19.1409 Y24.9436 
G01 X16.4499 Y24.9436 
G01 X16.3338 Y24.9747 
G01 X16.2298 Y25.0348 
G01 X13.2607 Y28.0038 
G01 X13.1492 Y27.9293 
G01 X13.0073 Y27.8706 
G01 X12.8568 Y27.8406 
G01 X12.7032 Y27.8406 
G01 X12.5527 Y27.8706 
G01 X12.4108 Y27.9293 
G01 X12.2832 Y28.0146 
G01 X12.1746 Y28.1232 
G01 X12.0893 Y28.2508 
G01 X12.0306 Y28.3927 
G01 X12.0006 Y28.5432 
G01 X12.0006 Y28.6968 
G01 X12.0306 Y28.8473 
G01 X12.0893 Y28.9892 
G01 X12.1746 Y29.1168 
G01 X12.2832 Y29.2254 
G01 X12.4108 Y29.3107 
G01 X12.5527 Y29.3694 
G01 X12.7032 Y29.3994 
G01 X12.8568 Y29.3994 
G01 X13.0073 Y29.3694 
G01 X13.1492 Y29.3107 
G01 X13.2768 Y29.2254 
G01 X13.3854 Y29.1168 
G01 X13.4514 Y29.0180 
G01 X13.4710 Y29.0111 
G01 X13.5112 Y29.0003 
G01 X13.5274 Y28.9909 
G01 X13.5450 Y28.9847 
G01 X13.5792 Y28.9610 
G01 X13.6152 Y28.9402 
G01 X13.6285 Y28.9270 
G01 X13.6438 Y28.9164 
G01 X13.6708 Y28.8847 
G01 X16.6990 Y25.8564 
G01 X20.3097 Y25.8564 
G01 X20.3595 Y25.8586 
G01 X20.3697 Y25.8564 
G01 X20.3801 Y25.8564 
G01 X20.4282 Y25.8435 
G01 X20.4769 Y25.8328 
G01 X20.4861 Y25.8280 
G01 X20.4962 Y25.8253 
G01 X20.5393 Y25.8004 
G01 X20.5836 Y25.7774 
G01 X20.5912 Y25.7704 
G01 X20.6002 Y25.7652 
G01 X20.6355 Y25.7300 
G01 X20.6723 Y25.6963 
G01 X20.6779 Y25.6876 
G01 X20.6852 Y25.6802 
G01 X20.7101 Y25.6371 
G01 X20.7370 Y25.5951 
G01 X20.7401 Y25.5852 
G01 X20.7453 Y25.5762 
G01 X20.7578 Y25.5294 
G01 X21.2358 Y25.5294 
G01 X21.3768 Y25.5014 
G01 X21.5095 Y25.4464 
G01 X21.6290 Y25.3666 
G01 X21.7306 Y25.2650 
G01 X21.8104 Y25.1455 
G01 X21.8654 Y25.0128 
G01 X21.8934 Y24.8718 
G01 X21.8934 Y24.7282 
G01 X21.8654 Y24.5872 
G01 X21.8104 Y24.4545 
G01 X21.7306 Y24.3350 
G01 X21.6290 Y24.2334 
G01 X21.5095 Y24.1536 
G01 X21.3768 Y24.0986 
G01 X21.2358 Y24.0706 
G01 X19.7842 Y24.0706 
G01 X19.6432 Y24.0986 
G01 X19.5105 Y24.1536 
G01 X19.3910 Y24.2334 
G01 X19.2894 Y24.3350 
G00 Z2.5400  
G00 X19.2894 Y26.8750 
G01 Z-0.0600 F90    
G01 X19.2096 Y26.9945 F300   
G01 X19.1546 Y27.1272 
G01 X19.1266 Y27.2682 
G01 X19.1266 Y27.4118 
G01 X19.1409 Y27.4836 
G01 X15.8149 Y27.4836 
G01 X15.6988 Y27.5147 
G01 X15.5948 Y27.5748 
G01 X13.2038 Y29.9658 
G01 X13.1492 Y29.9293 
G01 X13.0073 Y29.8706 
G01 X12.8568 Y29.8406 
G01 X12.7032 Y29.8406 
G01 X12.5527 Y29.8706 
G01 X12.4108 Y29.9293 
G01 X12.2832 Y30.0146 
G01 X12.1746 Y30.1232 
G01 X12.0893 Y30.2508 
G01 X12.0306 Y30.3927 
G01 X12.0006 Y30.5432 
G01 X12.0006 Y30.6968 
G01 X12.0306 Y30.8473 
G01 X12.0893 Y30.9892 
G01 X12.1746 Y31.1168 
G01 X12.2832 Y31.2254 
G01 X12.4108 Y31.3107 
G01 X12.5527 Y31.3694 
G01 X12.7032 Y31.3994 
G01 X12.8568 Y31.3994 
G01 X13.0073 Y31.3694 
G01 X13.1492 Y31.3107 
G01 X13.2768 Y31.2254 
G01 X13.3854 Y31.1168 
G01 X13.4707 Y30.9892 
G01 X13.5043 Y30.9080 
G01 X13.5079 Y30.9062 
G01 X13.5112 Y30.9053 
G01 X13.5604 Y30.8769 
G01 X13.6098 Y30.8493 
G01 X13.6152 Y30.8452 
G01 X13.6554 Y30.8050 
G01 X13.6960 Y30.7656 
G01 X13.6978 Y30.7626 
G01 X16.0640 Y28.3964 
G01 X20.3097 Y28.3964 
G01 X20.3595 Y28.3986 
G01 X20.3697 Y28.3964 
G01 X20.3801 Y28.3964 
G01 X20.4282 Y28.3835 
G01 X20.4769 Y28.3728 
G01 X20.4861 Y28.3680 
G01 X20.4962 Y28.3653 
G01 X20.5393 Y28.3404 
G01 X20.5836 Y28.3174 
G01 X20.5912 Y28.3104 
G01 X20.6002 Y28.3052 
G01 X20.6355 Y28.2700 
G01 X20.6723 Y28.2363 
G01 X20.6779 Y28.2276 
G01 X20.6852 Y28.2202 
G01 X20.7101 Y28.1771 
G01 X20.7370 Y28.1351 
G01 X20.7401 Y28.1252 
G01 X20.7453 Y28.1162 
G01 X20.7578 Y28.0694 
G01 X21.2358 Y28.0694 
G01 X21.3768 Y28.0414 
G01 X21.5095 Y27.9864 
G01 X21.6290 Y27.9066 
G01 X21.7306 Y27.8050 
G01 X21.8104 Y27.6855 
G01 X21.8654 Y27.5528 
G01 X21.8934 Y27.4118 
G01 X21.8934 Y27.2682 
G01 X21.8654 Y27.1272 
G01 X21.8104 Y26.9945 
G01 X21.7306 Y26.8750 
G01 X21.6290 Y26.7734 
G01 X21.5095 Y26.6936 
G01 X21.3768 Y26.6386 
G01 X21.2358 Y26.6106 
G01 X19.7842 Y26.6106 
G01 X19.6432 Y26.6386 
G01 X19.5105 Y26.6936 
G01 X19.3910 Y26.7734 
G01 X19.2894 Y26.8750 
G00 Z2.5400  
G00 X19.2894 Y29.4150 
G01 Z-0.0600 F90    
G01 X19.2096 Y29.5345 F300   
G01 X19.1546 Y29.6672 
G01 X19.1266 Y29.8082 
G01 X19.1266 Y29.9518 
G01 X19.1409 Y30.0236 
G01 X15.1799 Y30.0236 
G01 X15.0638 Y30.0547 
G01 X14.9598 Y30.1148 
G01 X13.1464 Y31.9281 
G01 X13.0073 Y31.8706 
G01 X12.8568 Y31.8406 
G01 X12.7032 Y31.8406 
G01 X12.5527 Y31.8706 
G01 X12.4108 Y31.9293 
G01 X12.2832 Y32.0146 
G01 X12.1746 Y32.1232 
G01 X12.0893 Y32.2508 
G01 X12.0306 Y32.3927 
G01 X12.0006 Y32.5432 
G01 X12.0006 Y32.6968 
G01 X12.0306 Y32.8473 
G01 X12.0893 Y32.9892 
G01 X12.1746 Y33.1168 
G01 X12.2832 Y33.2254 
G01 X12.4108 Y33.3107 
G01 X12.5527 Y33.3694 
G01 X12.7032 Y33.3994 
G01 X12.8568 Y33.3994 
G01 X13.0073 Y33.3694 
G01 X13.1492 Y33.3107 
G01 X13.2768 Y33.2254 
G01 X13.3854 Y33.1168 
G01 X13.4707 Y32.9892 
G01 X13.5294 Y32.8473 
G01 X13.5401 Y32.7938 
G01 X13.5683 Y32.7818 
G01 X13.5907 Y32.7644 
G01 X13.6152 Y32.7502 
G01 X13.6378 Y32.7276 
G01 X13.6630 Y32.7079 
G01 X13.6801 Y32.6853 
G01 X15.4290 Y30.9364 
G01 X20.3097 Y30.9364 
G01 X20.3595 Y30.9386 
G01 X20.3697 Y30.9364 
G01 X20.3801 Y30.9364 
G01 X20.4282 Y30.9235 
G01 X20.4769 Y30.9128 
G01 X20.4861 Y30.9080 
G01 X20.4962 Y30.9053 
G01 X20.5393 Y30.8804 
G01 X20.5836 Y30.8574 
G01 X20.5912 Y30.8504 
G01 X20.6002 Y30.8452 
G01 X20.6355 Y30.8100 
G01 X20.6723 Y30.7763 
G01 X20.6779 Y30.7676 
G01 X20.6852 Y30.7602 
G01 X20.7101 Y30.7171 
G01 X20.7370 Y30.6751 
G01 X20.7401 Y30.6652 
G01 X20.7453 Y30.6562 
G01 X20.7578 Y30.6094 
G01 X21.2358 Y30.6094 
G01 X21.3768 Y30.5814 
G01 X21.5095 Y30.5264 
G01 X21.6290 Y30.4466 
G01 X21.7306 Y30.3450 
G01 X21.8104 Y30.2255 
G01 X21.8654 Y30.0928 
G01 X21.8934 Y29.9518 
G01 X21.8934 Y29.8082 
G01 X21.8654 Y29.6672 
G01 X21.8104 Y29.5345 
G01 X21.7306 Y29.4150 
G01 X21.6290 Y29.3134 
G01 X21.5095 Y29.2336 
G01 X21.3768 Y29.1786 
G01 X21.2358 Y29.1506 
G01 X19.7842 Y29.1506 
G01 X19.6432 Y29.1786 
G01 X19.5105 Y29.2336 
G01 X19.3910 Y29.3134 
G01 X19.2894 Y29.4150 
G00 Z2.5400  
G00 X19.2894 Y31.9550 
G01 Z-0.0600 F90    
G01 X19.2096 Y32.0745 F300   
G01 X19.1546 Y32.2072 
G01 X19.1266 Y32.3482 
G01 X19.1266 Y32.4918 
G01 X19.1409 Y32.5636 
G01 X15.1799 Y32.5636 
G01 X15.0638 Y32.5947 
G01 X14.9598 Y32.6548 
G01 X13.4279 Y34.1867 
G01 X13.3854 Y34.1232 
G01 X13.2768 Y34.0146 
G01 X13.1492 Y33.9293 
G01 X13.0073 Y33.8706 
G01 X12.8568 Y33.8406 
G01 X12.7032 Y33.8406 
G01 X12.5527 Y33.8706 
G01 X12.4108 Y33.9293 
G01 X12.2832 Y34.0146 
G01 X12.1746 Y34.1232 
G01 X12.0893 Y34.2508 
G01 X12.0306 Y34.3927 
G01 X12.0006 Y34.5432 
G01 X12.0006 Y34.6968 
G01 X12.0306 Y34.8473 
G01 X12.0893 Y34.9892 
G01 X12.1746 Y35.1168 
G01 X12.2832 Y35.2254 
G01 X12.4108 Y35.3107 
G01 X12.5527 Y35.3694 
G01 X12.7032 Y35.3994 
G01 X12.8568 Y35.3994 
G01 X13.0073 Y35.3694 
G01 X13.1149 Y35.3249 
G01 X13.1588 Y35.3503 
G01 X13.1636 Y35.3516 
G01 X13.1678 Y35.3539 
G01 X13.2215 Y35.3671 
G01 X13.2749 Y35.3814 
G01 X13.2798 Y35.3814 
G01 X13.2846 Y35.3826 
G01 X13.3398 Y35.3814 
G01 X13.3951 Y35.3814 
G01 X13.3998 Y35.3801 
G01 X13.4047 Y35.3800 
G01 X13.4578 Y35.3646 
G01 X13.5112 Y35.3503 
G01 X13.5154 Y35.3478 
G01 X13.5201 Y35.3465 
G01 X13.5674 Y35.3178 
G01 X13.6152 Y35.2902 
G01 X13.6187 Y35.2867 
G01 X13.6229 Y35.2842 
G01 X13.6611 Y35.2443 
G01 X15.4290 Y33.4764 
G01 X20.3097 Y33.4764 
G01 X20.3595 Y33.4786 
G01 X20.3697 Y33.4764 
G01 X20.3801 Y33.4764 
G01 X20.4282 Y33.4635 
G01 X20.4769 Y33.4528 
G01 X20.4861 Y33.4480 
G01 X20.4962 Y33.4453 
G01 X20.5393 Y33.4204 
G01 X20.5836 Y33.3974 
G01 X20.5912 Y33.3904 
G01 X20.6002 Y33.3852 
G01 X20.6355 Y33.3500 
G01 X20.6723 Y33.3163 
G01 X20.6779 Y33.3076 
G01 X20.6852 Y33.3002 
G01 X20.7101 Y33.2571 
G01 X20.7370 Y33.2151 
G01 X20.7401 Y33.2052 
G01 X20.7453 Y33.1962 
G01 X20.7578 Y33.1494 
G01 X21.2358 Y33.1494 
G01 X21.3768 Y33.1214 
G01 X21.5095 Y33.0664 
G01 X21.6290 Y32.9866 
G01 X21.7306 Y32.8850 
G01 X21.8104 Y32.7655 
G01 X21.8654 Y32.6328 
G01 X21.8934 Y32.4918 
G01 X21.8934 Y32.3482 
G01 X21.8654 Y32.2072 
G01 X21.8104 Y32.0745 
G01 X21.7306 Y31.9550 
G01 X21.6290 Y31.8534 
G01 X21.5095 Y31.7736 
G01 X21.3768 Y31.7186 
G01 X21.2358 Y31.6906 
G01 X19.7842 Y31.6906 
G01 X19.6432 Y31.7186 
G01 X19.5105 Y31.7736 
G01 X19.3910 Y31.8534 
G01 X19.2894 Y31.9550 
G00 Z2.5400  
G00 X19.2894 Y34.4950 
G01 Z-0.0600 F90    
G01 X19.2096 Y34.6145 F300   
G01 X19.1546 Y34.7472 
G01 X19.1266 Y34.8882 
G01 X19.1266 Y35.0318 
G01 X19.1409 Y35.1036 
G01 X14.5449 Y35.1036 
G01 X14.4288 Y35.1347 
G01 X14.3248 Y35.1948 
G01 X13.3898 Y36.1298 
G01 X13.3854 Y36.1232 
G01 X13.2768 Y36.0146 
G01 X13.1492 Y35.9293 
G01 X13.0073 Y35.8706 
G01 X12.8568 Y35.8406 
G01 X12.7032 Y35.8406 
G01 X12.5527 Y35.8706 
G01 X12.4108 Y35.9293 
G01 X12.2832 Y36.0146 
G01 X12.1746 Y36.1232 
G01 X12.0893 Y36.2508 
G01 X12.0306 Y36.3927 
G01 X12.0006 Y36.5432 
G01 X12.0006 Y36.6968 
G01 X12.0306 Y36.8473 
G01 X12.0893 Y36.9892 
G01 X12.1746 Y37.1168 
G01 X12.2832 Y37.2254 
G01 X12.4108 Y37.3107 
G01 X12.5527 Y37.3694 
G01 X12.7032 Y37.3994 
G01 X12.8568 Y37.3994 
G01 X13.0073 Y37.3694 
G01 X13.1492 Y37.3107 
G01 X13.2094 Y37.2705 
G01 X13.2297 Y37.2781 
G01 X13.2526 Y37.2804 
G01 X13.2749 Y37.2864 
G01 X13.3122 Y37.2864 
G01 X13.3493 Y37.2901 
G01 X13.3720 Y37.2864 
G01 X13.3951 Y37.2864 
G01 X13.4311 Y37.2768 
G01 X13.4679 Y37.2707 
G01 X13.4889 Y37.2613 
G01 X13.5112 Y37.2553 
G01 X13.5434 Y37.2367 
G01 X13.5774 Y37.2213 
G01 X13.5953 Y37.2067 
G01 X13.6152 Y37.1952 
G01 X13.6416 Y37.1689 
G01 X13.6704 Y37.1453 
G01 X13.6839 Y37.1266 
G01 X14.7940 Y36.0164 
G01 X20.3097 Y36.0164 
G01 X20.3595 Y36.0186 
G01 X20.3697 Y36.0164 
G01 X20.3801 Y36.0164 
G01 X20.4282 Y36.0035 
G01 X20.4769 Y35.9928 
G01 X20.4861 Y35.9880 
G01 X20.4962 Y35.9853 
G01 X20.5393 Y35.9604 
G01 X20.5836 Y35.9374 
G01 X20.5912 Y35.9304 
G01 X20.6002 Y35.9252 
G01 X20.6355 Y35.8900 
G01 X20.6723 Y35.8563 
G01 X20.6779 Y35.8476 
G01 X20.6852 Y35.8402 
G01 X20.7101 Y35.7971 
G01 X20.7370 Y35.7551 
G01 X20.7401 Y35.7452 
G01 X20.7453 Y35.7362 
G01 X20.7578 Y35.6894 
G01 X21.2358 Y35.6894 
G01 X21.3768 Y35.6614 
G01 X21.5095 Y35.6064 
G01 X21.6290 Y35.5266 
G01 X21.7306 Y35.4250 
G01 X21.8104 Y35.3055 
G01 X21.8654 Y35.1728 
G01 X21.8934 Y35.0318 
G01 X21.8934 Y34.8882 
G01 X21.8654 Y34.7472 
G01 X21.8104 Y34.6145 
G01 X21.7306 Y34.4950 
G01 X21.6290 Y34.3934 
G01 X21.5095 Y34.3136 
G01 X21.3768 Y34.2586 
G01 X21.2358 Y34.2306 
G01 X19.7842 Y34.2306 
G01 X19.6432 Y34.2586 
G01 X19.5105 Y34.3136 
G01 X19.3910 Y34.3934 
G01 X19.2894 Y34.4950 
G00 Z2.5400  
G00 X19.2894 Y37.0350 
G01 Z-0.0600 F90    
G01 X19.2096 Y37.1545 F300   
G01 X19.1546 Y37.2872 
G01 X19.1266 Y37.4282 
G01 X19.1266 Y37.5718 
G01 X19.1409 Y37.6436 
G01 X13.9099 Y37.6436 
G01 X13.7938 Y37.6747 
G01 X13.6898 Y37.7348 
G01 X13.3434 Y38.0812 
G01 X13.2768 Y38.0146 
G01 X13.1492 Y37.9293 
G01 X13.0073 Y37.8706 
G01 X12.8568 Y37.8406 
G01 X12.7032 Y37.8406 
G01 X12.5527 Y37.8706 
G01 X12.4108 Y37.9293 
G01 X12.2832 Y38.0146 
G01 X12.1746 Y38.1232 
G01 X12.0893 Y38.2508 
G01 X12.0306 Y38.3927 
G01 X12.0006 Y38.5432 
G01 X12.0006 Y38.6968 
G01 X12.0306 Y38.8473 
G01 X12.0893 Y38.9892 
G01 X12.1746 Y39.1168 
G01 X12.2832 Y39.2254 
G01 X12.4108 Y39.3107 
G01 X12.5527 Y39.3694 
G01 X12.7032 Y39.3994 
G01 X12.8568 Y39.3994 
G01 X13.0073 Y39.3694 
G01 X13.1492 Y39.3107 
G01 X13.2768 Y39.2254 
G01 X13.3086 Y39.1937 
G01 X13.3481 Y39.1914 
G01 X13.3951 Y39.1914 
G01 X13.4079 Y39.1880 
G01 X13.4212 Y39.1872 
G01 X13.4658 Y39.1725 
G01 X13.5112 Y39.1603 
G01 X13.5227 Y39.1536 
G01 X13.5353 Y39.1495 
G01 X13.5746 Y39.1237 
G01 X13.6152 Y39.1002 
G01 X13.6246 Y39.0908 
G01 X13.6358 Y39.0835 
G01 X13.6670 Y39.0485 
G01 X14.1590 Y38.5564 
G01 X20.3098 Y38.5564 
G01 X20.3595 Y38.5586 
G01 X20.3697 Y38.5564 
G01 X20.3801 Y38.5564 
G01 X20.4282 Y38.5435 
G01 X20.4769 Y38.5328 
G01 X20.4861 Y38.5280 
G01 X20.4962 Y38.5253 
G01 X20.5393 Y38.5004 
G01 X20.5836 Y38.4774 
G01 X20.5912 Y38.4704 
G01 X20.6002 Y38.4652 
G01 X20.6355 Y38.4299 
G01 X20.6723 Y38.3963 
G01 X20.6779 Y38.3876 
G01 X20.6852 Y38.3802 
G01 X20.7101 Y38.3370 
G01 X20.7370 Y38.2951 
G01 X20.7401 Y38.2852 
G01 X20.7453 Y38.2762 
G01 X20.7578 Y38.2294 
G01 X21.2358 Y38.2294 
G01 X21.3768 Y38.2014 
G01 X21.5095 Y38.1464 
G01 X21.6290 Y38.0666 
G01 X21.7306 Y37.9650 
G01 X21.8104 Y37.8455 
G01 X21.8654 Y37.7128 
G01 X21.8934 Y37.5718 
G01 X21.8934 Y37.4282 
G01 X21.8654 Y37.2872 
G01 X21.8104 Y37.1545 
G01 X21.7306 Y37.0350 
G01 X21.6290 Y36.9334 
G01 X21.5095 Y36.8536 
G01 X21.3768 Y36.7986 
G01 X21.2358 Y36.7706 
G01 X19.7842 Y36.7706 
G01 X19.6432 Y36.7986 
G01 X19.5105 Y36.8536 
G01 X19.3910 Y36.9334 
G01 X19.2894 Y37.0350 
G00 Z2.5400  
G00 X19.2894 Y39.5750 
G01 Z-0.0600 F90    
G01 X19.2096 Y39.6945 F300   
G01 X19.1546 Y39.8272 
G01 X19.1266 Y39.9682 
G01 X19.1266 Y40.1118 
G01 X19.1546 Y40.2528 
G01 X19.2096 Y40.3855 
G01 X19.2894 Y40.5050 
G01 X19.3910 Y40.6066 
G01 X19.5105 Y40.6864 
G01 X19.6432 Y40.7414 
G01 X19.7842 Y40.7694 
G01 X21.2358 Y40.7694 
G01 X21.3768 Y40.7414 
G01 X21.5095 Y40.6864 
G01 X21.6290 Y40.6066 
G01 X21.7306 Y40.5050 
G01 X21.8104 Y40.3855 
G01 X21.8654 Y40.2528 
G01 X21.8934 Y40.1118 
G01 X21.8934 Y39.9682 
G01 X21.8654 Y39.8272 
G01 X21.8104 Y39.6945 
G01 X21.7306 Y39.5750 
G01 X21.6290 Y39.4734 
G01 X21.5095 Y39.3936 
G01 X21.3768 Y39.3386 
G01 X21.2358 Y39.3106 
G01 X19.7842 Y39.3106 
G01 X19.6432 Y39.3386 
G01 X19.5105 Y39.3936 
G01 X19.3910 Y39.4734 
G01 X19.2894 Y39.5750 
G00 Z2.5400  
G00 X19.2894 Y42.1150 
G01 Z-0.0600 F90    
G01 X19.2096 Y42.2345 F300   
G01 X19.1546 Y42.3672 
G01 X19.1266 Y42.5082 
G01 X19.1266 Y42.6518 
G01 X19.1546 Y42.7928 
G01 X19.2096 Y42.9255 
G01 X19.2894 Y43.0450 
G01 X19.3910 Y43.1466 
G01 X19.5105 Y43.2264 
G01 X19.6432 Y43.2814 
G01 X19.7842 Y43.3094 
G01 X21.2358 Y43.3094 
G01 X21.3768 Y43.2814 
G01 X21.5095 Y43.2264 
G01 X21.6290 Y43.1466 
G01 X21.7306 Y43.0450 
G01 X21.8104 Y42.9255 
G01 X21.8654 Y42.7928 
G01 X21.8934 Y42.6518 
G01 X21.8934 Y42.5082 
G01 X21.8654 Y42.3672 
G01 X21.8104 Y42.2345 
G01 X21.7306 Y42.1150 
G01 X21.6290 Y42.0134 
G01 X21.5095 Y41.9336 
G01 X21.3768 Y41.8786 
G01 X21.2358 Y41.8506 
G01 X19.7842 Y41.8506 
G01 X19.6432 Y41.8786 
G01 X19.5105 Y41.9336 
G01 X19.3910 Y42.0134 
G01 X19.2894 Y42.1150 
G00 Z2.5400  
G00 X19.2894 Y44.6550 
G01 Z-0.0600 F90    
G01 X19.2096 Y44.7745 F300   
G01 X19.1546 Y44.9072 
G01 X19.1266 Y45.0482 
G01 X19.1266 Y45.1918 
G01 X19.1546 Y45.3328 
G01 X19.2096 Y45.4655 
G01 X19.2894 Y45.5850 
G01 X19.3910 Y45.6866 
G01 X19.5105 Y45.7664 
G01 X19.6432 Y45.8214 
G01 X19.7842 Y45.8494 
G01 X21.2358 Y45.8494 
G01 X21.3768 Y45.8214 
G01 X21.5095 Y45.7664 
G01 X21.6290 Y45.6866 
G01 X21.7306 Y45.5850 
G01 X21.8104 Y45.4655 
G01 X21.8654 Y45.3328 
G01 X21.8934 Y45.1918 
G01 X21.8934 Y45.0482 
G01 X21.8654 Y44.9072 
G01 X21.8104 Y44.7745 
G01 X21.7306 Y44.6550 
G01 X21.6290 Y44.5534 
G01 X21.5095 Y44.4736 
G01 X21.3768 Y44.4186 
G01 X21.2358 Y44.3906 
G01 X19.7842 Y44.3906 
G01 X19.6432 Y44.4186 
G01 X19.5105 Y44.4736 
G01 X19.3910 Y44.5534 
G01 X19.2894 Y44.6550 
G00 Z2.5400  
G00 X27.4836 Y44.3899 
G01 Z-0.0600 F90    
G01 X27.4836 Y53.7859 F300   
G01 X26.0250 Y55.2446 
G01 X25.9729 Y55.2342 
G01 X24.5071 Y55.2342 
G01 X24.3650 Y55.2625 
G01 X24.2311 Y55.3179 
G01 X24.1106 Y55.3985 
G01 X24.0081 Y55.5010 
G01 X23.9275 Y55.6215 
G01 X23.8721 Y55.7554 
G01 X23.8438 Y55.8975 
G01 X23.8438 Y56.0425 
G01 X23.8721 Y56.1846 
G01 X23.9275 Y56.3185 
G01 X24.0081 Y56.4390 
G01 X24.1106 Y56.5415 
G01 X24.2311 Y56.6221 
G01 X24.3650 Y56.6775 
G01 X24.5071 Y56.7058 
G01 X24.9818 Y56.7058 
G01 X25.0075 Y56.7479 
G01 X25.0348 Y56.7952 
G01 X25.0387 Y56.7991 
G01 X25.0415 Y56.8038 
G01 X25.0811 Y56.8416 
G01 X25.1198 Y56.8802 
G01 X25.1245 Y56.8830 
G01 X25.1285 Y56.8868 
G01 X25.1765 Y56.9130 
G01 X25.2238 Y56.9403 
G01 X25.2292 Y56.9417 
G01 X25.2340 Y56.9444 
G01 X25.2872 Y56.9573 
G01 X25.3399 Y56.9714 
G01 X25.3454 Y56.9714 
G01 X25.3508 Y56.9727 
G01 X25.4055 Y56.9714 
G01 X25.4601 Y56.9714 
G01 X25.4654 Y56.9700 
G01 X25.4709 Y56.9698 
G01 X25.5234 Y56.9544 
G01 X25.5762 Y56.9403 
G01 X25.5809 Y56.9375 
G01 X25.5862 Y56.9360 
G01 X25.6329 Y56.9075 
G01 X25.6802 Y56.8802 
G01 X25.6841 Y56.8763 
G01 X25.6888 Y56.8734 
G01 X25.7266 Y56.8339 
G01 X25.8546 Y56.7058 
G01 X25.9729 Y56.7058 
G01 X26.1150 Y56.6775 
G01 X26.2489 Y56.6221 
G01 X26.3694 Y56.5415 
G01 X26.4719 Y56.4390 
G01 X26.5525 Y56.3185 
G01 X26.6079 Y56.1846 
G01 X26.6362 Y56.0425 
G01 X26.6362 Y55.9242 
G01 X28.3052 Y54.2552 
G01 X28.3653 Y54.1512 
G01 X28.3964 Y54.0351 
G01 X28.3964 Y44.6390 
G01 X34.4790 Y38.5564 
G01 X35.5497 Y38.5564 
G01 X35.5996 Y38.5586 
G01 X35.6097 Y38.5564 
G01 X35.6201 Y38.5564 
G01 X35.6682 Y38.5435 
G01 X35.7169 Y38.5328 
G01 X35.7261 Y38.5280 
G01 X35.7362 Y38.5253 
G01 X35.7793 Y38.5004 
G01 X35.8236 Y38.4774 
G01 X35.8312 Y38.4704 
G01 X35.8402 Y38.4652 
G01 X35.8755 Y38.4300 
G01 X35.9123 Y38.3963 
G01 X35.9179 Y38.3876 
G01 X35.9252 Y38.3802 
G01 X35.9501 Y38.3371 
G01 X35.9770 Y38.2951 
G01 X35.9801 Y38.2852 
G01 X35.9853 Y38.2762 
G01 X35.9978 Y38.2294 
G01 X36.4758 Y38.2294 
G01 X36.6168 Y38.2014 
G01 X36.7495 Y38.1464 
G01 X36.8690 Y38.0666 
G01 X36.9706 Y37.9650 
G01 X37.0504 Y37.8455 
G01 X37.1054 Y37.7128 
G01 X37.1334 Y37.5718 
G01 X37.1334 Y37.4282 
G01 X37.1054 Y37.2872 
G01 X37.0504 Y37.1545 
G01 X36.9706 Y37.0350 
G01 X36.8690 Y36.9334 
G01 X36.7495 Y36.8536 
G01 X36.6168 Y36.7986 
G01 X36.4758 Y36.7706 
G01 X35.0242 Y36.7706 
G01 X34.8832 Y36.7986 
G01 X34.7505 Y36.8536 
G01 X34.6310 Y36.9334 
G01 X34.5294 Y37.0350 
G01 X34.4496 Y37.1545 
G01 X34.3946 Y37.2872 
G01 X34.3666 Y37.4282 
G01 X34.3666 Y37.5718 
G01 X34.3809 Y37.6436 
G01 X34.2299 Y37.6436 
G01 X34.1138 Y37.6747 
G01 X34.0098 Y37.7348 
G01 X27.6598 Y44.0848 
G01 X27.5748 Y44.1698 
G01 X27.5147 Y44.2738 
G01 X27.4836 Y44.3899 
G00 Z2.5400  
G00 X32.5636 Y44.3899 
G01 Z-0.0600 F90    
G01 X32.5636 Y45.7801 F300   
G01 X32.5947 Y45.8962 
G01 X32.6548 Y46.0002 
G01 X43.5348 Y56.8802 
G01 X43.6388 Y56.9403 
G01 X43.7549 Y56.9714 
G01 X52.1301 Y56.9714 
G01 X52.2462 Y56.9403 
G01 X52.3502 Y56.8802 
G01 X54.2552 Y54.9752 
G01 X54.3402 Y54.8902 
G01 X54.4003 Y54.7862 
G01 X54.4314 Y54.6701 
G01 X54.4314 Y36.1349 
G01 X54.4003 Y36.0188 
G01 X54.3402 Y35.9148 
G01 X51.8002 Y33.3748 
G01 X51.7152 Y33.2898 
G01 X51.6112 Y33.2297 
G01 X51.4951 Y33.1986 
G01 X51.3825 Y33.1986 
G01 X51.3254 Y33.1132 
G01 X51.2168 Y33.0046 
G01 X51.0892 Y32.9193 
G01 X50.9473 Y32.8606 
G01 X50.7968 Y32.8306 
G01 X50.6432 Y32.8306 
G01 X50.4927 Y32.8606 
G01 X50.3508 Y32.9193 
G01 X50.2232 Y33.0046 
G01 X50.1146 Y33.1132 
G01 X50.0293 Y33.2408 
G01 X49.9706 Y33.3827 
G01 X49.9406 Y33.5332 
G01 X49.9406 Y33.6868 
G01 X49.9706 Y33.8373 
G01 X50.0293 Y33.9792 
G01 X50.1146 Y34.1068 
G01 X50.2232 Y34.2154 
G01 X50.3508 Y34.3007 
G01 X50.4927 Y34.3594 
G01 X50.6432 Y34.3894 
G01 X50.7968 Y34.3894 
G01 X50.9473 Y34.3594 
G01 X51.0892 Y34.3007 
G01 X51.2168 Y34.2154 
G01 X51.2834 Y34.1488 
G01 X53.5186 Y36.3840 
G01 X53.5186 Y54.4210 
G01 X51.8809 Y56.0586 
G01 X44.0040 Y56.0586 
G01 X33.4764 Y45.5309 
G01 X33.4764 Y44.6390 
G01 X34.4790 Y43.6364 
G01 X35.5498 Y43.6364 
G01 X35.5996 Y43.6386 
G01 X35.6097 Y43.6364 
G01 X35.6201 Y43.6364 
G01 X35.6682 Y43.6235 
G01 X35.7169 Y43.6128 
G01 X35.7261 Y43.6080 
G01 X35.7362 Y43.6053 
G01 X35.7793 Y43.5804 
G01 X35.8236 Y43.5574 
G01 X35.8312 Y43.5504 
G01 X35.8402 Y43.5452 
G01 X35.8755 Y43.5099 
G01 X35.9123 Y43.4763 
G01 X35.9179 Y43.4676 
G01 X35.9252 Y43.4602 
G01 X35.9501 Y43.4171 
G01 X35.9770 Y43.3751 
G01 X35.9801 Y43.3652 
G01 X35.9853 Y43.3562 
G01 X35.9978 Y43.3094 
G01 X36.4758 Y43.3094 
G01 X36.6168 Y43.2814 
G01 X36.7495 Y43.2264 
G01 X36.8690 Y43.1466 
G01 X36.9706 Y43.0450 
G01 X37.0504 Y42.9255 
G01 X37.1054 Y42.7928 
G01 X37.1334 Y42.6518 
G01 X37.1334 Y42.5082 
G01 X37.1054 Y42.3672 
G01 X37.0504 Y42.2345 
G01 X36.9706 Y42.1150 
G01 X36.8690 Y42.0134 
G01 X36.7495 Y41.9336 
G01 X36.6168 Y41.8786 
G01 X36.4758 Y41.8506 
G01 X35.0242 Y41.8506 
G01 X34.8832 Y41.8786 
G01 X34.7505 Y41.9336 
G01 X34.6310 Y42.0134 
G01 X34.5294 Y42.1150 
G01 X34.4496 Y42.2345 
G01 X34.3946 Y42.3672 
G01 X34.3666 Y42.5082 
G01 X34.3666 Y42.6518 
G01 X34.3809 Y42.7236 
G01 X34.2299 Y42.7236 
G01 X34.1138 Y42.7547 
G01 X34.0098 Y42.8148 
G01 X32.7398 Y44.0848 
G01 X32.6548 Y44.1698 
G01 X32.5947 Y44.2738 
G01 X32.5636 Y44.3899 
G00 Z2.5400  
G00 X34.5294 Y44.6550 
G01 Z-0.0600 F90    
G01 X34.4496 Y44.7745 F300   
G01 X34.3946 Y44.9072 
G01 X34.3666 Y45.0482 
G01 X34.3666 Y45.1918 
G01 X34.3946 Y45.3328 
G01 X34.4496 Y45.4655 
G01 X34.5294 Y45.5850 
G01 X34.6310 Y45.6866 
G01 X34.7505 Y45.7664 
G01 X34.8832 Y45.8214 
G01 X35.0242 Y45.8494 
G01 X35.7227 Y45.8494 
G01 X35.8128 Y45.9709 
G01 X35.8298 Y46.0002 
G01 X35.8485 Y46.0189 
G01 X35.8642 Y46.0401 
G01 X35.8908 Y46.0612 
G01 X35.9148 Y46.0852 
G01 X35.9376 Y46.0984 
G01 X35.9583 Y46.1148 
G01 X35.9895 Y46.1283 
G01 X36.0188 Y46.1453 
G01 X36.0444 Y46.1521 
G01 X36.0686 Y46.1626 
G01 X36.1022 Y46.1676 
G01 X36.1349 Y46.1764 
G01 X36.1613 Y46.1764 
G01 X36.1875 Y46.1803 
G01 X36.2212 Y46.1764 
G01 X37.9109 Y46.1764 
G01 X47.2598 Y55.5252 
G01 X47.3448 Y55.6102 
G01 X47.4488 Y55.6703 
G01 X47.5649 Y55.7014 
G01 X51.4951 Y55.7014 
G01 X51.6112 Y55.6703 
G01 X51.7152 Y55.6102 
G01 X52.9852 Y54.3402 
G01 X53.0702 Y54.2552 
G01 X53.1303 Y54.1512 
G01 X53.1614 Y54.0351 
G01 X53.1614 Y36.7699 
G01 X53.1303 Y36.6538 
G01 X53.0702 Y36.5498 
G01 X51.8002 Y35.2798 
G01 X51.7152 Y35.1948 
G01 X51.6112 Y35.1347 
G01 X51.4951 Y35.1036 
G01 X51.3158 Y35.1036 
G01 X51.2168 Y35.0046 
G01 X51.0892 Y34.9193 
G01 X50.9473 Y34.8606 
G01 X50.7968 Y34.8306 
G01 X50.6432 Y34.8306 
G01 X50.4927 Y34.8606 
G01 X50.3508 Y34.9193 
G01 X50.2232 Y35.0046 
G01 X50.1146 Y35.1132 
G01 X50.0293 Y35.2408 
G01 X49.9706 Y35.3827 
G01 X49.9406 Y35.5332 
G01 X49.9406 Y35.6868 
G01 X49.9706 Y35.8373 
G01 X50.0293 Y35.9792 
G01 X50.1146 Y36.1068 
G01 X50.2232 Y36.2154 
G01 X50.3508 Y36.3007 
G01 X50.4927 Y36.3594 
G01 X50.6432 Y36.3894 
G01 X50.7968 Y36.3894 
G01 X50.9473 Y36.3594 
G01 X51.0892 Y36.3007 
G01 X51.2168 Y36.2154 
G01 X51.3254 Y36.1068 
G01 X51.3298 Y36.1002 
G01 X52.2486 Y37.0190 
G01 X52.2486 Y53.7859 
G01 X51.2460 Y54.7886 
G01 X47.8140 Y54.7886 
G01 X38.3802 Y45.3548 
G01 X38.2762 Y45.2947 
G01 X38.1601 Y45.2636 
G01 X37.1191 Y45.2636 
G01 X37.1334 Y45.1918 
G01 X37.1334 Y45.0482 
G01 X37.1054 Y44.9072 
G01 X37.0504 Y44.7745 
G01 X36.9706 Y44.6550 
G01 X36.8690 Y44.5534 
G01 X36.7495 Y44.4736 
G01 X36.6168 Y44.4186 
G01 X36.4758 Y44.3906 
G01 X35.0242 Y44.3906 
G01 X34.8832 Y44.4186 
G01 X34.7505 Y44.4736 
G01 X34.6310 Y44.5534 
G01 X34.5294 Y44.6550 
G00 Z2.5400  
G00 X34.6310 Y40.6066 
G01 Z-0.0600 F90    
G01 X34.7505 Y40.6864 F300   
G01 X34.8832 Y40.7414 
G01 X35.0242 Y40.7694 
G01 X36.4758 Y40.7694 
G01 X36.6168 Y40.7414 
G01 X36.7495 Y40.6864 
G01 X36.8690 Y40.6066 
G01 X36.9706 Y40.5050 
G01 X36.9997 Y40.4614 
G01 X45.7801 Y40.4614 
G01 X45.8962 Y40.4303 
G01 X46.0002 Y40.3702 
G01 X48.1891 Y38.1813 
G01 X48.2232 Y38.2154 
G01 X48.3508 Y38.3007 
G01 X48.4927 Y38.3594 
G01 X48.6432 Y38.3894 
G01 X48.7968 Y38.3894 
G01 X48.9473 Y38.3594 
G01 X49.0892 Y38.3007 
G01 X49.2168 Y38.2154 
G01 X49.3254 Y38.1068 
G01 X49.4107 Y37.9792 
G01 X49.4694 Y37.8373 
G01 X49.4994 Y37.6868 
G01 X49.4994 Y37.5332 
G01 X49.4694 Y37.3827 
G01 X49.4107 Y37.2408 
G01 X49.3254 Y37.1132 
G01 X49.2168 Y37.0046 
G01 X49.0892 Y36.9193 
G01 X48.9473 Y36.8606 
G01 X48.7968 Y36.8306 
G01 X48.6432 Y36.8306 
G01 X48.4927 Y36.8606 
G01 X48.3508 Y36.9193 
G01 X48.2232 Y37.0046 
G01 X48.2198 Y37.0064 
G01 X48.2100 Y37.0086 
G01 X48.1999 Y37.0086 
G01 X48.1515 Y37.0216 
G01 X48.1025 Y37.0324 
G01 X48.0936 Y37.0371 
G01 X48.0838 Y37.0397 
G01 X48.0404 Y37.0648 
G01 X47.9959 Y37.0879 
G01 X47.9885 Y37.0947 
G01 X47.9798 Y37.0998 
G01 X47.9443 Y37.1352 
G01 X47.9073 Y37.1691 
G01 X47.9019 Y37.1776 
G01 X45.5309 Y39.5486 
G01 X36.9441 Y39.5486 
G01 X36.8690 Y39.4734 
G01 X36.7495 Y39.3936 
G01 X36.6168 Y39.3386 
G01 X36.4758 Y39.3106 
G01 X35.0242 Y39.3106 
G01 X34.8832 Y39.3386 
G01 X34.7505 Y39.3936 
G01 X34.6310 Y39.4734 
G01 X34.5294 Y39.5750 
G01 X34.4496 Y39.6945 
G01 X34.3946 Y39.8272 
G01 X34.3666 Y39.9682 
G01 X34.3666 Y40.1118 
G01 X34.3946 Y40.2528 
G01 X34.4496 Y40.3855 
G01 X34.5294 Y40.5050 
G01 X34.6310 Y40.6066 
G00 Z2.5400  
G00 X34.6310 Y35.5266 
G01 Z-0.0600 F90    
G01 X34.7505 Y35.6064 F300   
G01 X34.8832 Y35.6614 
G01 X35.0242 Y35.6894 
G01 X36.4758 Y35.6894 
G01 X36.6168 Y35.6614 
G01 X36.7495 Y35.6064 
G01 X36.8690 Y35.5266 
G01 X36.9706 Y35.4250 
G01 X36.9997 Y35.3814 
G01 X42.6051 Y35.3814 
G01 X42.7212 Y35.3503 
G01 X42.8252 Y35.2902 
G01 X48.0721 Y30.0433 
G01 X48.1146 Y30.1068 
G01 X48.2232 Y30.2154 
G01 X48.3508 Y30.3007 
G01 X48.4927 Y30.3594 
G01 X48.6432 Y30.3894 
G01 X48.7968 Y30.3894 
G01 X48.9473 Y30.3594 
G01 X49.0892 Y30.3007 
G01 X49.2168 Y30.2154 
G01 X49.3254 Y30.1068 
G01 X49.4107 Y29.9792 
G01 X49.4694 Y29.8373 
G01 X49.4994 Y29.6868 
G01 X49.4994 Y29.5332 
G01 X49.4694 Y29.3827 
G01 X49.4107 Y29.2408 
G01 X49.3254 Y29.1132 
G01 X49.2168 Y29.0046 
G01 X49.0892 Y28.9193 
G01 X48.9473 Y28.8606 
G01 X48.7968 Y28.8306 
G01 X48.6432 Y28.8306 
G01 X48.5455 Y28.8500 
G01 X48.5402 Y28.8448 
G01 X48.5263 Y28.8367 
G01 X48.5141 Y28.8262 
G01 X48.4744 Y28.8068 
G01 X48.4362 Y28.7847 
G01 X48.4206 Y28.7805 
G01 X48.4061 Y28.7735 
G01 X48.3627 Y28.7650 
G01 X48.3201 Y28.7536 
G01 X48.3040 Y28.7536 
G01 X48.2882 Y28.7505 
G01 X48.2441 Y28.7536 
G01 X48.1999 Y28.7536 
G01 X48.1844 Y28.7578 
G01 X48.1683 Y28.7589 
G01 X48.1265 Y28.7733 
G01 X48.0838 Y28.7847 
G01 X48.0699 Y28.7928 
G01 X48.0547 Y28.7980 
G01 X48.0180 Y28.8227 
G01 X47.9798 Y28.8448 
G01 X47.9684 Y28.8562 
G01 X47.9550 Y28.8652 
G01 X47.9260 Y28.8985 
G01 X42.3559 Y34.4686 
G01 X36.9441 Y34.4686 
G01 X36.8690 Y34.3934 
G01 X36.7495 Y34.3136 
G01 X36.6168 Y34.2586 
G01 X36.4758 Y34.2306 
G01 X35.0242 Y34.2306 
G01 X34.8832 Y34.2586 
G01 X34.7505 Y34.3136 
G01 X34.6310 Y34.3934 
G01 X34.5294 Y34.4950 
G01 X34.4496 Y34.6145 
G01 X34.3946 Y34.7472 
G01 X34.3666 Y34.8882 
G01 X34.3666 Y35.0318 
G01 X34.3946 Y35.1728 
G01 X34.4496 Y35.3055 
G01 X34.5294 Y35.4250 
G01 X34.6310 Y35.5266 
G00 Z2.5400  
G00 X34.6310 Y32.9866 
G01 Z-0.0600 F90    
G01 X34.7505 Y33.0664 F300   
G01 X34.8832 Y33.1214 
G01 X35.0242 Y33.1494 
G01 X36.4758 Y33.1494 
G01 X36.6168 Y33.1214 
G01 X36.7495 Y33.0664 
G01 X36.8690 Y32.9866 
G01 X36.9706 Y32.8850 
G01 X37.0504 Y32.7655 
G01 X37.1054 Y32.6328 
G01 X37.1334 Y32.4918 
G01 X37.1334 Y32.3482 
G01 X37.1054 Y32.2072 
G01 X37.0504 Y32.0745 
G01 X36.9706 Y31.9550 
G01 X36.8690 Y31.8534 
G01 X36.7495 Y31.7736 
G01 X36.6168 Y31.7186 
G01 X36.4758 Y31.6906 
G01 X35.0242 Y31.6906 
G01 X34.8832 Y31.7186 
G01 X34.7505 Y31.7736 
G01 X34.6310 Y31.8534 
G01 X34.5294 Y31.9550 
G01 X34.4496 Y32.0745 
G01 X34.3946 Y32.2072 
G01 X34.3666 Y32.3482 
G01 X34.3666 Y32.4918 
G01 X34.3946 Y32.6328 
G01 X34.4496 Y32.7655 
G01 X34.5294 Y32.8850 
G01 X34.6310 Y32.9866 
G00 Z2.5400  
G00 X34.6310 Y30.4466 
G01 Z-0.0600 F90    
G01 X34.7505 Y30.5264 F300   
G01 X34.8832 Y30.5814 
G01 X35.0242 Y30.6094 
G01 X36.4758 Y30.6094 
G01 X36.6168 Y30.5814 
G01 X36.7495 Y30.5264 
G01 X36.8690 Y30.4466 
G01 X36.9706 Y30.3450 
G01 X37.0504 Y30.2255 
G01 X37.1054 Y30.0928 
G01 X37.1334 Y29.9518 
G01 X37.1334 Y29.8082 
G01 X37.1054 Y29.6672 
G01 X37.0504 Y29.5345 
G01 X36.9706 Y29.4150 
G01 X36.8690 Y29.3134 
G01 X36.7495 Y29.2336 
G01 X36.6168 Y29.1786 
G01 X36.4758 Y29.1506 
G01 X35.0242 Y29.1506 
G01 X34.8832 Y29.1786 
G01 X34.7505 Y29.2336 
G01 X34.6310 Y29.3134 
G01 X34.5294 Y29.4150 
G01 X34.4496 Y29.5345 
G01 X34.3946 Y29.6672 
G01 X34.3666 Y29.8082 
G01 X34.3666 Y29.9518 
G01 X34.3946 Y30.0928 
G01 X34.4496 Y30.2255 
G01 X34.5294 Y30.3450 
G01 X34.6310 Y30.4466 
G00 Z2.5400  
G00 X34.6310 Y27.9066 
G01 Z-0.0600 F90    
G01 X34.7505 Y27.9864 F300   
G01 X34.8832 Y28.0414 
G01 X35.0242 Y28.0694 
G01 X36.4758 Y28.0694 
G01 X36.6168 Y28.0414 
G01 X36.7495 Y27.9864 
G01 X36.8690 Y27.9066 
G01 X36.9706 Y27.8050 
G01 X37.0504 Y27.6855 
G01 X37.1054 Y27.5528 
G01 X37.1334 Y27.4118 
G01 X37.1334 Y27.2682 
G01 X37.1054 Y27.1272 
G01 X37.0504 Y26.9945 
G01 X36.9706 Y26.8750 
G01 X36.8690 Y26.7734 
G01 X36.7495 Y26.6936 
G01 X36.6168 Y26.6386 
G01 X36.4758 Y26.6106 
G01 X35.0242 Y26.6106 
G01 X34.8832 Y26.6386 
G01 X34.7505 Y26.6936 
G01 X34.6310 Y26.7734 
G01 X34.5294 Y26.8750 
G01 X34.4496 Y26.9945 
G01 X34.3946 Y27.1272 
G01 X34.3666 Y27.2682 
G01 X34.3666 Y27.4118 
G01 X34.3946 Y27.5528 
G01 X34.4496 Y27.6855 
G01 X34.5294 Y27.8050 
G01 X34.6310 Y27.9066 
G00 Z2.5400  
G00 X34.6310 Y25.3666 
G01 Z-0.0600 F90    
G01 X34.7505 Y25.4464 F300   
G01 X34.8832 Y25.5014 
G01 X35.0242 Y25.5294 
G01 X36.4758 Y25.5294 
G01 X36.6168 Y25.5014 
G01 X36.7495 Y25.4464 
G01 X36.8690 Y25.3666 
G01 X36.9706 Y25.2650 
G01 X37.0504 Y25.1455 
G01 X37.1054 Y25.0128 
G01 X37.1334 Y24.8718 
G01 X37.1334 Y24.7282 
G01 X37.1054 Y24.5872 
G01 X37.0504 Y24.4545 
G01 X36.9706 Y24.3350 
G01 X36.8690 Y24.2334 
G01 X36.7495 Y24.1536 
G01 X36.6168 Y24.0986 
G01 X36.4758 Y24.0706 
G01 X35.0242 Y24.0706 
G01 X34.8832 Y24.0986 
G01 X34.7505 Y24.1536 
G01 X34.6310 Y24.2334 
G01 X34.5294 Y24.3350 
G01 X34.4496 Y24.4545 
G01 X34.3946 Y24.5872 
G01 X34.3666 Y24.7282 
G01 X34.3666 Y24.8718 
G01 X34.3946 Y25.0128 
G01 X34.4496 Y25.1455 
G01 X34.5294 Y25.2650 
G01 X34.6310 Y25.3666 
G00 Z2.5400  
G00 X34.6310 Y22.8266 
G01 Z-0.0600 F90    
G01 X34.7505 Y22.9064 F300   
G01 X34.8832 Y22.9614 
G01 X35.0242 Y22.9894 
G01 X36.4758 Y22.9894 
G01 X36.6168 Y22.9614 
G01 X36.7495 Y22.9064 
G01 X36.8690 Y22.8266 
G01 X36.9706 Y22.7250 
G01 X37.0504 Y22.6055 
G01 X37.1054 Y22.4728 
G01 X37.1334 Y22.3318 
G01 X37.1334 Y22.1882 
G01 X37.1054 Y22.0472 
G01 X37.0504 Y21.9145 
G01 X36.9706 Y21.7950 
G01 X36.8690 Y21.6934 
G01 X36.7495 Y21.6136 
G01 X36.6168 Y21.5586 
G01 X36.4758 Y21.5306 
G01 X35.0242 Y21.5306 
G01 X34.8832 Y21.5586 
G01 X34.7505 Y21.6136 
G01 X34.6310 Y21.6934 
G01 X34.5294 Y21.7950 
G01 X34.4496 Y21.9145 
G01 X34.3946 Y22.0472 
G01 X34.3666 Y22.1882 
G01 X34.3666 Y22.3318 
G01 X34.3946 Y22.4728 
G01 X34.4496 Y22.6055 
G01 X34.5294 Y22.7250 
G01 X34.6310 Y22.8266 
G00 Z2.5400  
G00 X34.6310 Y20.2866 
G01 Z-0.0600 F90    
G01 X34.7505 Y20.3664 F300   
G01 X34.8832 Y20.4214 
G01 X35.0242 Y20.4494 
G01 X36.4758 Y20.4494 
G01 X36.6168 Y20.4214 
G01 X36.7495 Y20.3664 
G01 X36.8690 Y20.2866 
G01 X36.9706 Y20.1850 
G01 X37.0504 Y20.0655 
G01 X37.1054 Y19.9328 
G01 X37.1334 Y19.7918 
G01 X37.1334 Y19.6482 
G01 X37.1054 Y19.5072 
G01 X37.0504 Y19.3745 
G01 X36.9706 Y19.2550 
G01 X36.8690 Y19.1534 
G01 X36.7495 Y19.0736 
G01 X36.6168 Y19.0186 
G01 X36.4758 Y18.9906 
G01 X35.0242 Y18.9906 
G01 X34.8832 Y19.0186 
G01 X34.7505 Y19.0736 
G01 X34.6310 Y19.1534 
G01 X34.5294 Y19.2550 
G01 X34.4496 Y19.3745 
G01 X34.3946 Y19.5072 
G01 X34.3666 Y19.6482 
G01 X34.3666 Y19.7918 
G01 X34.3946 Y19.9328 
G01 X34.4496 Y20.0655 
G01 X34.5294 Y20.1850 
G01 X34.6310 Y20.2866 
G00 Z2.5400  
G00 X34.6310 Y17.7466 
G01 Z-0.0600 F90    
G01 X34.7505 Y17.8264 F300   
G01 X34.8832 Y17.8814 
G01 X35.0242 Y17.9094 
G01 X36.4758 Y17.9094 
G01 X36.6168 Y17.8814 
G01 X36.7495 Y17.8264 
G01 X36.8690 Y17.7466 
G01 X36.9706 Y17.6450 
G01 X37.0504 Y17.5255 
G01 X37.1054 Y17.3928 
G01 X37.1334 Y17.2518 
G01 X37.1334 Y17.1082 
G01 X37.1054 Y16.9672 
G01 X37.0504 Y16.8345 
G01 X36.9706 Y16.7150 
G01 X36.8690 Y16.6134 
G01 X36.7495 Y16.5336 
G01 X36.6168 Y16.4786 
G01 X36.4758 Y16.4506 
G01 X35.0242 Y16.4506 
G01 X34.8832 Y16.4786 
G01 X34.7505 Y16.5336 
G01 X34.6310 Y16.6134 
G01 X34.5294 Y16.7150 
G01 X34.4496 Y16.8345 
G01 X34.3946 Y16.9672 
G01 X34.3666 Y17.1082 
G01 X34.3666 Y17.2518 
G01 X34.3946 Y17.3928 
G01 X34.4496 Y17.5255 
G01 X34.5294 Y17.6450 
G01 X34.6310 Y17.7466 
G00 Z2.5400  
G00 X34.6310 Y15.2066 
G01 Z-0.0600 F90    
G01 X34.7505 Y15.2864 F300   
G01 X34.8832 Y15.3414 
G01 X35.0242 Y15.3694 
G01 X36.4758 Y15.3694 
G01 X36.6168 Y15.3414 
G01 X36.7495 Y15.2864 
G01 X36.8690 Y15.2066 
G01 X36.9706 Y15.1050 
G01 X37.0504 Y14.9855 
G01 X37.1054 Y14.8528 
G01 X37.1334 Y14.7118 
G01 X37.1334 Y14.5682 
G01 X37.1054 Y14.4272 
G01 X37.0504 Y14.2945 
G01 X36.9706 Y14.1750 
G01 X36.8690 Y14.0734 
G01 X36.7495 Y13.9936 
G01 X36.6168 Y13.9386 
G01 X36.4758 Y13.9106 
G01 X35.0242 Y13.9106 
G01 X34.8832 Y13.9386 
G01 X34.7505 Y13.9936 
G01 X34.6310 Y14.0734 
G01 X34.5294 Y14.1750 
G01 X34.4496 Y14.2945 
G01 X34.3946 Y14.4272 
G01 X34.3666 Y14.5682 
G01 X34.3666 Y14.7118 
G01 X34.3946 Y14.8528 
G01 X34.4496 Y14.9855 
G01 X34.5294 Y15.1050 
G01 X34.6310 Y15.2066 
G00 Z2.5400  
G00 X34.6310 Y12.6666 
G01 Z-0.0600 F90    
G01 X34.7505 Y12.7464 F300   
G01 X34.8832 Y12.8014 
G01 X35.0242 Y12.8294 
G01 X36.4758 Y12.8294 
G01 X36.6168 Y12.8014 
G01 X36.7495 Y12.7464 
G01 X36.8690 Y12.6666 
G01 X36.9706 Y12.5650 
G01 X37.0504 Y12.4455 
G01 X37.1054 Y12.3128 
G01 X37.1334 Y12.1718 
G01 X37.1334 Y12.0282 
G01 X37.1054 Y11.8872 
G01 X37.0504 Y11.7545 
G01 X36.9706 Y11.6350 
G01 X36.8690 Y11.5334 
G01 X36.7495 Y11.4536 
G01 X36.6168 Y11.3986 
G01 X36.4758 Y11.3706 
G01 X35.0242 Y11.3706 
G01 X34.8832 Y11.3986 
G01 X34.7505 Y11.4536 
G01 X34.6310 Y11.5334 
G01 X34.5294 Y11.6350 
G01 X34.4496 Y11.7545 
G01 X34.3946 Y11.8872 
G01 X34.3666 Y12.0282 
G01 X34.3666 Y12.1718 
G01 X34.3946 Y12.3128 
G01 X34.4496 Y12.4455 
G01 X34.5294 Y12.5650 
G01 X34.6310 Y12.6666 
G00 Z2.5400  
G00 X34.6310 Y10.1266 
G01 Z-0.0600 F90    
G01 X34.7505 Y10.2064 F300   
G01 X34.8832 Y10.2614 
G01 X35.0242 Y10.2894 
G01 X36.4758 Y10.2894 
G01 X36.6168 Y10.2614 
G01 X36.7495 Y10.2064 
G01 X36.8690 Y10.1266 
G01 X36.9706 Y10.0250 
G01 X37.0504 Y9.9055  
G01 X37.1054 Y9.7728  
G01 X37.1334 Y9.6318  
G01 X37.1334 Y9.4882  
G01 X37.1054 Y9.3472  
G01 X37.0504 Y9.2145  
G01 X36.9706 Y9.0950  
G01 X36.8690 Y8.9934  
G01 X36.7495 Y8.9136  
G01 X36.6168 Y8.8586  
G01 X36.4758 Y8.8306  
G01 X35.0242 Y8.8306  
G01 X34.8832 Y8.8586  
G01 X34.7505 Y8.9136  
G01 X34.6310 Y8.9934  
G01 X34.5294 Y9.0950  
G01 X34.4496 Y9.2145  
G01 X34.3946 Y9.3472  
G01 X34.3666 Y9.4882  
G01 X34.3666 Y9.6318  
G01 X34.3946 Y9.7728  
G01 X34.4496 Y9.9055  
G01 X34.5294 Y10.0250 
G01 X34.6310 Y10.1266 
G00 Z2.5400  
G00 X31.1350 Y10.2634 
G01 Z-0.0600 F90    
G01 X31.0155 Y10.1836 F300   
G01 X30.8828 Y10.1286 
G01 X30.7418 Y10.1006 
G01 X30.5982 Y10.1006 
G01 X30.4572 Y10.1286 
G01 X30.3245 Y10.1836 
G01 X30.2050 Y10.2634 
G01 X30.1034 Y10.3650 
G01 X30.0236 Y10.4845 
G01 X29.9686 Y10.6172 
G01 X29.9406 Y10.7582 
G01 X29.9406 Y10.9018 
G01 X29.9686 Y11.0428 
G01 X30.0236 Y11.1755 
G01 X30.1034 Y11.2950 
G01 X30.2050 Y11.3966 
G01 X30.3245 Y11.4764 
G01 X30.4572 Y11.5314 
G01 X30.5982 Y11.5594 
G01 X30.7418 Y11.5594 
G01 X30.8828 Y11.5314 
G01 X31.0155 Y11.4764 
G01 X31.1350 Y11.3966 
G01 X31.2366 Y11.2950 
G01 X31.3164 Y11.1755 
G01 X31.3714 Y11.0428 
G01 X31.3994 Y10.9018 
G01 X31.3994 Y10.7582 
G01 X31.3714 Y10.6172 
G01 X31.3164 Y10.4845 
G01 X31.2366 Y10.3650 
G01 X31.1350 Y10.2634 
G00 Z2.5400  
G00 X31.1350 Y8.8566  
G01 Z-0.0600 F90    
G01 X31.2366 Y8.7550  F300   
G01 X31.3164 Y8.6355  
G01 X31.3714 Y8.5028  
G01 X31.3994 Y8.3618  
G01 X31.3994 Y8.2182  
G01 X31.3714 Y8.0772  
G01 X31.3164 Y7.9445  
G01 X31.2366 Y7.8250  
G01 X31.1350 Y7.7234  
G01 X31.0155 Y7.6436  
G01 X30.8828 Y7.5886  
G01 X30.7418 Y7.5606  
G01 X30.5982 Y7.5606  
G01 X30.4572 Y7.5886  
G01 X30.3245 Y7.6436  
G01 X30.2050 Y7.7234  
G01 X30.1034 Y7.8250  
G01 X30.0236 Y7.9445  
G01 X29.9686 Y8.0772  
G01 X29.9406 Y8.2182  
G01 X29.9406 Y8.3618  
G01 X29.9686 Y8.5028  
G01 X30.0236 Y8.6355  
G01 X30.1034 Y8.7550  
G01 X30.2050 Y8.8566  
G01 X30.3245 Y8.9364  
G01 X30.4572 Y8.9914  
G01 X30.5982 Y9.0194  
G01 X30.7418 Y9.0194  
G01 X30.8828 Y8.9914  
G01 X31.0155 Y8.9364  
G01 X31.1350 Y8.8566  
G00 Z2.5400  
G00 X28.6966 Y8.7550  
G01 Z-0.0600 F90    
G01 X28.7764 Y8.6355  F300   
G01 X28.8314 Y8.5028  
G01 X28.8594 Y8.3618  
G01 X28.8594 Y8.2182  
G01 X28.8314 Y8.0772  
G01 X28.7764 Y7.9445  
G01 X28.6966 Y7.8250  
G01 X28.5950 Y7.7234  
G01 X28.4755 Y7.6436  
G01 X28.3428 Y7.5886  
G01 X28.2018 Y7.5606  
G01 X28.0582 Y7.5606  
G01 X27.9172 Y7.5886  
G01 X27.7845 Y7.6436  
G01 X27.6650 Y7.7234  
G01 X27.5634 Y7.8250  
G01 X27.4836 Y7.9445  
G01 X27.4286 Y8.0772  
G01 X27.4006 Y8.2182  
G01 X27.4006 Y8.3618  
G01 X27.4286 Y8.5028  
G01 X27.4836 Y8.6355  
G01 X27.5634 Y8.7550  
G01 X27.6650 Y8.8566  
G01 X27.7845 Y8.9364  
G01 X27.9172 Y8.9914  
G01 X28.0582 Y9.0194  
G01 X28.2018 Y9.0194  
G01 X28.3428 Y8.9914  
G01 X28.4755 Y8.9364  
G01 X28.5950 Y8.8566  
G01 X28.6966 Y8.7550  
G00 Z2.5400  
G00 X28.5950 Y10.2634 
G01 Z-0.0600 F90    
G01 X28.4755 Y10.1836 F300   
G01 X28.3428 Y10.1286 
G01 X28.2018 Y10.1006 
G01 X28.0582 Y10.1006 
G01 X27.9172 Y10.1286 
G01 X27.7845 Y10.1836 
G01 X27.6650 Y10.2634 
G01 X27.5634 Y10.3650 
G01 X27.4836 Y10.4845 
G01 X27.4286 Y10.6172 
G01 X27.4006 Y10.7582 
G01 X27.4006 Y10.9018 
G01 X27.4286 Y11.0428 
G01 X27.4836 Y11.1755 
G01 X27.5634 Y11.2950 
G01 X27.6650 Y11.3966 
G01 X27.7845 Y11.4764 
G01 X27.9172 Y11.5314 
G01 X28.0582 Y11.5594 
G01 X28.2018 Y11.5594 
G01 X28.3428 Y11.5314 
G01 X28.4755 Y11.4764 
G01 X28.5950 Y11.3966 
G01 X28.6966 Y11.2950 
G01 X28.7764 Y11.1755 
G01 X28.8314 Y11.0428 
G01 X28.8594 Y10.9018 
G01 X28.8594 Y10.7582 
G01 X28.8314 Y10.6172 
G01 X28.7764 Y10.4845 
G01 X28.6966 Y10.3650 
G01 X28.5950 Y10.2634 
G00 Z2.5400  
G00 X26.0550 Y10.2634 
G01 Z-0.0600 F90    
G01 X25.9355 Y10.1836 F300   
G01 X25.8028 Y10.1286 
G01 X25.6618 Y10.1006 
G01 X25.5182 Y10.1006 
G01 X25.3772 Y10.1286 
G01 X25.2445 Y10.1836 
G01 X25.1250 Y10.2634 
G01 X25.0234 Y10.3650 
G01 X24.9436 Y10.4845 
G01 X24.8886 Y10.6172 
G01 X24.8606 Y10.7582 
G01 X24.8606 Y10.9018 
G01 X24.8886 Y11.0428 
G01 X24.9436 Y11.1755 
G01 X25.0234 Y11.2950 
G01 X25.1250 Y11.3966 
G01 X25.2445 Y11.4764 
G01 X25.3772 Y11.5314 
G01 X25.5182 Y11.5594 
G01 X25.6618 Y11.5594 
G01 X25.8028 Y11.5314 
G01 X25.9355 Y11.4764 
G01 X26.0550 Y11.3966 
G01 X26.1566 Y11.2950 
G01 X26.2364 Y11.1755 
G01 X26.2914 Y11.0428 
G01 X26.3194 Y10.9018 
G01 X26.3194 Y10.7582 
G01 X26.2914 Y10.6172 
G01 X26.2364 Y10.4845 
G01 X26.1566 Y10.3650 
G01 X26.0550 Y10.2634 
G00 Z2.5400  
G00 X26.0550 Y8.8566  
G01 Z-0.0600 F90    
G01 X26.1566 Y8.7550  F300   
G01 X26.2364 Y8.6355  
G01 X26.2914 Y8.5028  
G01 X26.3194 Y8.3618  
G01 X26.3194 Y8.2182  
G01 X26.2914 Y8.0772  
G01 X26.2364 Y7.9445  
G01 X26.1566 Y7.8250  
G01 X26.0550 Y7.7234  
G01 X25.9355 Y7.6436  
G01 X25.8028 Y7.5886  
G01 X25.6618 Y7.5606  
G01 X25.5182 Y7.5606  
G01 X25.3772 Y7.5886  
G01 X25.2445 Y7.6436  
G01 X25.1250 Y7.7234  
G01 X25.0234 Y7.8250  
G01 X24.9436 Y7.9445  
G01 X24.8886 Y8.0772  
G01 X24.8606 Y8.2182  
G01 X24.8606 Y8.3618  
G01 X24.8886 Y8.5028  
G01 X24.9436 Y8.6355  
G01 X25.0234 Y8.7550  
G01 X25.1250 Y8.8566  
G01 X25.2445 Y8.9364  
G01 X25.3772 Y8.9914  
G01 X25.5182 Y9.0194  
G01 X25.6618 Y9.0194  
G01 X25.8028 Y8.9914  
G01 X25.9355 Y8.9364  
G01 X26.0550 Y8.8566  
G00 Z2.5400  
G00 X48.1146 Y15.1132 
G01 Z-0.0600 F90    
G01 X48.0293 Y15.2408 F300   
G01 X47.9706 Y15.3827 
G01 X47.9406 Y15.5332 
G01 X47.9406 Y15.6868 
G01 X47.9706 Y15.8373 
G01 X48.0293 Y15.9792 
G01 X48.1146 Y16.1068 
G01 X48.2232 Y16.2154 
G01 X48.3508 Y16.3007 
G01 X48.4927 Y16.3594 
G01 X48.6432 Y16.3894 
G01 X48.7968 Y16.3894 
G01 X48.9473 Y16.3594 
G01 X49.0892 Y16.3007 
G01 X49.2168 Y16.2154 
G01 X49.3254 Y16.1068 
G01 X49.4107 Y15.9792 
G01 X49.4694 Y15.8373 
G01 X49.4994 Y15.6868 
G01 X49.4994 Y15.5332 
G01 X49.4694 Y15.3827 
G01 X49.4107 Y15.2408 
G01 X49.3254 Y15.1132 
G01 X49.2168 Y15.0046 
G01 X49.0892 Y14.9193 
G01 X48.9473 Y14.8606 
G01 X48.7968 Y14.8306 
G01 X48.6432 Y14.8306 
G01 X48.4927 Y14.8606 
G01 X48.3508 Y14.9193 
G01 X48.2232 Y15.0046 
G01 X48.1146 Y15.1132 
G00 Z2.5400  
G00 X50.1146 Y15.1132 
G01 Z-0.0600 F90    
G01 X50.0293 Y15.2408 F300   
G01 X49.9706 Y15.3827 
G01 X49.9406 Y15.5332 
G01 X49.9406 Y15.6868 
G01 X49.9706 Y15.8373 
G01 X50.0293 Y15.9792 
G01 X50.1146 Y16.1068 
G01 X50.2232 Y16.2154 
G01 X50.3508 Y16.3007 
G01 X50.4927 Y16.3594 
G01 X50.6432 Y16.3894 
G01 X50.7968 Y16.3894 
G01 X50.9473 Y16.3594 
G01 X51.0892 Y16.3007 
G01 X51.2168 Y16.2154 
G01 X51.3254 Y16.1068 
G01 X51.4107 Y15.9792 
G01 X51.4694 Y15.8373 
G01 X51.4994 Y15.6868 
G01 X51.4994 Y15.5332 
G01 X51.4694 Y15.3827 
G01 X51.4107 Y15.2408 
G01 X51.3254 Y15.1132 
G01 X51.2168 Y15.0046 
G01 X51.0892 Y14.9193 
G01 X50.9473 Y14.8606 
G01 X50.7968 Y14.8306 
G01 X50.6432 Y14.8306 
G01 X50.4927 Y14.8606 
G01 X50.3508 Y14.9193 
G01 X50.2232 Y15.0046 
G01 X50.1146 Y15.1132 
G00 Z2.5400  
G00 X50.1146 Y17.1132 
G01 Z-0.0600 F90    
G01 X50.0293 Y17.2408 F300   
G01 X49.9706 Y17.3827 
G01 X49.9406 Y17.5332 
G01 X49.9406 Y17.6868 
G01 X49.9706 Y17.8373 
G01 X50.0293 Y17.9792 
G01 X50.1146 Y18.1068 
G01 X50.2232 Y18.2154 
G01 X50.3508 Y18.3007 
G01 X50.4927 Y18.3594 
G01 X50.6432 Y18.3894 
G01 X50.7968 Y18.3894 
G01 X50.9473 Y18.3594 
G01 X51.0892 Y18.3007 
G01 X51.2168 Y18.2154 
G01 X51.3254 Y18.1068 
G01 X51.4107 Y17.9792 
G01 X51.4694 Y17.8373 
G01 X51.4994 Y17.6868 
G01 X51.4994 Y17.5332 
G01 X51.4694 Y17.3827 
G01 X51.4107 Y17.2408 
G01 X51.3254 Y17.1132 
G01 X51.2168 Y17.0046 
G01 X51.0892 Y16.9193 
G01 X50.9473 Y16.8606 
G01 X50.7968 Y16.8306 
G01 X50.6432 Y16.8306 
G01 X50.4927 Y16.8606 
G01 X50.3508 Y16.9193 
G01 X50.2232 Y17.0046 
G01 X50.1146 Y17.1132 
G00 Z2.5400  
G00 X49.3254 Y17.1132 
G01 Z-0.0600 F90    
G01 X49.2168 Y17.0046 F300   
G01 X49.0892 Y16.9193 
G01 X48.9473 Y16.8606 
G01 X48.7968 Y16.8306 
G01 X48.6432 Y16.8306 
G01 X48.4927 Y16.8606 
G01 X48.3508 Y16.9193 
G01 X48.2232 Y17.0046 
G01 X48.1146 Y17.1132 
G01 X48.0293 Y17.2408 
G01 X47.9706 Y17.3827 
G01 X47.9406 Y17.5332 
G01 X47.9406 Y17.6868 
G01 X47.9706 Y17.8373 
G01 X48.0293 Y17.9792 
G01 X48.1146 Y18.1068 
G01 X48.2232 Y18.2154 
G01 X48.3508 Y18.3007 
G01 X48.4927 Y18.3594 
G01 X48.6432 Y18.3894 
G01 X48.7968 Y18.3894 
G01 X48.9473 Y18.3594 
G01 X49.0892 Y18.3007 
G01 X49.2168 Y18.2154 
G01 X49.3254 Y18.1068 
G01 X49.4107 Y17.9792 
G01 X49.4694 Y17.8373 
G01 X49.4994 Y17.6868 
G01 X49.4994 Y17.5332 
G01 X49.4694 Y17.3827 
G01 X49.4107 Y17.2408 
G01 X49.3254 Y17.1132 
G00 Z2.5400  
G00 X50.1146 Y19.1132 
G01 Z-0.0600 F90    
G01 X50.0293 Y19.2408 F300   
G01 X49.9706 Y19.3827 
G01 X49.9406 Y19.5332 
G01 X49.9406 Y19.6868 
G01 X49.9706 Y19.8373 
G01 X50.0293 Y19.9792 
G01 X50.1146 Y20.1068 
G01 X50.2232 Y20.2154 
G01 X50.3508 Y20.3007 
G01 X50.4927 Y20.3594 
G01 X50.6432 Y20.3894 
G01 X50.7968 Y20.3894 
G01 X50.9473 Y20.3594 
G01 X51.0892 Y20.3007 
G01 X51.2168 Y20.2154 
G01 X51.3254 Y20.1068 
G01 X51.4107 Y19.9792 
G01 X51.4694 Y19.8373 
G01 X51.4994 Y19.6868 
G01 X51.4994 Y19.5332 
G01 X51.4694 Y19.3827 
G01 X51.4107 Y19.2408 
G01 X51.3254 Y19.1132 
G01 X51.2168 Y19.0046 
G01 X51.0892 Y18.9193 
G01 X50.9473 Y18.8606 
G01 X50.7968 Y18.8306 
G01 X50.6432 Y18.8306 
G01 X50.4927 Y18.8606 
G01 X50.3508 Y18.9193 
G01 X50.2232 Y19.0046 
G01 X50.1146 Y19.1132 
G00 Z2.5400  
G00 X50.1146 Y21.1132 
G01 Z-0.0600 F90    
G01 X50.0293 Y21.2408 F300   
G01 X49.9706 Y21.3827 
G01 X49.9406 Y21.5332 
G01 X49.9406 Y21.6868 
G01 X49.9706 Y21.8373 
G01 X50.0293 Y21.9792 
G01 X50.1146 Y22.1068 
G01 X50.2232 Y22.2154 
G01 X50.3508 Y22.3007 
G01 X50.4927 Y22.3594 
G01 X50.6432 Y22.3894 
G01 X50.7968 Y22.3894 
G01 X50.9473 Y22.3594 
G01 X51.0892 Y22.3007 
G01 X51.2168 Y22.2154 
G01 X51.3254 Y22.1068 
G01 X51.4107 Y21.9792 
G01 X51.4694 Y21.8373 
G01 X51.4994 Y21.6868 
G01 X51.4994 Y21.5332 
G01 X51.4694 Y21.3827 
G01 X51.4107 Y21.2408 
G01 X51.3254 Y21.1132 
G01 X51.2168 Y21.0046 
G01 X51.0892 Y20.9193 
G01 X50.9473 Y20.8606 
G01 X50.7968 Y20.8306 
G01 X50.6432 Y20.8306 
G01 X50.4927 Y20.8606 
G01 X50.3508 Y20.9193 
G01 X50.2232 Y21.0046 
G01 X50.1146 Y21.1132 
G00 Z2.5400  
G00 X49.3254 Y21.1132 
G01 Z-0.0600 F90    
G01 X49.2168 Y21.0046 F300   
G01 X49.0892 Y20.9193 
G01 X48.9473 Y20.8606 
G01 X48.7968 Y20.8306 
G01 X48.6432 Y20.8306 
G01 X48.4927 Y20.8606 
G01 X48.3508 Y20.9193 
G01 X48.2232 Y21.0046 
G01 X48.1146 Y21.1132 
G01 X48.0293 Y21.2408 
G01 X47.9706 Y21.3827 
G01 X47.9406 Y21.5332 
G01 X47.9406 Y21.6868 
G01 X47.9706 Y21.8373 
G01 X48.0293 Y21.9792 
G01 X48.1146 Y22.1068 
G01 X48.2232 Y22.2154 
G01 X48.3508 Y22.3007 
G01 X48.4927 Y22.3594 
G01 X48.6432 Y22.3894 
G01 X48.7968 Y22.3894 
G01 X48.9473 Y22.3594 
G01 X49.0892 Y22.3007 
G01 X49.2168 Y22.2154 
G01 X49.3254 Y22.1068 
G01 X49.4107 Y21.9792 
G01 X49.4694 Y21.8373 
G01 X49.4994 Y21.6868 
G01 X49.4994 Y21.5332 
G01 X49.4694 Y21.3827 
G01 X49.4107 Y21.2408 
G01 X49.3254 Y21.1132 
G00 Z2.5400  
G00 X49.2168 Y23.0046 
G01 Z-0.0600 F90    
G01 X49.0892 Y22.9193 F300   
G01 X48.9473 Y22.8606 
G01 X48.7968 Y22.8306 
G01 X48.6432 Y22.8306 
G01 X48.4927 Y22.8606 
G01 X48.3508 Y22.9193 
G01 X48.2232 Y23.0046 
G01 X48.1146 Y23.1132 
G01 X48.0293 Y23.2408 
G01 X47.9706 Y23.3827 
G01 X47.9406 Y23.5332 
G01 X47.9406 Y23.6868 
G01 X47.9706 Y23.8373 
G01 X48.0293 Y23.9792 
G01 X48.1146 Y24.1068 
G01 X48.2232 Y24.2154 
G01 X48.3508 Y24.3007 
G01 X48.4927 Y24.3594 
G01 X48.6432 Y24.3894 
G01 X48.7968 Y24.3894 
G01 X48.9473 Y24.3594 
G01 X49.0892 Y24.3007 
G01 X49.2168 Y24.2154 
G01 X49.3254 Y24.1068 
G01 X49.4107 Y23.9792 
G01 X49.4694 Y23.8373 
G01 X49.4994 Y23.6868 
G01 X49.4994 Y23.5332 
G01 X49.4694 Y23.3827 
G01 X49.4107 Y23.2408 
G01 X49.3254 Y23.1132 
G01 X49.2168 Y23.0046 
G00 Z2.5400  
G00 X50.1146 Y23.1132 
G01 Z-0.0600 F90    
G01 X50.0293 Y23.2408 F300   
G01 X49.9706 Y23.3827 
G01 X49.9406 Y23.5332 
G01 X49.9406 Y23.6868 
G01 X49.9706 Y23.8373 
G01 X50.0293 Y23.9792 
G01 X50.1146 Y24.1068 
G01 X50.2232 Y24.2154 
G01 X50.3508 Y24.3007 
G01 X50.4927 Y24.3594 
G01 X50.6432 Y24.3894 
G01 X50.7968 Y24.3894 
G01 X50.9473 Y24.3594 
G01 X51.0892 Y24.3007 
G01 X51.2168 Y24.2154 
G01 X51.3254 Y24.1068 
G01 X51.4107 Y23.9792 
G01 X51.4694 Y23.8373 
G01 X51.4994 Y23.6868 
G01 X51.4994 Y23.5332 
G01 X51.4694 Y23.3827 
G01 X51.4107 Y23.2408 
G01 X51.3254 Y23.1132 
G01 X51.2168 Y23.0046 
G01 X51.0892 Y22.9193 
G01 X50.9473 Y22.8606 
G01 X50.7968 Y22.8306 
G01 X50.6432 Y22.8306 
G01 X50.4927 Y22.8606 
G01 X50.3508 Y22.9193 
G01 X50.2232 Y23.0046 
G01 X50.1146 Y23.1132 
G00 Z2.5400  
G00 X50.1146 Y25.1132 
G01 Z-0.0600 F90    
G01 X50.0293 Y25.2408 F300   
G01 X49.9706 Y25.3827 
G01 X49.9406 Y25.5332 
G01 X49.9406 Y25.6868 
G01 X49.9706 Y25.8373 
G01 X50.0293 Y25.9792 
G01 X50.1146 Y26.1068 
G01 X50.2232 Y26.2154 
G01 X50.3508 Y26.3007 
G01 X50.4927 Y26.3594 
G01 X50.6432 Y26.3894 
G01 X50.7968 Y26.3894 
G01 X50.9473 Y26.3594 
G01 X51.0892 Y26.3007 
G01 X51.2168 Y26.2154 
G01 X51.3254 Y26.1068 
G01 X51.4107 Y25.9792 
G01 X51.4694 Y25.8373 
G01 X51.4994 Y25.6868 
G01 X51.4994 Y25.5332 
G01 X51.4694 Y25.3827 
G01 X51.4107 Y25.2408 
G01 X51.3254 Y25.1132 
G01 X51.2168 Y25.0046 
G01 X51.0892 Y24.9193 
G01 X50.9473 Y24.8606 
G01 X50.7968 Y24.8306 
G01 X50.6432 Y24.8306 
G01 X50.4927 Y24.8606 
G01 X50.3508 Y24.9193 
G01 X50.2232 Y25.0046 
G01 X50.1146 Y25.1132 
G00 Z2.5400  
G00 X49.3254 Y25.1132 
G01 Z-0.0600 F90    
G01 X49.2168 Y25.0046 F300   
G01 X49.0892 Y24.9193 
G01 X48.9473 Y24.8606 
G01 X48.7968 Y24.8306 
G01 X48.6432 Y24.8306 
G01 X48.4927 Y24.8606 
G01 X48.3508 Y24.9193 
G01 X48.2232 Y25.0046 
G01 X48.1146 Y25.1132 
G01 X48.0293 Y25.2408 
G01 X47.9706 Y25.3827 
G01 X47.9406 Y25.5332 
G01 X47.9406 Y25.6868 
G01 X47.9706 Y25.8373 
G01 X48.0293 Y25.9792 
G01 X48.1146 Y26.1068 
G01 X48.2232 Y26.2154 
G01 X48.3508 Y26.3007 
G01 X48.4927 Y26.3594 
G01 X48.6432 Y26.3894 
G01 X48.7968 Y26.3894 
G01 X48.9473 Y26.3594 
G01 X49.0892 Y26.3007 
G01 X49.2168 Y26.2154 
G01 X49.3254 Y26.1068 
G01 X49.4107 Y25.9792 
G01 X49.4694 Y25.8373 
G01 X49.4994 Y25.6868 
G01 X49.4994 Y25.5332 
G01 X49.4694 Y25.3827 
G01 X49.4107 Y25.2408 
G01 X49.3254 Y25.1132 
G00 Z2.5400  
G00 X49.2168 Y27.0046 
G01 Z-0.0600 F90    
G01 X49.0892 Y26.9193 F300   
G01 X48.9473 Y26.8606 
G01 X48.7968 Y26.8306 
G01 X48.6432 Y26.8306 
G01 X48.4927 Y26.8606 
G01 X48.3508 Y26.9193 
G01 X48.2232 Y27.0046 
G01 X48.1146 Y27.1132 
G01 X48.0293 Y27.2408 
G01 X47.9706 Y27.3827 
G01 X47.9406 Y27.5332 
G01 X47.9406 Y27.6868 
G01 X47.9706 Y27.8373 
G01 X48.0293 Y27.9792 
G01 X48.1146 Y28.1068 
G01 X48.2232 Y28.2154 
G01 X48.3508 Y28.3007 
G01 X48.4927 Y28.3594 
G01 X48.6432 Y28.3894 
G01 X48.7968 Y28.3894 
G01 X48.9473 Y28.3594 
G01 X49.0892 Y28.3007 
G01 X49.2168 Y28.2154 
G01 X49.3254 Y28.1068 
G01 X49.4107 Y27.9792 
G01 X49.4694 Y27.8373 
G01 X49.4994 Y27.6868 
G01 X49.4994 Y27.5332 
G01 X49.4694 Y27.3827 
G01 X49.4107 Y27.2408 
G01 X49.3254 Y27.1132 
G01 X49.2168 Y27.0046 
G00 Z2.5400  
G00 X50.1146 Y27.1132 
G01 Z-0.0600 F90    
G01 X50.0293 Y27.2408 F300   
G01 X49.9706 Y27.3827 
G01 X49.9406 Y27.5332 
G01 X49.9406 Y27.6868 
G01 X49.9706 Y27.8373 
G01 X50.0293 Y27.9792 
G01 X50.1146 Y28.1068 
G01 X50.2232 Y28.2154 
G01 X50.3508 Y28.3007 
G01 X50.4927 Y28.3594 
G01 X50.6432 Y28.3894 
G01 X50.7968 Y28.3894 
G01 X50.9473 Y28.3594 
G01 X51.0892 Y28.3007 
G01 X51.2168 Y28.2154 
G01 X51.3254 Y28.1068 
G01 X51.4107 Y27.9792 
G01 X51.4694 Y27.8373 
G01 X51.4994 Y27.6868 
G01 X51.4994 Y27.5332 
G01 X51.4694 Y27.3827 
G01 X51.4107 Y27.2408 
G01 X51.3254 Y27.1132 
G01 X51.2168 Y27.0046 
G01 X51.0892 Y26.9193 
G01 X50.9473 Y26.8606 
G01 X50.7968 Y26.8306 
G01 X50.6432 Y26.8306 
G01 X50.4927 Y26.8606 
G01 X50.3508 Y26.9193 
G01 X50.2232 Y27.0046 
G01 X50.1146 Y27.1132 
G00 Z2.5400  
G00 X50.1146 Y29.1132 
G01 Z-0.0600 F90    
G01 X50.0293 Y29.2408 F300   
G01 X49.9706 Y29.3827 
G01 X49.9406 Y29.5332 
G01 X49.9406 Y29.6868 
G01 X49.9706 Y29.8373 
G01 X50.0293 Y29.9792 
G01 X50.1146 Y30.1068 
G01 X50.2232 Y30.2154 
G01 X50.3508 Y30.3007 
G01 X50.4927 Y30.3594 
G01 X50.6432 Y30.3894 
G01 X50.7968 Y30.3894 
G01 X50.9473 Y30.3594 
G01 X51.0892 Y30.3007 
G01 X51.2168 Y30.2154 
G01 X51.3254 Y30.1068 
G01 X51.4107 Y29.9792 
G01 X51.4694 Y29.8373 
G01 X51.4994 Y29.6868 
G01 X51.4994 Y29.5332 
G01 X51.4694 Y29.3827 
G01 X51.4107 Y29.2408 
G01 X51.3254 Y29.1132 
G01 X51.2168 Y29.0046 
G01 X51.0892 Y28.9193 
G01 X50.9473 Y28.8606 
G01 X50.7968 Y28.8306 
G01 X50.6432 Y28.8306 
G01 X50.4927 Y28.8606 
G01 X50.3508 Y28.9193 
G01 X50.2232 Y29.0046 
G01 X50.1146 Y29.1132 
G00 Z2.5400  
G00 X50.1146 Y31.1132 
G01 Z-0.0600 F90    
G01 X50.0293 Y31.2408 F300   
G01 X49.9706 Y31.3827 
G01 X49.9406 Y31.5332 
G01 X49.9406 Y31.6868 
G01 X49.9706 Y31.8373 
G01 X50.0293 Y31.9792 
G01 X50.1146 Y32.1068 
G01 X50.2232 Y32.2154 
G01 X50.3508 Y32.3007 
G01 X50.4927 Y32.3594 
G01 X50.6432 Y32.3894 
G01 X50.7968 Y32.3894 
G01 X50.9473 Y32.3594 
G01 X51.0892 Y32.3007 
G01 X51.2168 Y32.2154 
G01 X51.3254 Y32.1068 
G01 X51.4107 Y31.9792 
G01 X51.4694 Y31.8373 
G01 X51.4994 Y31.6868 
G01 X51.4994 Y31.5332 
G01 X51.4694 Y31.3827 
G01 X51.4107 Y31.2408 
G01 X51.3254 Y31.1132 
G01 X51.2168 Y31.0046 
G01 X51.0892 Y30.9193 
G01 X50.9473 Y30.8606 
G01 X50.7968 Y30.8306 
G01 X50.6432 Y30.8306 
G01 X50.4927 Y30.8606 
G01 X50.3508 Y30.9193 
G01 X50.2232 Y31.0046 
G01 X50.1146 Y31.1132 
G00 Z2.5400  
G00 X49.3254 Y31.1132 
G01 Z-0.0600 F90    
G01 X49.2168 Y31.0046 F300   
G01 X49.0892 Y30.9193 
G01 X48.9473 Y30.8606 
G01 X48.7968 Y30.8306 
G01 X48.6432 Y30.8306 
G01 X48.4927 Y30.8606 
G01 X48.3508 Y30.9193 
G01 X48.2232 Y31.0046 
G01 X48.1146 Y31.1132 
G01 X48.0293 Y31.2408 
G01 X47.9706 Y31.3827 
G01 X47.9406 Y31.5332 
G01 X47.9406 Y31.6868 
G01 X47.9706 Y31.8373 
G01 X48.0293 Y31.9792 
G01 X48.1146 Y32.1068 
G01 X48.2232 Y32.2154 
G01 X48.3508 Y32.3007 
G01 X48.4927 Y32.3594 
G01 X48.6432 Y32.3894 
G01 X48.7968 Y32.3894 
G01 X48.9473 Y32.3594 
G01 X49.0892 Y32.3007 
G01 X49.2168 Y32.2154 
G01 X49.3254 Y32.1068 
G01 X49.4107 Y31.9792 
G01 X49.4694 Y31.8373 
G01 X49.4994 Y31.6868 
G01 X49.4994 Y31.5332 
G01 X49.4694 Y31.3827 
G01 X49.4107 Y31.2408 
G01 X49.3254 Y31.1132 
G00 Z2.5400  
G00 X49.2168 Y33.0046 
G01 Z-0.0600 F90    
G01 X49.0892 Y32.9193 F300   
G01 X48.9473 Y32.8606 
G01 X48.7968 Y32.8306 
G01 X48.6432 Y32.8306 
G01 X48.4927 Y32.8606 
G01 X48.3508 Y32.9193 
G01 X48.2232 Y33.0046 
G01 X48.1146 Y33.1132 
G01 X48.0293 Y33.2408 
G01 X47.9706 Y33.3827 
G01 X47.9406 Y33.5332 
G01 X47.9406 Y33.6868 
G01 X47.9706 Y33.8373 
G01 X48.0293 Y33.9792 
G01 X48.1146 Y34.1068 
G01 X48.2232 Y34.2154 
G01 X48.3508 Y34.3007 
G01 X48.4927 Y34.3594 
G01 X48.6432 Y34.3894 
G01 X48.7968 Y34.3894 
G01 X48.9473 Y34.3594 
G01 X49.0892 Y34.3007 
G01 X49.2168 Y34.2154 
G01 X49.3254 Y34.1068 
G01 X49.4107 Y33.9792 
G01 X49.4694 Y33.8373 
G01 X49.4994 Y33.6868 
G01 X49.4994 Y33.5332 
G01 X49.4694 Y33.3827 
G01 X49.4107 Y33.2408 
G01 X49.3254 Y33.1132 
G01 X49.2168 Y33.0046 
G00 Z2.5400  
G00 X49.2168 Y35.0046 
G01 Z-0.0600 F90    
G01 X49.0892 Y34.9193 F300   
G01 X48.9473 Y34.8606 
G01 X48.7968 Y34.8306 
G01 X48.6432 Y34.8306 
G01 X48.4927 Y34.8606 
G01 X48.3508 Y34.9193 
G01 X48.2232 Y35.0046 
G01 X48.1146 Y35.1132 
G01 X48.0293 Y35.2408 
G01 X47.9706 Y35.3827 
G01 X47.9406 Y35.5332 
G01 X47.9406 Y35.6868 
G01 X47.9706 Y35.8373 
G01 X48.0293 Y35.9792 
G01 X48.1146 Y36.1068 
G01 X48.2232 Y36.2154 
G01 X48.3508 Y36.3007 
G01 X48.4927 Y36.3594 
G01 X48.6432 Y36.3894 
G01 X48.7968 Y36.3894 
G01 X48.9473 Y36.3594 
G01 X49.0892 Y36.3007 
G01 X49.2168 Y36.2154 
G01 X49.3254 Y36.1068 
G01 X49.4107 Y35.9792 
G01 X49.4694 Y35.8373 
G01 X49.4994 Y35.6868 
G01 X49.4994 Y35.5332 
G01 X49.4694 Y35.3827 
G01 X49.4107 Y35.2408 
G01 X49.3254 Y35.1132 
G01 X49.2168 Y35.0046 
G00 Z2.5400  
G00 X50.1146 Y37.1132 
G01 Z-0.0600 F90    
G01 X50.0293 Y37.2408 F300   
G01 X49.9706 Y37.3827 
G01 X49.9406 Y37.5332 
G01 X49.9406 Y37.6868 
G01 X49.9706 Y37.8373 
G01 X50.0293 Y37.9792 
G01 X50.1146 Y38.1068 
G01 X50.2232 Y38.2154 
G01 X50.3508 Y38.3007 
G01 X50.4927 Y38.3594 
G01 X50.6432 Y38.3894 
G01 X50.7968 Y38.3894 
G01 X50.9473 Y38.3594 
G01 X51.0892 Y38.3007 
G01 X51.2168 Y38.2154 
G01 X51.3254 Y38.1068 
G01 X51.4107 Y37.9792 
G01 X51.4694 Y37.8373 
G01 X51.4994 Y37.6868 
G01 X51.4994 Y37.5332 
G01 X51.4694 Y37.3827 
G01 X51.4107 Y37.2408 
G01 X51.3254 Y37.1132 
G01 X51.2168 Y37.0046 
G01 X51.0892 Y36.9193 
G01 X50.9473 Y36.8606 
G01 X50.7968 Y36.8306 
G01 X50.6432 Y36.8306 
G01 X50.4927 Y36.8606 
G01 X50.3508 Y36.9193 
G01 X50.2232 Y37.0046 
G01 X50.1146 Y37.1132 
G00 Z2.5400  
G00 X50.1146 Y39.1132 
G01 Z-0.0600 F90    
G01 X50.0293 Y39.2408 F300   
G01 X49.9706 Y39.3827 
G01 X49.9406 Y39.5332 
G01 X49.9406 Y39.6868 
G01 X49.9706 Y39.8373 
G01 X50.0293 Y39.9792 
G01 X50.1146 Y40.1068 
G01 X50.2232 Y40.2154 
G01 X50.3508 Y40.3007 
G01 X50.4927 Y40.3594 
G01 X50.6432 Y40.3894 
G01 X50.7968 Y40.3894 
G01 X50.9473 Y40.3594 
G01 X51.0892 Y40.3007 
G01 X51.2168 Y40.2154 
G01 X51.3254 Y40.1068 
G01 X51.4107 Y39.9792 
G01 X51.4694 Y39.8373 
G01 X51.4994 Y39.6868 
G01 X51.4994 Y39.5332 
G01 X51.4694 Y39.3827 
G01 X51.4107 Y39.2408 
G01 X51.3254 Y39.1132 
G01 X51.2168 Y39.0046 
G01 X51.0892 Y38.9193 
G01 X50.9473 Y38.8606 
G01 X50.7968 Y38.8306 
G01 X50.6432 Y38.8306 
G01 X50.4927 Y38.8606 
G01 X50.3508 Y38.9193 
G01 X50.2232 Y39.0046 
G01 X50.1146 Y39.1132 
G00 Z2.5400  
G00 X49.3254 Y39.1132 
G01 Z-0.0600 F90    
G01 X49.2168 Y39.0046 F300   
G01 X49.0892 Y38.9193 
G01 X48.9473 Y38.8606 
G01 X48.7968 Y38.8306 
G01 X48.6432 Y38.8306 
G01 X48.4927 Y38.8606 
G01 X48.3508 Y38.9193 
G01 X48.2232 Y39.0046 
G01 X48.1146 Y39.1132 
G01 X48.0293 Y39.2408 
G01 X47.9706 Y39.3827 
G01 X47.9406 Y39.5332 
G01 X47.9406 Y39.6868 
G01 X47.9706 Y39.8373 
G01 X48.0293 Y39.9792 
G01 X48.1146 Y40.1068 
G01 X48.2232 Y40.2154 
G01 X48.3508 Y40.3007 
G01 X48.4927 Y40.3594 
G01 X48.6432 Y40.3894 
G01 X48.7968 Y40.3894 
G01 X48.9473 Y40.3594 
G01 X49.0892 Y40.3007 
G01 X49.2168 Y40.2154 
G01 X49.3254 Y40.1068 
G01 X49.4107 Y39.9792 
G01 X49.4694 Y39.8373 
G01 X49.4994 Y39.6868 
G01 X49.4994 Y39.5332 
G01 X49.4694 Y39.3827 
G01 X49.4107 Y39.2408 
G01 X49.3254 Y39.1132 
G00 Z2.5400  
G00 X49.2168 Y41.0046 
G01 Z-0.0600 F90    
G01 X49.0892 Y40.9193 F300   
G01 X48.9473 Y40.8606 
G01 X48.7968 Y40.8306 
G01 X48.6432 Y40.8306 
G01 X48.4927 Y40.8606 
G01 X48.3508 Y40.9193 
G01 X48.2232 Y41.0046 
G01 X48.1146 Y41.1132 
G01 X48.0293 Y41.2408 
G01 X47.9706 Y41.3827 
G01 X47.9406 Y41.5332 
G01 X47.9406 Y41.6868 
G01 X47.9706 Y41.8373 
G01 X48.0293 Y41.9792 
G01 X48.1146 Y42.1068 
G01 X48.2232 Y42.2154 
G01 X48.3508 Y42.3007 
G01 X48.4927 Y42.3594 
G01 X48.6432 Y42.3894 
G01 X48.7968 Y42.3894 
G01 X48.9473 Y42.3594 
G01 X49.0892 Y42.3007 
G01 X49.2168 Y42.2154 
G01 X49.3254 Y42.1068 
G01 X49.4107 Y41.9792 
G01 X49.4694 Y41.8373 
G01 X49.4994 Y41.6868 
G01 X49.4994 Y41.5332 
G01 X49.4694 Y41.3827 
G01 X49.4107 Y41.2408 
G01 X49.3254 Y41.1132 
G01 X49.2168 Y41.0046 
G00 Z2.5400  
G00 X50.1146 Y41.1132 
G01 Z-0.0600 F90    
G01 X50.0293 Y41.2408 F300   
G01 X49.9706 Y41.3827 
G01 X49.9406 Y41.5332 
G01 X49.9406 Y41.6868 
G01 X49.9706 Y41.8373 
G01 X50.0293 Y41.9792 
G01 X50.1146 Y42.1068 
G01 X50.2232 Y42.2154 
G01 X50.3508 Y42.3007 
G01 X50.4927 Y42.3594 
G01 X50.6432 Y42.3894 
G01 X50.7968 Y42.3894 
G01 X50.9473 Y42.3594 
G01 X51.0892 Y42.3007 
G01 X51.2168 Y42.2154 
G01 X51.3254 Y42.1068 
G01 X51.4107 Y41.9792 
G01 X51.4694 Y41.8373 
G01 X51.4994 Y41.6868 
G01 X51.4994 Y41.5332 
G01 X51.4694 Y41.3827 
G01 X51.4107 Y41.2408 
G01 X51.3254 Y41.1132 
G01 X51.2168 Y41.0046 
G01 X51.0892 Y40.9193 
G01 X50.9473 Y40.8606 
G01 X50.7968 Y40.8306 
G01 X50.6432 Y40.8306 
G01 X50.4927 Y40.8606 
G01 X50.3508 Y40.9193 
G01 X50.2232 Y41.0046 
G01 X50.1146 Y41.1132 
G00 Z2.5400  
G00 X50.1146 Y43.1132 
G01 Z-0.0600 F90    
G01 X50.0293 Y43.2408 F300   
G01 X49.9706 Y43.3827 
G01 X49.9406 Y43.5332 
G01 X49.9406 Y43.6868 
G01 X49.9706 Y43.8373 
G01 X50.0293 Y43.9792 
G01 X50.1146 Y44.1068 
G01 X50.2232 Y44.2154 
G01 X50.3508 Y44.3007 
G01 X50.4927 Y44.3594 
G01 X50.6432 Y44.3894 
G01 X50.7968 Y44.3894 
G01 X50.9473 Y44.3594 
G01 X51.0892 Y44.3007 
G01 X51.2168 Y44.2154 
G01 X51.3254 Y44.1068 
G01 X51.4107 Y43.9792 
G01 X51.4694 Y43.8373 
G01 X51.4994 Y43.6868 
G01 X51.4994 Y43.5332 
G01 X51.4694 Y43.3827 
G01 X51.4107 Y43.2408 
G01 X51.3254 Y43.1132 
G01 X51.2168 Y43.0046 
G01 X51.0892 Y42.9193 
G01 X50.9473 Y42.8606 
G01 X50.7968 Y42.8306 
G01 X50.6432 Y42.8306 
G01 X50.4927 Y42.8606 
G01 X50.3508 Y42.9193 
G01 X50.2232 Y43.0046 
G01 X50.1146 Y43.1132 
G00 Z2.5400  
G00 X49.3254 Y43.1132 
G01 Z-0.0600 F90    
G01 X49.2168 Y43.0046 F300   
G01 X49.0892 Y42.9193 
G01 X48.9473 Y42.8606 
G01 X48.7968 Y42.8306 
G01 X48.6432 Y42.8306 
G01 X48.4927 Y42.8606 
G01 X48.3508 Y42.9193 
G01 X48.2232 Y43.0046 
G01 X48.1146 Y43.1132 
G01 X48.0293 Y43.2408 
G01 X47.9706 Y43.3827 
G01 X47.9406 Y43.5332 
G01 X47.9406 Y43.6868 
G01 X47.9706 Y43.8373 
G01 X48.0293 Y43.9792 
G01 X48.1146 Y44.1068 
G01 X48.2232 Y44.2154 
G01 X48.3508 Y44.3007 
G01 X48.4927 Y44.3594 
G01 X48.6432 Y44.3894 
G01 X48.7968 Y44.3894 
G01 X48.9473 Y44.3594 
G01 X49.0892 Y44.3007 
G01 X49.2168 Y44.2154 
G01 X49.3254 Y44.1068 
G01 X49.4107 Y43.9792 
G01 X49.4694 Y43.8373 
G01 X49.4994 Y43.6868 
G01 X49.4994 Y43.5332 
G01 X49.4694 Y43.3827 
G01 X49.4107 Y43.2408 
G01 X49.3254 Y43.1132 
G00 Z2.5400  
G00 X49.2168 Y45.0046 
G01 Z-0.0600 F90    
G01 X49.0892 Y44.9193 F300   
G01 X48.9473 Y44.8606 
G01 X48.7968 Y44.8306 
G01 X48.6432 Y44.8306 
G01 X48.4927 Y44.8606 
G01 X48.3508 Y44.9193 
G01 X48.2232 Y45.0046 
G01 X48.1146 Y45.1132 
G01 X48.0293 Y45.2408 
G01 X47.9706 Y45.3827 
G01 X47.9406 Y45.5332 
G01 X47.9406 Y45.6868 
G01 X47.9706 Y45.8373 
G01 X48.0293 Y45.9792 
G01 X48.1146 Y46.1068 
G01 X48.2232 Y46.2154 
G01 X48.3508 Y46.3007 
G01 X48.4927 Y46.3594 
G01 X48.6432 Y46.3894 
G01 X48.7968 Y46.3894 
G01 X48.9473 Y46.3594 
G01 X49.0892 Y46.3007 
G01 X49.2168 Y46.2154 
G01 X49.3254 Y46.1068 
G01 X49.4107 Y45.9792 
G01 X49.4694 Y45.8373 
G01 X49.4994 Y45.6868 
G01 X49.4994 Y45.5332 
G01 X49.4694 Y45.3827 
G01 X49.4107 Y45.2408 
G01 X49.3254 Y45.1132 
G01 X49.2168 Y45.0046 
G00 Z2.5400  
G00 X50.1146 Y45.1132 
G01 Z-0.0600 F90    
G01 X50.0293 Y45.2408 F300   
G01 X49.9706 Y45.3827 
G01 X49.9406 Y45.5332 
G01 X49.9406 Y45.6868 
G01 X49.9706 Y45.8373 
G01 X50.0293 Y45.9792 
G01 X50.1146 Y46.1068 
G01 X50.2232 Y46.2154 
G01 X50.3508 Y46.3007 
G01 X50.4927 Y46.3594 
G01 X50.6432 Y46.3894 
G01 X50.7968 Y46.3894 
G01 X50.9473 Y46.3594 
G01 X51.0892 Y46.3007 
G01 X51.2168 Y46.2154 
G01 X51.3254 Y46.1068 
G01 X51.4107 Y45.9792 
G01 X51.4694 Y45.8373 
G01 X51.4994 Y45.6868 
G01 X51.4994 Y45.5332 
G01 X51.4694 Y45.3827 
G01 X51.4107 Y45.2408 
G01 X51.3254 Y45.1132 
G01 X51.2168 Y45.0046 
G01 X51.0892 Y44.9193 
G01 X50.9473 Y44.8606 
G01 X50.7968 Y44.8306 
G01 X50.6432 Y44.8306 
G01 X50.4927 Y44.8606 
G01 X50.3508 Y44.9193 
G01 X50.2232 Y45.0046 
G01 X50.1146 Y45.1132 
G00 Z2.5400  
G00 X50.1146 Y47.1132 
G01 Z-0.0600 F90    
G01 X50.0293 Y47.2408 F300   
G01 X49.9706 Y47.3827 
G01 X49.9406 Y47.5332 
G01 X49.9406 Y47.6868 
G01 X49.9706 Y47.8373 
G01 X50.0293 Y47.9792 
G01 X50.1146 Y48.1068 
G01 X50.2232 Y48.2154 
G01 X50.3508 Y48.3007 
G01 X50.4927 Y48.3594 
G01 X50.6432 Y48.3894 
G01 X50.7968 Y48.3894 
G01 X50.9473 Y48.3594 
G01 X51.0892 Y48.3007 
G01 X51.2168 Y48.2154 
G01 X51.3254 Y48.1068 
G01 X51.4107 Y47.9792 
G01 X51.4694 Y47.8373 
G01 X51.4994 Y47.6868 
G01 X51.4994 Y47.5332 
G01 X51.4694 Y47.3827 
G01 X51.4107 Y47.2408 
G01 X51.3254 Y47.1132 
G01 X51.2168 Y47.0046 
G01 X51.0892 Y46.9193 
G01 X50.9473 Y46.8606 
G01 X50.7968 Y46.8306 
G01 X50.6432 Y46.8306 
G01 X50.4927 Y46.8606 
G01 X50.3508 Y46.9193 
G01 X50.2232 Y47.0046 
G01 X50.1146 Y47.1132 
G00 Z2.5400  
G00 X49.3254 Y47.1132 
G01 Z-0.0600 F90    
G01 X49.2168 Y47.0046 F300   
G01 X49.0892 Y46.9193 
G01 X48.9473 Y46.8606 
G01 X48.7968 Y46.8306 
G01 X48.6432 Y46.8306 
G01 X48.4927 Y46.8606 
G01 X48.3508 Y46.9193 
G01 X48.2232 Y47.0046 
G01 X48.1146 Y47.1132 
G01 X48.0293 Y47.2408 
G01 X47.9706 Y47.3827 
G01 X47.9406 Y47.5332 
G01 X47.9406 Y47.6868 
G01 X47.9706 Y47.8373 
G01 X48.0293 Y47.9792 
G01 X48.1146 Y48.1068 
G01 X48.2232 Y48.2154 
G01 X48.3508 Y48.3007 
G01 X48.4927 Y48.3594 
G01 X48.6432 Y48.3894 
G01 X48.7968 Y48.3894 
G01 X48.9473 Y48.3594 
G01 X49.0892 Y48.3007 
G01 X49.2168 Y48.2154 
G01 X49.3254 Y48.1068 
G01 X49.4107 Y47.9792 
G01 X49.4694 Y47.8373 
G01 X49.4994 Y47.6868 
G01 X49.4994 Y47.5332 
G01 X49.4694 Y47.3827 
G01 X49.4107 Y47.2408 
G01 X49.3254 Y47.1132 
G00 Z2.5400  
G00 X49.2168 Y49.0046 
G01 Z-0.0600 F90    
G01 X49.0892 Y48.9193 F300   
G01 X48.9473 Y48.8606 
G01 X48.7968 Y48.8306 
G01 X48.6432 Y48.8306 
G01 X48.4927 Y48.8606 
G01 X48.3508 Y48.9193 
G01 X48.2232 Y49.0046 
G01 X48.1146 Y49.1132 
G01 X48.0293 Y49.2408 
G01 X47.9706 Y49.3827 
G01 X47.9406 Y49.5332 
G01 X47.9406 Y49.6868 
G01 X47.9706 Y49.8373 
G01 X48.0293 Y49.9792 
G01 X48.1146 Y50.1068 
G01 X48.2232 Y50.2154 
G01 X48.3508 Y50.3007 
G01 X48.4927 Y50.3594 
G01 X48.6432 Y50.3894 
G01 X48.7968 Y50.3894 
G01 X48.9473 Y50.3594 
G01 X49.0892 Y50.3007 
G01 X49.2168 Y50.2154 
G01 X49.3254 Y50.1068 
G01 X49.4107 Y49.9792 
G01 X49.4694 Y49.8373 
G01 X49.4994 Y49.6868 
G01 X49.4994 Y49.5332 
G01 X49.4694 Y49.3827 
G01 X49.4107 Y49.2408 
G01 X49.3254 Y49.1132 
G01 X49.2168 Y49.0046 
G00 Z2.5400  
G00 X50.1146 Y49.1132 
G01 Z-0.0600 F90    
G01 X50.0293 Y49.2408 F300   
G01 X49.9706 Y49.3827 
G01 X49.9406 Y49.5332 
G01 X49.9406 Y49.6868 
G01 X49.9706 Y49.8373 
G01 X50.0293 Y49.9792 
G01 X50.1146 Y50.1068 
G01 X50.2232 Y50.2154 
G01 X50.3508 Y50.3007 
G01 X50.4927 Y50.3594 
G01 X50.6432 Y50.3894 
G01 X50.7968 Y50.3894 
G01 X50.9473 Y50.3594 
G01 X51.0892 Y50.3007 
G01 X51.2168 Y50.2154 
G01 X51.3254 Y50.1068 
G01 X51.4107 Y49.9792 
G01 X51.4694 Y49.8373 
G01 X51.4994 Y49.6868 
G01 X51.4994 Y49.5332 
G01 X51.4694 Y49.3827 
G01 X51.4107 Y49.2408 
G01 X51.3254 Y49.1132 
G01 X51.2168 Y49.0046 
G01 X51.0892 Y48.9193 
G01 X50.9473 Y48.8606 
G01 X50.7968 Y48.8306 
G01 X50.6432 Y48.8306 
G01 X50.4927 Y48.8606 
G01 X50.3508 Y48.9193 
G01 X50.2232 Y49.0046 
G01 X50.1146 Y49.1132 
G00 Z2.5400  
G00 X50.1146 Y51.1132 
G01 Z-0.0600 F90    
G01 X50.0293 Y51.2408 F300   
G01 X49.9706 Y51.3827 
G01 X49.9406 Y51.5332 
G01 X49.9406 Y51.6868 
G01 X49.9706 Y51.8373 
G01 X50.0293 Y51.9792 
G01 X50.1146 Y52.1068 
G01 X50.2232 Y52.2154 
G01 X50.3508 Y52.3007 
G01 X50.4927 Y52.3594 
G01 X50.6432 Y52.3894 
G01 X50.7968 Y52.3894 
G01 X50.9473 Y52.3594 
G01 X51.0892 Y52.3007 
G01 X51.2168 Y52.2154 
G01 X51.3254 Y52.1068 
G01 X51.4107 Y51.9792 
G01 X51.4694 Y51.8373 
G01 X51.4994 Y51.6868 
G01 X51.4994 Y51.5332 
G01 X51.4694 Y51.3827 
G01 X51.4107 Y51.2408 
G01 X51.3254 Y51.1132 
G01 X51.2168 Y51.0046 
G01 X51.0892 Y50.9193 
G01 X50.9473 Y50.8606 
G01 X50.7968 Y50.8306 
G01 X50.6432 Y50.8306 
G01 X50.4927 Y50.8606 
G01 X50.3508 Y50.9193 
G01 X50.2232 Y51.0046 
G01 X50.1146 Y51.1132 
G00 Z2.5400  
G00 X49.3254 Y51.1132 
G01 Z-0.0600 F90    
G01 X49.2168 Y51.0046 F300   
G01 X49.0892 Y50.9193 
G01 X48.9473 Y50.8606 
G01 X48.7968 Y50.8306 
G01 X48.6432 Y50.8306 
G01 X48.4927 Y50.8606 
G01 X48.3508 Y50.9193 
G01 X48.2232 Y51.0046 
G01 X48.1146 Y51.1132 
G01 X48.0293 Y51.2408 
G01 X47.9706 Y51.3827 
G01 X47.9406 Y51.5332 
G01 X47.9406 Y51.6868 
G01 X47.9706 Y51.8373 
G01 X48.0293 Y51.9792 
G01 X48.1146 Y52.1068 
G01 X48.2232 Y52.2154 
G01 X48.3508 Y52.3007 
G01 X48.4927 Y52.3594 
G01 X48.6432 Y52.3894 
G01 X48.7968 Y52.3894 
G01 X48.9473 Y52.3594 
G01 X49.0892 Y52.3007 
G01 X49.2168 Y52.2154 
G01 X49.3254 Y52.1068 
G01 X49.4107 Y51.9792 
G01 X49.4694 Y51.8373 
G01 X49.4994 Y51.6868 
G01 X49.4994 Y51.5332 
G01 X49.4694 Y51.3827 
G01 X49.4107 Y51.2408 
G01 X49.3254 Y51.1132 
G00 Z2.5400  
G00 X49.2168 Y53.0046 
G01 Z-0.0600 F90    
G01 X49.0892 Y52.9193 F300   
G01 X48.9473 Y52.8606 
G01 X48.7968 Y52.8306 
G01 X48.6432 Y52.8306 
G01 X48.4927 Y52.8606 
G01 X48.3508 Y52.9193 
G01 X48.2232 Y53.0046 
G01 X48.1146 Y53.1132 
G01 X48.0293 Y53.2408 
G01 X47.9706 Y53.3827 
G01 X47.9406 Y53.5332 
G01 X47.9406 Y53.6868 
G01 X47.9706 Y53.8373 
G01 X48.0293 Y53.9792 
G01 X48.1146 Y54.1068 
G01 X48.2232 Y54.2154 
G01 X48.3508 Y54.3007 
G01 X48.4927 Y54.3594 
G01 X48.6432 Y54.3894 
G01 X48.7968 Y54.3894 
G01 X48.9473 Y54.3594 
G01 X49.0892 Y54.3007 
G01 X49.2168 Y54.2154 
G01 X49.3254 Y54.1068 
G01 X49.4107 Y53.9792 
G01 X49.4694 Y53.8373 
G01 X49.4994 Y53.6868 
G01 X49.4994 Y53.5332 
G01 X49.4694 Y53.3827 
G01 X49.4107 Y53.2408 
G01 X49.3254 Y53.1132 
G01 X49.2168 Y53.0046 
G00 Z2.5400  
G00 X50.1146 Y53.1132 
G01 Z-0.0600 F90    
G01 X50.0293 Y53.2408 F300   
G01 X49.9706 Y53.3827 
G01 X49.9406 Y53.5332 
G01 X49.9406 Y53.6868 
G01 X49.9706 Y53.8373 
G01 X50.0293 Y53.9792 
G01 X50.1146 Y54.1068 
G01 X50.2232 Y54.2154 
G01 X50.3508 Y54.3007 
G01 X50.4927 Y54.3594 
G01 X50.6432 Y54.3894 
G01 X50.7968 Y54.3894 
G01 X50.9473 Y54.3594 
G01 X51.0892 Y54.3007 
G01 X51.2168 Y54.2154 
G01 X51.3254 Y54.1068 
G01 X51.4107 Y53.9792 
G01 X51.4694 Y53.8373 
G01 X51.4994 Y53.6868 
G01 X51.4994 Y53.5332 
G01 X51.4694 Y53.3827 
G01 X51.4107 Y53.2408 
G01 X51.3254 Y53.1132 
G01 X51.2168 Y53.0046 
G01 X51.0892 Y52.9193 
G01 X50.9473 Y52.8606 
G01 X50.7968 Y52.8306 
G01 X50.6432 Y52.8306 
G01 X50.4927 Y52.8606 
G01 X50.3508 Y52.9193 
G01 X50.2232 Y53.0046 
G01 X50.1146 Y53.1132 
G00 Z2.5400  
G00 X44.7302 Y57.4198 
G01 Z-0.0600 F90    
G01 X44.6262 Y57.3597 F300   
G01 X44.5101 Y57.3286 
G01 X43.3690 Y57.3286 
G01 X37.1102 Y51.0698 
G01 X37.0062 Y51.0097 
G01 X36.8901 Y50.9786 
G01 X31.6899 Y50.9786 
G01 X31.5738 Y51.0097 
G01 X31.4698 Y51.0698 
G01 X31.3848 Y51.1548 
G01 X28.8448 Y53.6948 
G01 X28.7847 Y53.7988 
G01 X28.7536 Y53.9149 
G01 X28.7536 Y62.6760 
G01 X26.0250 Y65.4046 
G01 X25.9729 Y65.3942 
G01 X24.5071 Y65.3942 
G01 X24.3650 Y65.4225 
G01 X24.2311 Y65.4779 
G01 X24.1106 Y65.5585 
G01 X24.0081 Y65.6610 
G01 X23.9275 Y65.7815 
G01 X23.8721 Y65.9154 
G01 X23.8438 Y66.0575 
G01 X23.8438 Y66.2025 
G01 X23.8721 Y66.3446 
G01 X23.9275 Y66.4785 
G01 X24.0081 Y66.5990 
G01 X24.1106 Y66.7015 
G01 X24.2311 Y66.7821 
G01 X24.3650 Y66.8375 
G01 X24.5071 Y66.8658 
G01 X25.9729 Y66.8658 
G01 X26.1150 Y66.8375 
G01 X26.2489 Y66.7821 
G01 X26.3694 Y66.7015 
G01 X26.4719 Y66.5990 
G01 X26.5525 Y66.4785 
G01 X26.6079 Y66.3446 
G01 X26.6362 Y66.2025 
G01 X26.6362 Y66.0842 
G01 X29.4902 Y63.2302 
G01 X29.5752 Y63.1452 
G01 X29.6353 Y63.0412 
G01 X29.6664 Y62.9251 
G01 X29.6664 Y54.1640 
G01 X31.9390 Y51.8914 
G01 X36.6409 Y51.8914 
G01 X42.8148 Y58.0652 
G01 X42.8998 Y58.1502 
G01 X43.0038 Y58.2103 
G01 X43.1199 Y58.2414 
G01 X44.2610 Y58.2414 
G01 X54.7886 Y68.7690 
G01 X54.7886 Y71.5660 
G01 X53.8534 Y72.5012 
G01 X53.8468 Y72.4946 
G01 X53.7192 Y72.4093 
G01 X53.5773 Y72.3506 
G01 X53.4268 Y72.3206 
G01 X53.2732 Y72.3206 
G01 X53.1227 Y72.3506 
G01 X52.9808 Y72.4093 
G01 X52.8532 Y72.4946 
G01 X52.7446 Y72.6032 
G01 X52.6593 Y72.7308 
G01 X52.6006 Y72.8727 
G01 X52.5706 Y73.0232 
G01 X52.5706 Y73.1768 
G01 X52.6006 Y73.3273 
G01 X52.6593 Y73.4692 
G01 X52.7446 Y73.5968 
G01 X52.8532 Y73.7054 
G01 X52.9808 Y73.7907 
G01 X53.1227 Y73.8494 
G01 X53.2732 Y73.8794 
G01 X53.4268 Y73.8794 
G01 X53.5773 Y73.8494 
G01 X53.7192 Y73.7907 
G01 X53.8468 Y73.7054 
G01 X53.9554 Y73.5968 
G01 X54.0325 Y73.4814 
G01 X54.0351 Y73.4814 
G01 X54.0617 Y73.4743 
G01 X54.0890 Y73.4710 
G01 X54.1195 Y73.4588 
G01 X54.1512 Y73.4503 
G01 X54.1750 Y73.4365 
G01 X54.2006 Y73.4263 
G01 X54.2268 Y73.4066 
G01 X54.2552 Y73.3902 
G01 X54.2747 Y73.3707 
G01 X54.2968 Y73.3542 
G01 X54.3170 Y73.3284 
G01 X55.6102 Y72.0352 
G01 X55.6703 Y71.9312 
G01 X55.7014 Y71.8151 
G01 X55.7014 Y68.5199 
G01 X55.6703 Y68.4038 
G01 X55.6102 Y68.2998 
G01 X55.5252 Y68.2148 
G01 X44.7302 Y57.4198 
G00 Z2.5400  
G00 X44.0952 Y58.6898 
G01 Z-0.0600 F90    
G01 X43.9912 Y58.6297 F300   
G01 X43.8751 Y58.5986 
G01 X34.2530 Y58.5986 
G01 X34.2562 Y58.5825 
G01 X34.2562 Y58.4375 
G01 X34.2279 Y58.2954 
G01 X34.1725 Y58.1615 
G01 X34.0919 Y58.0410 
G01 X33.9894 Y57.9385 
G01 X33.8689 Y57.8579 
G01 X33.7350 Y57.8025 
G01 X33.5929 Y57.7742 
G01 X32.1271 Y57.7742 
G01 X31.9850 Y57.8025 
G01 X31.8511 Y57.8579 
G01 X31.7306 Y57.9385 
G01 X31.6281 Y58.0410 
G01 X31.5475 Y58.1615 
G01 X31.4921 Y58.2954 
G01 X31.4638 Y58.4375 
G01 X31.4638 Y58.5825 
G01 X31.4921 Y58.7246 
G01 X31.5475 Y58.8585 
G01 X31.6281 Y58.9790 
G01 X31.7306 Y59.0815 
G01 X31.8511 Y59.1621 
G01 X31.9850 Y59.2175 
G01 X32.1271 Y59.2458 
G01 X32.6018 Y59.2458 
G01 X32.6275 Y59.2879 
G01 X32.6548 Y59.3352 
G01 X32.6587 Y59.3391 
G01 X32.6615 Y59.3438 
G01 X32.7011 Y59.3816 
G01 X32.7398 Y59.4202 
G01 X32.7445 Y59.4230 
G01 X32.7485 Y59.4268 
G01 X32.7965 Y59.4530 
G01 X32.8438 Y59.4803 
G01 X32.8492 Y59.4817 
G01 X32.8540 Y59.4844 
G01 X32.9072 Y59.4973 
G01 X32.9599 Y59.5114 
G01 X32.9654 Y59.5114 
G01 X32.9708 Y59.5127 
G01 X33.0255 Y59.5114 
G01 X43.6260 Y59.5114 
G01 X52.7338 Y68.6193 
G01 X52.6593 Y68.7308 
G01 X52.6006 Y68.8727 
G01 X52.5706 Y69.0232 
G01 X52.5706 Y69.1768 
G01 X52.6006 Y69.3273 
G01 X52.6593 Y69.4692 
G01 X52.7446 Y69.5968 
G01 X52.8532 Y69.7054 
G01 X52.9808 Y69.7907 
G01 X53.1227 Y69.8494 
G01 X53.2732 Y69.8794 
G01 X53.4268 Y69.8794 
G01 X53.5773 Y69.8494 
G01 X53.7192 Y69.7907 
G01 X53.8468 Y69.7054 
G01 X53.9554 Y69.5968 
G01 X54.0407 Y69.4692 
G01 X54.0994 Y69.3273 
G01 X54.1294 Y69.1768 
G01 X54.1294 Y69.0232 
G01 X54.0994 Y68.8727 
G01 X54.0407 Y68.7308 
G01 X53.9554 Y68.6032 
G01 X53.8468 Y68.4946 
G01 X53.7771 Y68.4480 
G01 X53.7653 Y68.4038 
G01 X53.7631 Y68.4000 
G01 X53.7618 Y68.3957 
G01 X53.7331 Y68.3480 
G01 X53.7052 Y68.2998 
G01 X53.7021 Y68.2966 
G01 X53.6998 Y68.2928 
G01 X53.6597 Y68.2542 
G01 X44.0952 Y58.6898 
G00 Z2.5400  
G00 X33.9894 Y60.4785 
G01 Z-0.0600 F90    
G01 X33.8689 Y60.3979 F300   
G01 X33.7350 Y60.3425 
G01 X33.5929 Y60.3142 
G01 X32.1271 Y60.3142 
G01 X31.9850 Y60.3425 
G01 X31.8511 Y60.3979 
G01 X31.7306 Y60.4785 
G01 X31.6281 Y60.5810 
G01 X31.5475 Y60.7015 
G01 X31.4921 Y60.8354 
G01 X31.4638 Y60.9775 
G01 X31.4638 Y61.1225 
G01 X31.4921 Y61.2646 
G01 X31.5475 Y61.3985 
G01 X31.6281 Y61.5190 
G01 X31.7306 Y61.6215 
G01 X31.8511 Y61.7021 
G01 X31.9850 Y61.7575 
G01 X32.1271 Y61.7858 
G01 X33.5929 Y61.7858 
G01 X33.7350 Y61.7575 
G01 X33.8689 Y61.7021 
G01 X33.9894 Y61.6215 
G01 X34.0919 Y61.5190 
G01 X34.1725 Y61.3985 
G01 X34.2279 Y61.2646 
G01 X34.2562 Y61.1225 
G01 X34.2562 Y60.9775 
G01 X34.2279 Y60.8354 
G01 X34.1725 Y60.7015 
G01 X34.0919 Y60.5810 
G01 X33.9894 Y60.4785 
G00 Z2.5400  
G00 X33.9894 Y63.0185 
G01 Z-0.0600 F90    
G01 X33.8689 Y62.9379 F300   
G01 X33.7350 Y62.8825 
G01 X33.5929 Y62.8542 
G01 X32.1271 Y62.8542 
G01 X31.9850 Y62.8825 
G01 X31.8511 Y62.9379 
G01 X31.7306 Y63.0185 
G01 X31.6281 Y63.1210 
G01 X31.5475 Y63.2415 
G01 X31.4921 Y63.3754 
G01 X31.4638 Y63.5175 
G01 X31.4638 Y63.6625 
G01 X31.4921 Y63.8046 
G01 X31.5475 Y63.9385 
G01 X31.6281 Y64.0590 
G01 X31.7306 Y64.1615 
G01 X31.8511 Y64.2421 
G01 X31.9850 Y64.2975 
G01 X32.1271 Y64.3258 
G01 X33.5929 Y64.3258 
G01 X33.7350 Y64.2975 
G01 X33.8689 Y64.2421 
G01 X33.9894 Y64.1615 
G01 X34.0919 Y64.0590 
G01 X34.1725 Y63.9385 
G01 X34.2279 Y63.8046 
G01 X34.2562 Y63.6625 
G01 X34.2562 Y63.5175 
G01 X34.2279 Y63.3754 
G01 X34.1725 Y63.2415 
G01 X34.0919 Y63.1210 
G01 X33.9894 Y63.0185 
G00 Z2.5400  
G00 X33.9894 Y65.5585 
G01 Z-0.0600 F90    
G01 X33.8689 Y65.4779 F300   
G01 X33.7350 Y65.4225 
G01 X33.5929 Y65.3942 
G01 X32.1271 Y65.3942 
G01 X31.9850 Y65.4225 
G01 X31.8511 Y65.4779 
G01 X31.7306 Y65.5585 
G01 X31.6281 Y65.6610 
G01 X31.5475 Y65.7815 
G01 X31.4921 Y65.9154 
G01 X31.4638 Y66.0575 
G01 X31.4638 Y66.2025 
G01 X31.4921 Y66.3446 
G01 X31.5475 Y66.4785 
G01 X31.6281 Y66.5990 
G01 X31.7306 Y66.7015 
G01 X31.8511 Y66.7821 
G01 X31.9850 Y66.8375 
G01 X32.1271 Y66.8658 
G01 X33.5929 Y66.8658 
G01 X33.7350 Y66.8375 
G01 X33.8689 Y66.7821 
G01 X33.9894 Y66.7015 
G01 X34.0919 Y66.5990 
G01 X34.1725 Y66.4785 
G01 X34.2279 Y66.3446 
G01 X34.2562 Y66.2025 
G01 X34.2562 Y66.0575 
G01 X34.2279 Y65.9154 
G01 X34.1725 Y65.7815 
G01 X34.0919 Y65.6610 
G01 X33.9894 Y65.5585 
G00 Z2.5400  
G00 X35.1036 Y65.3449 
G01 Z-0.0600 F90    
G01 X35.1036 Y66.4860 F300   
G01 X33.6450 Y67.9446 
G01 X33.5929 Y67.9342 
G01 X32.1271 Y67.9342 
G01 X31.9850 Y67.9625 
G01 X31.8511 Y68.0179 
G01 X31.7306 Y68.0985 
G01 X31.6281 Y68.2010 
G01 X31.5475 Y68.3215 
G01 X31.4921 Y68.4554 
G01 X31.4638 Y68.5975 
G01 X31.4638 Y68.7425 
G01 X31.4921 Y68.8846 
G01 X31.5475 Y69.0185 
G01 X31.6281 Y69.1390 
G01 X31.7306 Y69.2415 
G01 X31.8511 Y69.3221 
G01 X31.9850 Y69.3775 
G01 X32.1271 Y69.4058 
G01 X32.6018 Y69.4058 
G01 X32.6275 Y69.4479 
G01 X32.6548 Y69.4952 
G01 X32.6587 Y69.4991 
G01 X32.6615 Y69.5038 
G01 X32.7011 Y69.5416 
G01 X32.7398 Y69.5802 
G01 X32.7445 Y69.5830 
G01 X32.7485 Y69.5868 
G01 X32.7965 Y69.6130 
G01 X32.8438 Y69.6403 
G01 X32.8492 Y69.6417 
G01 X32.8540 Y69.6444 
G01 X32.9072 Y69.6573 
G01 X32.9599 Y69.6714 
G01 X32.9654 Y69.6714 
G01 X32.9708 Y69.6727 
G01 X33.0254 Y69.6714 
G01 X33.0801 Y69.6714 
G01 X33.0854 Y69.6700 
G01 X33.0909 Y69.6698 
G01 X33.1434 Y69.6544 
G01 X33.1962 Y69.6403 
G01 X33.2009 Y69.6375 
G01 X33.2062 Y69.6360 
G01 X33.2529 Y69.6075 
G01 X33.3002 Y69.5802 
G01 X33.3041 Y69.5763 
G01 X33.3088 Y69.5734 
G01 X33.3466 Y69.5339 
G01 X33.4746 Y69.4058 
G01 X33.5929 Y69.4058 
G01 X33.7350 Y69.3775 
G01 X33.8689 Y69.3221 
G01 X33.9894 Y69.2415 
G01 X34.0919 Y69.1390 
G01 X34.1725 Y69.0185 
G01 X34.2279 Y68.8846 
G01 X34.2562 Y68.7425 
G01 X34.2562 Y68.6242 
G01 X35.9252 Y66.9552 
G01 X35.9853 Y66.8512 
G01 X36.0164 Y66.7351 
G01 X36.0164 Y65.3449 
G01 X35.9853 Y65.2288 
G01 X35.9252 Y65.1248 
G01 X35.8402 Y65.0398 
G01 X35.7362 Y64.9797 
G01 X35.6201 Y64.9486 
G01 X35.4999 Y64.9486 
G01 X35.3838 Y64.9797 
G01 X35.2798 Y65.0398 
G01 X35.1948 Y65.1248 
G01 X35.1347 Y65.2288 
G01 X35.1036 Y65.3449 
G00 Z2.5400  
G00 X33.9894 Y70.6385 
G01 Z-0.0600 F90    
G01 X33.8689 Y70.5579 F300   
G01 X33.7350 Y70.5025 
G01 X33.5929 Y70.4742 
G01 X32.1271 Y70.4742 
G01 X31.9850 Y70.5025 
G01 X31.8511 Y70.5579 
G01 X31.7306 Y70.6385 
G01 X31.7054 Y70.6636 
G01 X30.9364 Y70.6636 
G01 X30.9364 Y55.4340 
G01 X31.9390 Y54.4314 
G01 X32.3407 Y54.4314 
G01 X32.3563 Y54.4344 
G01 X32.4007 Y54.4314 
G01 X32.4451 Y54.4314 
G01 X32.4604 Y54.4273 
G01 X32.4762 Y54.4262 
G01 X32.5182 Y54.4118 
G01 X32.5612 Y54.4003 
G01 X32.5749 Y54.3924 
G01 X32.5899 Y54.3872 
G01 X32.6267 Y54.3624 
G01 X32.6652 Y54.3402 
G01 X32.6764 Y54.3290 
G01 X32.6896 Y54.3202 
G01 X32.7188 Y54.2867 
G01 X32.7502 Y54.2552 
G01 X32.7581 Y54.2415 
G01 X32.8241 Y54.1658 
G01 X33.5929 Y54.1658 
G01 X33.7350 Y54.1375 
G01 X33.8689 Y54.0821 
G01 X33.9894 Y54.0015 
G01 X34.0919 Y53.8990 
G01 X34.1725 Y53.7785 
G01 X34.2279 Y53.6446 
G01 X34.2562 Y53.5025 
G01 X34.2562 Y53.3575 
G01 X34.2279 Y53.2154 
G01 X34.1725 Y53.0815 
G01 X34.0919 Y52.9610 
G01 X33.9894 Y52.8585 
G01 X33.8689 Y52.7779 
G01 X33.7350 Y52.7225 
G01 X33.5929 Y52.6942 
G01 X32.1271 Y52.6942 
G01 X31.9850 Y52.7225 
G01 X31.8511 Y52.7779 
G01 X31.7306 Y52.8585 
G01 X31.6281 Y52.9610 
G01 X31.5475 Y53.0815 
G01 X31.4921 Y53.2154 
G01 X31.4638 Y53.3575 
G01 X31.4638 Y53.5025 
G01 X31.4836 Y53.6018 
G01 X31.4698 Y53.6098 
G01 X30.1998 Y54.8798 
G01 X30.1148 Y54.9648 
G01 X30.0547 Y55.0688 
G01 X30.0236 Y55.1849 
G01 X30.0236 Y70.6636 
G01 X26.3946 Y70.6636 
G01 X26.3694 Y70.6385 
G01 X26.2489 Y70.5579 
G01 X26.1150 Y70.5025 
G01 X25.9729 Y70.4742 
G01 X24.5071 Y70.4742 
G01 X24.3650 Y70.5025 
G01 X24.2311 Y70.5579 
G01 X24.1106 Y70.6385 
G01 X24.0081 Y70.7410 
G01 X23.9275 Y70.8615 
G01 X23.8721 Y70.9954 
G01 X23.8438 Y71.1375 
G01 X23.8438 Y71.2825 
G01 X23.8721 Y71.4246 
G01 X23.9275 Y71.5585 
G01 X24.0081 Y71.6790 
G01 X24.1106 Y71.7815 
G01 X24.2311 Y71.8621 
G01 X24.3650 Y71.9175 
G01 X24.5071 Y71.9458 
G01 X25.9729 Y71.9458 
G01 X26.1150 Y71.9175 
G01 X26.2489 Y71.8621 
G01 X26.3694 Y71.7815 
G01 X26.4719 Y71.6790 
G01 X26.5405 Y71.5764 
G01 X31.5595 Y71.5764 
G01 X31.6281 Y71.6790 
G01 X31.7306 Y71.7815 
G01 X31.8511 Y71.8621 
G01 X31.9850 Y71.9175 
G01 X32.1271 Y71.9458 
G01 X33.5929 Y71.9458 
G01 X33.7350 Y71.9175 
G01 X33.8689 Y71.8621 
G01 X33.9894 Y71.7815 
G01 X34.0919 Y71.6790 
G01 X34.1725 Y71.5585 
G01 X34.2279 Y71.4246 
G01 X34.2562 Y71.2825 
G01 X34.2562 Y71.1375 
G01 X34.2279 Y70.9954 
G01 X34.1725 Y70.8615 
G01 X34.0919 Y70.7410 
G01 X33.9894 Y70.6385 
G00 Z2.5400  
G00 X26.4719 Y69.1390 
G01 Z-0.0600 F90    
G01 X26.5525 Y69.0185 F300   
G01 X26.6079 Y68.8846 
G01 X26.6362 Y68.7425 
G01 X26.6362 Y68.5975 
G01 X26.6079 Y68.4554 
G01 X26.5525 Y68.3215 
G01 X26.4719 Y68.2010 
G01 X26.3694 Y68.0985 
G01 X26.2489 Y68.0179 
G01 X26.1150 Y67.9625 
G01 X25.9729 Y67.9342 
G01 X24.5071 Y67.9342 
G01 X24.3650 Y67.9625 
G01 X24.2311 Y68.0179 
G01 X24.1106 Y68.0985 
G01 X24.0081 Y68.2010 
G01 X23.9275 Y68.3215 
G01 X23.8721 Y68.4554 
G01 X23.8438 Y68.5975 
G01 X23.8438 Y68.7425 
G01 X23.8721 Y68.8846 
G01 X23.9275 Y69.0185 
G01 X24.0081 Y69.1390 
G01 X24.1106 Y69.2415 
G01 X24.2311 Y69.3221 
G01 X24.3650 Y69.3775 
G01 X24.5071 Y69.4058 
G01 X25.9729 Y69.4058 
G01 X26.1150 Y69.3775 
G01 X26.2489 Y69.3221 
G01 X26.3694 Y69.2415 
G01 X26.4719 Y69.1390 
G00 Z2.5400  
G00 X26.4719 Y64.0590 
G01 Z-0.0600 F90    
G01 X26.5525 Y63.9385 F300   
G01 X26.6079 Y63.8046 
G01 X26.6362 Y63.6625 
G01 X26.6362 Y63.5175 
G01 X26.6079 Y63.3754 
G01 X26.5525 Y63.2415 
G01 X26.4719 Y63.1210 
G01 X26.3694 Y63.0185 
G01 X26.2489 Y62.9379 
G01 X26.1150 Y62.8825 
G01 X25.9729 Y62.8542 
G01 X24.5071 Y62.8542 
G01 X24.3650 Y62.8825 
G01 X24.2311 Y62.9379 
G01 X24.1106 Y63.0185 
G01 X24.0081 Y63.1210 
G01 X23.9275 Y63.2415 
G01 X23.8721 Y63.3754 
G01 X23.8438 Y63.5175 
G01 X23.8438 Y63.6625 
G01 X23.8626 Y63.7570 
G01 X22.4948 Y65.1248 
G01 X22.4347 Y65.2288 
G01 X22.4036 Y65.3449 
G01 X22.4036 Y71.8151 
G01 X22.4347 Y71.9312 
G01 X22.4948 Y72.0352 
G01 X22.5798 Y72.1202 
G01 X23.8498 Y73.3902 
G01 X23.9538 Y73.4503 
G01 X24.0699 Y73.4814 
G01 X50.6675 Y73.4814 
G01 X50.7446 Y73.5968 
G01 X50.8532 Y73.7054 
G01 X50.9786 Y73.7892 
G01 X50.9786 Y74.4108 
G01 X50.8532 Y74.4946 
G01 X50.7446 Y74.6032 
G01 X50.6593 Y74.7308 
G01 X50.6006 Y74.8727 
G01 X50.5706 Y75.0232 
G01 X50.5706 Y75.1768 
G01 X50.6006 Y75.3273 
G01 X50.6593 Y75.4692 
G01 X50.7446 Y75.5968 
G01 X50.8532 Y75.7054 
G01 X50.9808 Y75.7907 
G01 X51.1227 Y75.8494 
G01 X51.2732 Y75.8794 
G01 X51.4268 Y75.8794 
G01 X51.5773 Y75.8494 
G01 X51.7192 Y75.7907 
G01 X51.8468 Y75.7054 
G01 X51.9554 Y75.5968 
G01 X52.0407 Y75.4692 
G01 X52.0994 Y75.3273 
G01 X52.1294 Y75.1768 
G01 X52.1294 Y75.0232 
G01 X52.0994 Y74.8727 
G01 X52.0407 Y74.7308 
G01 X51.9554 Y74.6032 
G01 X51.8914 Y74.5392 
G01 X51.8914 Y73.6854 
G01 X51.8945 Y73.6577 
G01 X51.9554 Y73.5968 
G01 X52.0407 Y73.4692 
G01 X52.0994 Y73.3273 
G01 X52.1294 Y73.1768 
G01 X52.1294 Y73.0232 
G01 X52.0994 Y72.8727 
G01 X52.0407 Y72.7308 
G01 X51.9554 Y72.6032 
G01 X51.8914 Y72.5392 
G01 X51.8914 Y71.6608 
G01 X51.9554 Y71.5968 
G01 X52.0407 Y71.4692 
G01 X52.0994 Y71.3273 
G01 X52.1294 Y71.1768 
G01 X52.1294 Y71.0232 
G01 X52.0994 Y70.8727 
G01 X52.0407 Y70.7308 
G01 X51.9554 Y70.6032 
G01 X51.8914 Y70.5392 
G01 X51.8914 Y70.5164 
G01 X51.8953 Y70.4880 
G01 X51.8914 Y70.4566 
G01 X51.8914 Y69.6608 
G01 X51.9554 Y69.5968 
G01 X52.0407 Y69.4692 
G01 X52.0994 Y69.3273 
G01 X52.1294 Y69.1768 
G01 X52.1294 Y69.0232 
G01 X52.0994 Y68.8727 
G01 X52.0407 Y68.7308 
G01 X51.9554 Y68.6032 
G01 X51.8468 Y68.4946 
G01 X51.7192 Y68.4093 
G01 X51.5773 Y68.3506 
G01 X51.4268 Y68.3206 
G01 X51.2732 Y68.3206 
G01 X51.1227 Y68.3506 
G01 X50.9808 Y68.4093 
G01 X50.8532 Y68.4946 
G01 X50.7446 Y68.6032 
G01 X50.6593 Y68.7308 
G01 X50.6006 Y68.8727 
G01 X50.5706 Y69.0232 
G01 X50.5706 Y69.1768 
G01 X50.6006 Y69.3273 
G01 X50.6593 Y69.4692 
G01 X50.7446 Y69.5968 
G01 X50.8532 Y69.7054 
G01 X50.9786 Y69.7892 
G01 X50.9786 Y70.4108 
G01 X50.8532 Y70.4946 
G01 X50.7446 Y70.6032 
G01 X50.6593 Y70.7308 
G01 X50.6006 Y70.8727 
G01 X50.5706 Y71.0232 
G01 X50.5706 Y71.1768 
G01 X50.6006 Y71.3273 
G01 X50.6593 Y71.4692 
G01 X50.7446 Y71.5968 
G01 X50.8532 Y71.7054 
G01 X50.9786 Y71.7892 
G01 X50.9786 Y72.4108 
G01 X50.8532 Y72.4946 
G01 X50.7803 Y72.5674 
G01 X50.7711 Y72.5686 
G01 X24.3190 Y72.5686 
G01 X23.3164 Y71.5660 
G01 X23.3164 Y65.5940 
G01 X24.5846 Y64.3258 
G01 X25.9729 Y64.3258 
G01 X26.1150 Y64.2975 
G01 X26.2489 Y64.2421 
G01 X26.3694 Y64.1615 
G01 X26.4719 Y64.0590 
G00 Z2.5400  
G00 X26.4719 Y61.5190 
G01 Z-0.0600 F90    
G01 X26.5525 Y61.3985 F300   
G01 X26.6079 Y61.2646 
G01 X26.6362 Y61.1225 
G01 X26.6362 Y60.9775 
G01 X26.6079 Y60.8354 
G01 X26.5525 Y60.7015 
G01 X26.4719 Y60.5810 
G01 X26.3694 Y60.4785 
G01 X26.2489 Y60.3979 
G01 X26.1150 Y60.3425 
G01 X25.9729 Y60.3142 
G01 X24.5071 Y60.3142 
G01 X24.3650 Y60.3425 
G01 X24.2311 Y60.3979 
G01 X24.1106 Y60.4785 
G01 X24.0081 Y60.5810 
G01 X23.9275 Y60.7015 
G01 X23.8721 Y60.8354 
G01 X23.8438 Y60.9775 
G01 X23.8438 Y61.1225 
G01 X23.8721 Y61.2646 
G01 X23.9275 Y61.3985 
G01 X24.0081 Y61.5190 
G01 X24.1106 Y61.6215 
G01 X24.2311 Y61.7021 
G01 X24.3650 Y61.7575 
G01 X24.5071 Y61.7858 
G01 X25.9729 Y61.7858 
G01 X26.1150 Y61.7575 
G01 X26.2489 Y61.7021 
G01 X26.3694 Y61.6215 
G01 X26.4719 Y61.5190 
G00 Z2.5400  
G00 X26.4719 Y58.9790 
G01 Z-0.0600 F90    
G01 X26.5525 Y58.8585 F300   
G01 X26.6079 Y58.7246 
G01 X26.6362 Y58.5825 
G01 X26.6362 Y58.4375 
G01 X26.6079 Y58.2954 
G01 X26.5525 Y58.1615 
G01 X26.4719 Y58.0410 
G01 X26.3694 Y57.9385 
G01 X26.2489 Y57.8579 
G01 X26.1150 Y57.8025 
G01 X25.9729 Y57.7742 
G01 X24.5071 Y57.7742 
G01 X24.3650 Y57.8025 
G01 X24.2311 Y57.8579 
G01 X24.1106 Y57.9385 
G01 X24.0081 Y58.0410 
G01 X23.9275 Y58.1615 
G01 X23.8721 Y58.2954 
G01 X23.8438 Y58.4375 
G01 X23.8438 Y58.5825 
G01 X23.8721 Y58.7246 
G01 X23.9275 Y58.8585 
G01 X24.0081 Y58.9790 
G01 X24.1106 Y59.0815 
G01 X24.2311 Y59.1621 
G01 X24.3650 Y59.2175 
G01 X24.5071 Y59.2458 
G01 X25.9729 Y59.2458 
G01 X26.1150 Y59.2175 
G01 X26.2489 Y59.1621 
G01 X26.3694 Y59.0815 
G01 X26.4719 Y58.9790 
G00 Z2.5400  
G00 X26.4719 Y53.8990 
G01 Z-0.0600 F90    
G01 X26.5525 Y53.7785 F300   
G01 X26.6079 Y53.6446 
G01 X26.6362 Y53.5025 
G01 X26.6362 Y53.3575 
G01 X26.6079 Y53.2154 
G01 X26.5525 Y53.0815 
G01 X26.4719 Y52.9610 
G01 X26.3694 Y52.8585 
G01 X26.2489 Y52.7779 
G01 X26.1150 Y52.7225 
G01 X25.9729 Y52.6942 
G01 X24.5071 Y52.6942 
G01 X24.3650 Y52.7225 
G01 X24.2311 Y52.7779 
G01 X24.1106 Y52.8585 
G01 X24.0081 Y52.9610 
G01 X23.9275 Y53.0815 
G01 X23.8721 Y53.2154 
G01 X23.8438 Y53.3575 
G01 X23.8438 Y53.5025 
G01 X23.8636 Y53.6018 
G01 X23.8498 Y53.6098 
G01 X7.3398  Y70.1198 
G01 X7.2548  Y70.2048 
G01 X7.1947  Y70.3088 
G01 X7.1636  Y70.4249 
G01 X7.1636  Y75.3760 
G01 X6.1658  Y76.3738 
G01 X6.0373  Y76.3206 
G01 X5.8868  Y76.2906 
G01 X5.7332  Y76.2906 
G01 X5.5827  Y76.3206 
G01 X5.4408  Y76.3793 
G01 X5.3132  Y76.4646 
G01 X5.2046  Y76.5732 
G01 X5.1193  Y76.7008 
G01 X5.0606  Y76.8427 
G01 X5.0306  Y76.9932 
G01 X5.0306  Y77.1468 
G01 X5.0606  Y77.2973 
G01 X5.1193  Y77.4392 
G01 X5.2046  Y77.5668 
G01 X5.3132  Y77.6754 
G01 X5.4408  Y77.7607 
G01 X5.5827  Y77.8194 
G01 X5.7332  Y77.8494 
