(.../pcb-gcode-3.6.2.4/pcb-gcode.ulp)
(Copyright 2005 - 2012 by John Johnson)
(See readme.txt for licensing terms.)
(This file generated from the board:)
(.../consip/eagle/Tokaleds/tokaleds.brd)
(Current profile is .../pcb-gcode-3.6.2.4/profiles/mach.pp  )
(This file generated 3/1/21 6:41 PM)
(Settings from pcb-machine.h)
(spindle on time = 0.5000)
(  Tool Size)
(0.1000  )
(spindle speed = 1000.0000)
(tool change at 0.0000  0.0000  40.0000 )
(feed rate xy = F300   )
(feed rate z  = F90    )
(Z Axis Settings)
(  High     Up        Down     Drill)
(3.0000  	2.5400  	-0.0600 	-1.8000 )
(Settings from pcb-defaults.h)
(isolate min = 0.0254)
(isolate max = 0.5080)
(isolate step = 0.1270)
(Generated top outlines, top drill, bottom outlines, bottom drill, )
(Unit of measure: mm)
(Beginning of every file)
(Beginning of every bottom file)
(Outline Begin)
(Bottom outline Begin)
(Metric Mode)
G21
(Absolute Coordinates)
G90
S1000
G00 Z3.0000  
G00 X0.0000  Y0.0000  
M03
G04 P0.500000
G00 Z2.5400  
G00 X-19.2894 Y9.0950  
G01 Z-0.0600 F90    
G01 X-19.3910 Y8.9934  F300   
G01 X-19.5105 Y8.9136  
G01 X-19.6432 Y8.8586  
G01 X-19.7842 Y8.8306  
G01 X-21.2358 Y8.8306  
G01 X-21.3768 Y8.8586  
G01 X-21.5095 Y8.9136  
G01 X-21.6290 Y8.9934  
G01 X-21.7306 Y9.0950  
G01 X-21.8104 Y9.2145  
G01 X-21.8654 Y9.3472  
G01 X-21.8934 Y9.4882  
G01 X-21.8934 Y9.6318  
G01 X-21.8654 Y9.7728  
G01 X-21.8104 Y9.9055  
G01 X-21.7306 Y10.0250 
G01 X-21.6290 Y10.1266 
G01 X-21.5095 Y10.2064 
G01 X-21.3768 Y10.2614 
G01 X-21.2358 Y10.2894 
G01 X-19.7842 Y10.2894 
G01 X-19.6432 Y10.2614 
G01 X-19.5105 Y10.2064 
G01 X-19.3910 Y10.1266 
G01 X-19.2894 Y10.0250 
G01 X-19.2096 Y9.9055  
G01 X-19.1546 Y9.7728  
G01 X-19.1266 Y9.6318  
G01 X-19.1266 Y9.4882  
G01 X-19.1546 Y9.3472  
G01 X-19.2096 Y9.2145  
G01 X-19.2894 Y9.0950  
G00 Z2.5400  
G00 X-19.2894 Y11.6350 
G01 Z-0.0600 F90    
G01 X-19.3910 Y11.5334 F300   
G01 X-19.5105 Y11.4536 
G01 X-19.6432 Y11.3986 
G01 X-19.7842 Y11.3706 
G01 X-21.2358 Y11.3706 
G01 X-21.3768 Y11.3986 
G01 X-21.5095 Y11.4536 
G01 X-21.6290 Y11.5334 
G01 X-21.7306 Y11.6350 
G01 X-21.8104 Y11.7545 
G01 X-21.8654 Y11.8872 
G01 X-21.8934 Y12.0282 
G01 X-21.8934 Y12.1718 
G01 X-21.8654 Y12.3128 
G01 X-21.8104 Y12.4455 
G01 X-21.7306 Y12.5650 
G01 X-21.6290 Y12.6666 
G01 X-21.5095 Y12.7464 
G01 X-21.3768 Y12.8014 
G01 X-21.2358 Y12.8294 
G01 X-19.7842 Y12.8294 
G01 X-19.6432 Y12.8014 
G01 X-19.5105 Y12.7464 
G01 X-19.3910 Y12.6666 
G01 X-19.2894 Y12.5650 
G01 X-19.2096 Y12.4455 
G01 X-19.1546 Y12.3128 
G01 X-19.1266 Y12.1718 
G01 X-19.1266 Y12.0282 
G01 X-19.1546 Y11.8872 
G01 X-19.2096 Y11.7545 
G01 X-19.2894 Y11.6350 
G00 Z2.5400  
G00 X-19.2894 Y14.1750 
G01 Z-0.0600 F90    
G01 X-19.3910 Y14.0734 F300   
G01 X-19.5105 Y13.9936 
G01 X-19.6432 Y13.9386 
G01 X-19.7842 Y13.9106 
G01 X-21.2358 Y13.9106 
G01 X-21.3768 Y13.9386 
G01 X-21.5095 Y13.9936 
G01 X-21.6290 Y14.0734 
G01 X-21.7306 Y14.1750 
G01 X-21.8104 Y14.2945 
G01 X-21.8654 Y14.4272 
G01 X-21.8934 Y14.5682 
G01 X-21.8934 Y14.7118 
G01 X-21.8654 Y14.8528 
G01 X-21.8104 Y14.9855 
G01 X-21.7306 Y15.1050 
G01 X-21.6290 Y15.2066 
G01 X-21.5095 Y15.2864 
G01 X-21.3768 Y15.3414 
G01 X-21.2358 Y15.3694 
G01 X-19.7842 Y15.3694 
G01 X-19.6432 Y15.3414 
G01 X-19.5105 Y15.2864 
G01 X-19.3910 Y15.2066 
G01 X-19.2894 Y15.1050 
G01 X-19.2096 Y14.9855 
G01 X-19.1546 Y14.8528 
G01 X-19.1266 Y14.7118 
G01 X-19.1266 Y14.5682 
G01 X-19.1546 Y14.4272 
G01 X-19.2096 Y14.2945 
G01 X-19.2894 Y14.1750 
G00 Z2.5400  
G00 X-19.2894 Y16.7150 
G01 Z-0.0600 F90    
G01 X-19.3910 Y16.6134 F300   
G01 X-19.5105 Y16.5336 
G01 X-19.6432 Y16.4786 
G01 X-19.7842 Y16.4506 
G01 X-21.2358 Y16.4506 
G01 X-21.3768 Y16.4786 
G01 X-21.5095 Y16.5336 
G01 X-21.6290 Y16.6134 
G01 X-21.7306 Y16.7150 
G01 X-21.8104 Y16.8345 
G01 X-21.8654 Y16.9672 
G01 X-21.8934 Y17.1082 
G01 X-21.8934 Y17.2518 
G01 X-21.8654 Y17.3928 
G01 X-21.8104 Y17.5255 
G01 X-21.7306 Y17.6450 
G01 X-21.6290 Y17.7466 
G01 X-21.5095 Y17.8264 
G01 X-21.3768 Y17.8814 
G01 X-21.2358 Y17.9094 
G01 X-20.7578 Y17.9094 
G01 X-20.7453 Y17.9562 
G01 X-20.7401 Y17.9652 
G01 X-20.7370 Y17.9751 
G01 X-20.7101 Y18.0171 
G01 X-20.6852 Y18.0602 
G01 X-20.6779 Y18.0676 
G01 X-20.6723 Y18.0763 
G01 X-20.6355 Y18.1100 
G01 X-20.6002 Y18.1452 
G01 X-20.5912 Y18.1504 
G01 X-20.5836 Y18.1574 
G01 X-20.5393 Y18.1804 
G01 X-20.4962 Y18.2053 
G01 X-20.4861 Y18.2080 
G01 X-20.4769 Y18.2128 
G01 X-20.4282 Y18.2235 
G01 X-20.3801 Y18.2364 
G01 X-20.3697 Y18.2364 
G01 X-20.3595 Y18.2386 
G01 X-20.3097 Y18.2364 
G01 X-19.2390 Y18.2364 
G01 X-18.2364 Y19.2390 
G01 X-18.2364 Y45.5309 
G01 X-23.6840 Y50.9786 
G01 X-26.7301 Y50.9786 
G01 X-26.8462 Y51.0097 
G01 X-26.9502 Y51.0698 
G01 X-29.4902 Y53.6098 
G01 X-29.5752 Y53.6948 
G01 X-29.6353 Y53.7988 
G01 X-29.6664 Y53.9149 
G01 X-29.6664 Y59.5010 
G01 X-30.7602 Y60.5948 
G01 X-30.8452 Y60.6798 
G01 X-30.9053 Y60.7838 
G01 X-30.9364 Y60.8999 
G01 X-30.9364 Y69.0259 
G01 X-32.3846 Y70.4742 
G01 X-33.5929 Y70.4742 
G01 X-33.7350 Y70.5025 
G01 X-33.8689 Y70.5579 
G01 X-33.9894 Y70.6385 
G01 X-34.0919 Y70.7410 
G01 X-34.1725 Y70.8615 
G01 X-34.2279 Y70.9954 
G01 X-34.2562 Y71.1375 
G01 X-34.2562 Y71.2825 
G01 X-34.2279 Y71.4246 
G01 X-34.1725 Y71.5585 
G01 X-34.0919 Y71.6790 
G01 X-33.9894 Y71.7815 
G01 X-33.8689 Y71.8621 
G01 X-33.7350 Y71.9175 
G01 X-33.5929 Y71.9458 
G01 X-32.1271 Y71.9458 
G01 X-31.9850 Y71.9175 
G01 X-31.8511 Y71.8621 
G01 X-31.7306 Y71.7815 
G01 X-31.6281 Y71.6790 
G01 X-31.5475 Y71.5585 
G01 X-31.4921 Y71.4246 
G01 X-31.4638 Y71.2825 
G01 X-31.4638 Y71.1375 
G01 X-31.4921 Y70.9954 
G01 X-31.5281 Y70.9085 
G01 X-30.1148 Y69.4952 
G01 X-30.0547 Y69.3912 
G01 X-30.0236 Y69.2751 
G01 X-30.0236 Y61.1490 
G01 X-28.8448 Y59.9702 
G01 X-28.7847 Y59.8662 
G01 X-28.7536 Y59.7501 
G01 X-28.7536 Y54.1640 
G01 X-26.4809 Y51.8914 
G01 X-23.4349 Y51.8914 
G01 X-23.3188 Y51.8603 
G01 X-23.2148 Y51.8002 
G01 X-23.1298 Y51.7152 
G01 X-17.4148 Y46.0002 
G01 X-17.3547 Y45.8962 
G01 X-17.3236 Y45.7801 
G01 X-17.3236 Y18.9899 
G01 X-17.3547 Y18.8738 
G01 X-17.4148 Y18.7698 
G01 X-17.4998 Y18.6848 
G01 X-18.7698 Y17.4148 
G01 X-18.8738 Y17.3547 
G01 X-18.9899 Y17.3236 
G01 X-19.1409 Y17.3236 
G01 X-19.1266 Y17.2518 
G01 X-19.1266 Y17.1082 
G01 X-19.1546 Y16.9672 
G01 X-19.2096 Y16.8345 
G01 X-19.2894 Y16.7150 
G00 Z2.5400  
G00 X-19.2894 Y19.2550 
G01 Z-0.0600 F90    
G01 X-19.3910 Y19.1534 F300   
G01 X-19.5105 Y19.0736 
G01 X-19.6432 Y19.0186 
G01 X-19.7842 Y18.9906 
G01 X-21.2358 Y18.9906 
G01 X-21.3768 Y19.0186 
G01 X-21.5095 Y19.0736 
G01 X-21.6290 Y19.1534 
G01 X-21.7306 Y19.2550 
G01 X-21.8104 Y19.3745 
G01 X-21.8654 Y19.5072 
G01 X-21.8934 Y19.6482 
G01 X-21.8934 Y19.7918 
G01 X-21.8654 Y19.9328 
G01 X-21.8104 Y20.0655 
G01 X-21.7306 Y20.1850 
G01 X-21.6290 Y20.2866 
G01 X-21.5095 Y20.3664 
G01 X-21.3768 Y20.4214 
G01 X-21.2358 Y20.4494 
G01 X-19.7842 Y20.4494 
G01 X-19.6432 Y20.4214 
G01 X-19.5105 Y20.3664 
G01 X-19.3910 Y20.2866 
G01 X-19.2894 Y20.1850 
G01 X-19.2096 Y20.0655 
G01 X-19.1546 Y19.9328 
G01 X-19.1266 Y19.7918 
G01 X-19.1266 Y19.6482 
G01 X-19.1546 Y19.5072 
G01 X-19.2096 Y19.3745 
G01 X-19.2894 Y19.2550 
G00 Z2.5400  
G00 X-19.2894 Y21.7950 
G01 Z-0.0600 F90    
G01 X-19.3910 Y21.6934 F300   
G01 X-19.5105 Y21.6136 
G01 X-19.6432 Y21.5586 
G01 X-19.7842 Y21.5306 
G01 X-21.2358 Y21.5306 
G01 X-21.3768 Y21.5586 
G01 X-21.5095 Y21.6136 
G01 X-21.6290 Y21.6934 
G01 X-21.7306 Y21.7950 
G01 X-21.8104 Y21.9145 
G01 X-21.8654 Y22.0472 
G01 X-21.8934 Y22.1882 
G01 X-21.8934 Y22.3318 
G01 X-21.8654 Y22.4728 
G01 X-21.8104 Y22.6055 
G01 X-21.7306 Y22.7250 
G01 X-21.6290 Y22.8266 
G01 X-21.5095 Y22.9064 
G01 X-21.3768 Y22.9614 
G01 X-21.2358 Y22.9894 
G01 X-19.7842 Y22.9894 
G01 X-19.6432 Y22.9614 
G01 X-19.5105 Y22.9064 
G01 X-19.3910 Y22.8266 
G01 X-19.2894 Y22.7250 
G01 X-19.2096 Y22.6055 
G01 X-19.1546 Y22.4728 
G01 X-19.1266 Y22.3318 
G01 X-19.1266 Y22.1882 
G01 X-19.1546 Y22.0472 
G01 X-19.2096 Y21.9145 
G01 X-19.2894 Y21.7950 
G00 Z2.5400  
G00 X-19.2894 Y24.3350 
G01 Z-0.0600 F90    
G01 X-19.3910 Y24.2334 F300   
G01 X-19.5105 Y24.1536 
G01 X-19.6432 Y24.0986 
G01 X-19.7842 Y24.0706 
G01 X-21.2358 Y24.0706 
G01 X-21.3768 Y24.0986 
G01 X-21.5095 Y24.1536 
G01 X-21.6290 Y24.2334 
G01 X-21.7306 Y24.3350 
G01 X-21.8104 Y24.4545 
G01 X-21.8654 Y24.5872 
G01 X-21.8934 Y24.7282 
G01 X-21.8934 Y24.8718 
G01 X-21.8654 Y25.0128 
G01 X-21.8104 Y25.1455 
G01 X-21.7306 Y25.2650 
G01 X-21.6290 Y25.3666 
G01 X-21.5095 Y25.4464 
G01 X-21.3768 Y25.5014 
G01 X-21.2358 Y25.5294 
G01 X-19.7842 Y25.5294 
G01 X-19.6432 Y25.5014 
G01 X-19.5105 Y25.4464 
G01 X-19.3910 Y25.3666 
G01 X-19.2894 Y25.2650 
G01 X-19.2096 Y25.1455 
G01 X-19.1546 Y25.0128 
G01 X-19.1266 Y24.8718 
G01 X-19.1266 Y24.7282 
G01 X-19.1546 Y24.5872 
G01 X-19.2096 Y24.4545 
G01 X-19.2894 Y24.3350 
G00 Z2.5400  
G00 X-19.2894 Y26.8750 
G01 Z-0.0600 F90    
G01 X-19.3910 Y26.7734 F300   
G01 X-19.5105 Y26.6936 
G01 X-19.6432 Y26.6386 
G01 X-19.7842 Y26.6106 
G01 X-21.2358 Y26.6106 
G01 X-21.3768 Y26.6386 
G01 X-21.5095 Y26.6936 
G01 X-21.6290 Y26.7734 
G01 X-21.7306 Y26.8750 
G01 X-21.8104 Y26.9945 
G01 X-21.8654 Y27.1272 
G01 X-21.8934 Y27.2682 
G01 X-21.8934 Y27.4118 
G01 X-21.8654 Y27.5528 
G01 X-21.8104 Y27.6855 
G01 X-21.7306 Y27.8050 
G01 X-21.6290 Y27.9066 
G01 X-21.5095 Y27.9864 
G01 X-21.3768 Y28.0414 
G01 X-21.2358 Y28.0694 
G01 X-19.7842 Y28.0694 
G01 X-19.6432 Y28.0414 
G01 X-19.5105 Y27.9864 
G01 X-19.3910 Y27.9066 
G01 X-19.2894 Y27.8050 
G01 X-19.2096 Y27.6855 
G01 X-19.1546 Y27.5528 
G01 X-19.1266 Y27.4118 
G01 X-19.1266 Y27.2682 
G01 X-19.1546 Y27.1272 
G01 X-19.2096 Y26.9945 
G01 X-19.2894 Y26.8750 
G00 Z2.5400  
G00 X-19.2894 Y29.4150 
G01 Z-0.0600 F90    
G01 X-19.3910 Y29.3134 F300   
G01 X-19.5105 Y29.2336 
G01 X-19.6432 Y29.1786 
G01 X-19.7842 Y29.1506 
G01 X-21.2358 Y29.1506 
G01 X-21.3768 Y29.1786 
G01 X-21.5095 Y29.2336 
G01 X-21.6290 Y29.3134 
G01 X-21.7306 Y29.4150 
G01 X-21.8104 Y29.5345 
G01 X-21.8654 Y29.6672 
G01 X-21.8934 Y29.8082 
G01 X-21.8934 Y29.9518 
G01 X-21.8654 Y30.0928 
G01 X-21.8104 Y30.2255 
G01 X-21.7306 Y30.3450 
G01 X-21.6290 Y30.4466 
G01 X-21.5095 Y30.5264 
G01 X-21.3768 Y30.5814 
G01 X-21.2358 Y30.6094 
G01 X-19.7842 Y30.6094 
G01 X-19.6432 Y30.5814 
G01 X-19.5105 Y30.5264 
G01 X-19.3910 Y30.4466 
G01 X-19.2894 Y30.3450 
G01 X-19.2096 Y30.2255 
G01 X-19.1546 Y30.0928 
G01 X-19.1266 Y29.9518 
G01 X-19.1266 Y29.8082 
G01 X-19.1546 Y29.6672 
G01 X-19.2096 Y29.5345 
G01 X-19.2894 Y29.4150 
G00 Z2.5400  
G00 X-19.2894 Y31.9550 
G01 Z-0.0600 F90    
G01 X-19.3910 Y31.8534 F300   
G01 X-19.5105 Y31.7736 
G01 X-19.6432 Y31.7186 
G01 X-19.7842 Y31.6906 
G01 X-21.2358 Y31.6906 
G01 X-21.3768 Y31.7186 
G01 X-21.5095 Y31.7736 
G01 X-21.6290 Y31.8534 
G01 X-21.7306 Y31.9550 
G01 X-21.8104 Y32.0745 
G01 X-21.8654 Y32.2072 
G01 X-21.8934 Y32.3482 
G01 X-21.8934 Y32.4918 
G01 X-21.8654 Y32.6328 
G01 X-21.8104 Y32.7655 
G01 X-21.7306 Y32.8850 
G01 X-21.6290 Y32.9866 
G01 X-21.5095 Y33.0664 
G01 X-21.3768 Y33.1214 
G01 X-21.2358 Y33.1494 
G01 X-19.7842 Y33.1494 
G01 X-19.6432 Y33.1214 
G01 X-19.5105 Y33.0664 
G01 X-19.3910 Y32.9866 
G01 X-19.2894 Y32.8850 
G01 X-19.2096 Y32.7655 
G01 X-19.1546 Y32.6328 
G01 X-19.1266 Y32.4918 
G01 X-19.1266 Y32.3482 
G01 X-19.1546 Y32.2072 
G01 X-19.2096 Y32.0745 
G01 X-19.2894 Y31.9550 
G00 Z2.5400  
G00 X-19.2894 Y34.4950 
G01 Z-0.0600 F90    
G01 X-19.3910 Y34.3934 F300   
G01 X-19.5105 Y34.3136 
G01 X-19.6432 Y34.2586 
G01 X-19.7842 Y34.2306 
G01 X-21.2358 Y34.2306 
G01 X-21.3768 Y34.2586 
G01 X-21.5095 Y34.3136 
G01 X-21.6290 Y34.3934 
G01 X-21.7306 Y34.4950 
G01 X-21.8104 Y34.6145 
G01 X-21.8654 Y34.7472 
G01 X-21.8934 Y34.8882 
G01 X-21.8934 Y35.0318 
G01 X-21.8654 Y35.1728 
G01 X-21.8104 Y35.3055 
G01 X-21.7306 Y35.4250 
G01 X-21.6290 Y35.5266 
G01 X-21.5095 Y35.6064 
G01 X-21.3768 Y35.6614 
G01 X-21.2358 Y35.6894 
G01 X-19.7842 Y35.6894 
G01 X-19.6432 Y35.6614 
G01 X-19.5105 Y35.6064 
G01 X-19.3910 Y35.5266 
G01 X-19.2894 Y35.4250 
G01 X-19.2096 Y35.3055 
G01 X-19.1546 Y35.1728 
G01 X-19.1266 Y35.0318 
G01 X-19.1266 Y34.8882 
G01 X-19.1546 Y34.7472 
G01 X-19.2096 Y34.6145 
G01 X-19.2894 Y34.4950 
G00 Z2.5400  
G00 X-19.2894 Y37.0350 
G01 Z-0.0600 F90    
G01 X-19.3910 Y36.9334 F300   
G01 X-19.5105 Y36.8536 
G01 X-19.6432 Y36.7986 
G01 X-19.7842 Y36.7706 
G01 X-21.2358 Y36.7706 
G01 X-21.3768 Y36.7986 
G01 X-21.5095 Y36.8536 
G01 X-21.6290 Y36.9334 
G01 X-21.7306 Y37.0350 
G01 X-21.8104 Y37.1545 
G01 X-21.8654 Y37.2872 
G01 X-21.8934 Y37.4282 
G01 X-21.8934 Y37.5718 
G01 X-21.8654 Y37.7128 
G01 X-21.8104 Y37.8455 
G01 X-21.7306 Y37.9650 
G01 X-21.6290 Y38.0666 
G01 X-21.5095 Y38.1464 
G01 X-21.3768 Y38.2014 
G01 X-21.2358 Y38.2294 
G01 X-19.7842 Y38.2294 
G01 X-19.6432 Y38.2014 
G01 X-19.5105 Y38.1464 
G01 X-19.3910 Y38.0666 
G01 X-19.2894 Y37.9650 
G01 X-19.2096 Y37.8455 
G01 X-19.1546 Y37.7128 
G01 X-19.1266 Y37.5718 
G01 X-19.1266 Y37.4282 
G01 X-19.1546 Y37.2872 
G01 X-19.2096 Y37.1545 
G01 X-19.2894 Y37.0350 
G00 Z2.5400  
G00 X-19.2894 Y39.5750 
G01 Z-0.0600 F90    
G01 X-19.3910 Y39.4734 F300   
G01 X-19.5105 Y39.3936 
G01 X-19.6432 Y39.3386 
G01 X-19.7842 Y39.3106 
G01 X-21.2358 Y39.3106 
G01 X-21.3768 Y39.3386 
G01 X-21.5095 Y39.3936 
G01 X-21.6290 Y39.4734 
G01 X-21.7306 Y39.5750 
G01 X-21.8104 Y39.6945 
G01 X-21.8654 Y39.8272 
G01 X-21.8934 Y39.9682 
G01 X-21.8934 Y40.1118 
G01 X-21.8654 Y40.2528 
G01 X-21.8104 Y40.3855 
G01 X-21.7306 Y40.5050 
G01 X-21.6290 Y40.6066 
G01 X-21.5095 Y40.6864 
G01 X-21.3768 Y40.7414 
G01 X-21.2358 Y40.7694 
G01 X-19.7842 Y40.7694 
G01 X-19.6432 Y40.7414 
G01 X-19.5105 Y40.6864 
G01 X-19.3910 Y40.6066 
G01 X-19.2894 Y40.5050 
G01 X-19.2096 Y40.3855 
G01 X-19.1546 Y40.2528 
G01 X-19.1266 Y40.1118 
G01 X-19.1266 Y39.9682 
G01 X-19.1546 Y39.8272 
G01 X-19.2096 Y39.6945 
G01 X-19.2894 Y39.5750 
G00 Z2.5400  
G00 X-19.2894 Y42.1150 
G01 Z-0.0600 F90    
G01 X-19.3910 Y42.0134 F300   
G01 X-19.5105 Y41.9336 
G01 X-19.6432 Y41.8786 
G01 X-19.7842 Y41.8506 
G01 X-21.2358 Y41.8506 
G01 X-21.3768 Y41.8786 
G01 X-21.5095 Y41.9336 
G01 X-21.6290 Y42.0134 
G01 X-21.7306 Y42.1150 
G01 X-21.8104 Y42.2345 
G01 X-21.8654 Y42.3672 
G01 X-21.8934 Y42.5082 
G01 X-21.8934 Y42.6518 
G01 X-21.8654 Y42.7928 
G01 X-21.8104 Y42.9255 
G01 X-21.7306 Y43.0450 
G01 X-21.6290 Y43.1466 
G01 X-21.5095 Y43.2264 
G01 X-21.3768 Y43.2814 
G01 X-21.2358 Y43.3094 
G01 X-19.7842 Y43.3094 
G01 X-19.6432 Y43.2814 
G01 X-19.5105 Y43.2264 
G01 X-19.3910 Y43.1466 
G01 X-19.2894 Y43.0450 
G01 X-19.2096 Y42.9255 
G01 X-19.1546 Y42.7928 
G01 X-19.1266 Y42.6518 
G01 X-19.1266 Y42.5082 
G01 X-19.1546 Y42.3672 
G01 X-19.2096 Y42.2345 
G01 X-19.2894 Y42.1150 
G00 Z2.5400  
G00 X-19.2894 Y44.6550 
G01 Z-0.0600 F90    
G01 X-19.3910 Y44.5534 F300   
G01 X-19.5105 Y44.4736 
G01 X-19.6432 Y44.4186 
G01 X-19.7842 Y44.3906 
G01 X-21.0039 Y44.3906 
G01 X-28.7536 Y36.6409 
G01 X-28.7536 Y14.5449 
G01 X-28.7847 Y14.4288 
G01 X-28.8448 Y14.3248 
G01 X-32.5636 Y10.6059 
G01 X-32.5636 Y8.8299  
G01 X-32.5947 Y8.7138  
G01 X-32.6548 Y8.6098  
G01 X-33.9248 Y7.3398  
G01 X-34.0098 Y7.2548  
G01 X-34.1138 Y7.1947  
G01 X-34.2299 Y7.1636  
G01 X-45.1451 Y7.1636  
G01 X-45.2612 Y7.1947  
G01 X-45.3652 Y7.2548  
G01 X-53.0702 Y14.9598 
G01 X-53.1303 Y15.0638 
G01 X-53.1614 Y15.1799 
G01 X-53.1614 Y36.2551 
G01 X-53.1303 Y36.3712 
G01 X-53.0702 Y36.4752 
G01 X-51.8002 Y37.7452 
G01 X-51.7152 Y37.8302 
G01 X-51.6112 Y37.8903 
G01 X-51.4951 Y37.9214 
G01 X-51.4346 Y37.9214 
G01 X-51.4107 Y37.9792 
G01 X-51.3254 Y38.1068 
G01 X-51.2168 Y38.2154 
G01 X-51.0892 Y38.3007 
G01 X-50.9473 Y38.3594 
G01 X-50.7968 Y38.3894 
G01 X-50.6432 Y38.3894 
G01 X-50.4927 Y38.3594 
G01 X-50.3508 Y38.3007 
G01 X-50.2232 Y38.2154 
G01 X-50.1146 Y38.1068 
G01 X-50.0293 Y37.9792 
G01 X-49.9706 Y37.8373 
G01 X-49.9406 Y37.6868 
G01 X-49.9406 Y37.5332 
G01 X-49.9706 Y37.3827 
G01 X-50.0293 Y37.2408 
G01 X-50.1146 Y37.1132 
G01 X-50.2232 Y37.0046 
G01 X-50.3508 Y36.9193 
G01 X-50.4927 Y36.8606 
G01 X-50.6432 Y36.8306 
G01 X-50.7968 Y36.8306 
G01 X-50.9473 Y36.8606 
G01 X-51.0892 Y36.9193 
G01 X-51.2168 Y37.0046 
G01 X-51.2208 Y37.0086 
G01 X-51.2460 Y37.0086 
G01 X-52.2486 Y36.0059 
G01 X-52.2486 Y15.4290 
G01 X-44.8959 Y8.0764  
G01 X-34.4790 Y8.0764  
G01 X-33.4764 Y9.0790  
G01 X-33.4764 Y10.8551 
G01 X-33.4453 Y10.9712 
G01 X-33.3852 Y11.0752 
G01 X-33.3002 Y11.1602 
G01 X-29.6664 Y14.7940 
G01 X-29.6664 Y36.8901 
G01 X-29.6353 Y37.0062 
G01 X-29.5752 Y37.1102 
G01 X-29.4902 Y37.1952 
G01 X-21.8398 Y44.8456 
G01 X-21.8654 Y44.9072 
G01 X-21.8934 Y45.0482 
G01 X-21.8934 Y45.1918 
G01 X-21.8654 Y45.3328 
G01 X-21.8104 Y45.4655 
G01 X-21.7306 Y45.5850 
G01 X-21.6290 Y45.6866 
G01 X-21.5095 Y45.7664 
G01 X-21.3768 Y45.8214 
G01 X-21.2358 Y45.8494 
G01 X-19.7842 Y45.8494 
G01 X-19.6432 Y45.8214 
G01 X-19.5105 Y45.7664 
G01 X-19.3910 Y45.6866 
G01 X-19.2894 Y45.5850 
G01 X-19.2096 Y45.4655 
G01 X-19.1546 Y45.3328 
G01 X-19.1266 Y45.1918 
G01 X-19.1266 Y45.0482 
G01 X-19.1546 Y44.9072 
G01 X-19.2096 Y44.7745 
G01 X-19.2894 Y44.6550 
G00 Z2.5400  
G00 X-17.5102 Y46.7098 
G01 Z-0.0600 F90    
G01 X-17.5703 Y46.8138 F300   
G01 X-17.6014 Y46.9299 
G01 X-17.6014 Y63.6786 
G01 X-23.8470 Y63.6786 
G01 X-23.8438 Y63.6625 
G01 X-23.8438 Y63.5175 
G01 X-23.8721 Y63.3754 
G01 X-23.9275 Y63.2415 
G01 X-24.0081 Y63.1210 
G01 X-24.1106 Y63.0185 
G01 X-24.2311 Y62.9379 
G01 X-24.3650 Y62.8825 
G01 X-24.5071 Y62.8542 
G01 X-25.9729 Y62.8542 
G01 X-26.1150 Y62.8825 
G01 X-26.2489 Y62.9379 
G01 X-26.3694 Y63.0185 
G01 X-26.4719 Y63.1210 
G01 X-26.5525 Y63.2415 
G01 X-26.6079 Y63.3754 
G01 X-26.6362 Y63.5175 
G01 X-26.6362 Y63.6625 
G01 X-26.6079 Y63.8046 
G01 X-26.5525 Y63.9385 
G01 X-26.4719 Y64.0590 
G01 X-26.3694 Y64.1615 
G01 X-26.2489 Y64.2421 
G01 X-26.1150 Y64.2975 
G01 X-25.9729 Y64.3258 
G01 X-25.2041 Y64.3258 
G01 X-25.1381 Y64.4015 
G01 X-25.1302 Y64.4152 
G01 X-25.0988 Y64.4467 
G01 X-25.0696 Y64.4802 
G01 X-25.0564 Y64.4890 
G01 X-25.0452 Y64.5002 
G01 X-25.0067 Y64.5224 
G01 X-24.9699 Y64.5472 
G01 X-24.9549 Y64.5524 
G01 X-24.9412 Y64.5603 
G01 X-24.8982 Y64.5718 
G01 X-24.8562 Y64.5862 
G01 X-24.8404 Y64.5873 
G01 X-24.8251 Y64.5914 
G01 X-24.7807 Y64.5914 
G01 X-24.7363 Y64.5944 
G01 X-24.7207 Y64.5914 
G01 X-17.3340 Y64.5914 
G01 X-6.7139 Y75.2116 
G01 X-6.6715 Y75.2539 
G01 X-6.6302 Y75.2952 
G01 X-6.6273 Y75.2975 
G01 X-6.5767 Y75.3261 
G01 X-6.5384 Y75.3483 
G01 X-6.5007 Y75.4392 
G01 X-6.4154 Y75.5668 
G01 X-6.3068 Y75.6754 
G01 X-6.1792 Y75.7607 
G01 X-6.0373 Y75.8194 
G01 X-5.8868 Y75.8494 
G01 X-5.7332 Y75.8494 
G01 X-5.5827 Y75.8194 
G01 X-5.4408 Y75.7607 
G01 X-5.3132 Y75.6754 
G01 X-5.2046 Y75.5668 
G01 X-5.1193 Y75.4392 
G01 X-5.0606 Y75.2973 
G01 X-5.0306 Y75.1468 
G01 X-5.0306 Y74.9932 
G01 X-5.0606 Y74.8427 
G01 X-5.1193 Y74.7008 
G01 X-5.2046 Y74.5732 
G01 X-5.3132 Y74.4646 
G01 X-5.4408 Y74.3793 
G01 X-5.5827 Y74.3206 
G01 X-5.7332 Y74.2906 
G01 X-5.8868 Y74.2906 
G01 X-6.0373 Y74.3206 
G01 X-6.1792 Y74.3793 
G01 X-6.2248 Y74.4098 
G01 X-16.6886 Y63.9460 
G01 X-16.6886 Y47.1790 
G01 X-10.5148 Y41.0052 
G01 X-10.4298 Y40.9202 
G01 X-10.3697 Y40.8162 
G01 X-10.3386 Y40.7001 
G01 X-10.3386 Y39.2624 
G01 X-10.2832 Y39.2254 
G01 X-10.1746 Y39.1168 
G01 X-10.0893 Y38.9892 
G01 X-10.0306 Y38.8473 
G01 X-10.0006 Y38.6968 
G01 X-10.0006 Y38.5432 
G01 X-10.0306 Y38.3927 
G01 X-10.0893 Y38.2508 
G01 X-10.1746 Y38.1232 
G01 X-10.2832 Y38.0146 
G01 X-10.4108 Y37.9293 
G01 X-10.5527 Y37.8706 
G01 X-10.7032 Y37.8406 
G01 X-10.8568 Y37.8406 
G01 X-11.0073 Y37.8706 
G01 X-11.1492 Y37.9293 
G01 X-11.2768 Y38.0146 
G01 X-11.3854 Y38.1232 
G01 X-11.4707 Y38.2508 
G01 X-11.5294 Y38.3927 
G01 X-11.5594 Y38.5432 
G01 X-11.5594 Y38.6968 
G01 X-11.5294 Y38.8473 
G01 X-11.4707 Y38.9892 
G01 X-11.3854 Y39.1168 
G01 X-11.2768 Y39.2254 
G01 X-11.2514 Y39.2424 
G01 X-11.2514 Y40.4509 
G01 X-17.5102 Y46.7098 
G00 Z2.5400  
G00 X-13.3854 Y39.1168 
G01 Z-0.0600 F90    
G01 X-13.2768 Y39.2254 F300   
G01 X-13.1492 Y39.3107 
G01 X-13.0073 Y39.3694 
G01 X-12.8568 Y39.3994 
G01 X-12.7032 Y39.3994 
G01 X-12.5527 Y39.3694 
G01 X-12.4108 Y39.3107 
G01 X-12.2832 Y39.2254 
G01 X-12.1746 Y39.1168 
G01 X-12.0893 Y38.9892 
G01 X-12.0306 Y38.8473 
G01 X-12.0006 Y38.6968 
G01 X-12.0006 Y38.5432 
G01 X-12.0306 Y38.3927 
G01 X-12.0893 Y38.2508 
G01 X-12.1746 Y38.1232 
G01 X-12.2832 Y38.0146 
G01 X-12.4108 Y37.9293 
G01 X-12.5527 Y37.8706 
G01 X-12.7032 Y37.8406 
G01 X-12.8568 Y37.8406 
G01 X-13.0073 Y37.8706 
G01 X-13.1492 Y37.9293 
G01 X-13.2768 Y38.0146 
G01 X-13.3854 Y38.1232 
G01 X-13.4707 Y38.2508 
G01 X-13.5294 Y38.3927 
G01 X-13.5594 Y38.5432 
G01 X-13.5594 Y38.6968 
G01 X-13.5294 Y38.8473 
G01 X-13.4707 Y38.9892 
G01 X-13.3854 Y39.1168 
G00 Z2.5400  
G00 X-13.3854 Y37.1168 
G01 Z-0.0600 F90    
G01 X-13.2768 Y37.2254 F300   
G01 X-13.1492 Y37.3107 
G01 X-13.0073 Y37.3694 
G01 X-12.8568 Y37.3994 
G01 X-12.7032 Y37.3994 
G01 X-12.5527 Y37.3694 
G01 X-12.4108 Y37.3107 
G01 X-12.2832 Y37.2254 
G01 X-12.1746 Y37.1168 
G01 X-12.0893 Y36.9892 
G01 X-12.0306 Y36.8473 
G01 X-12.0006 Y36.6968 
G01 X-12.0006 Y36.5432 
G01 X-12.0306 Y36.3927 
G01 X-12.0893 Y36.2508 
G01 X-12.1746 Y36.1232 
G01 X-12.2832 Y36.0146 
G01 X-12.4108 Y35.9293 
G01 X-12.5527 Y35.8706 
G01 X-12.7032 Y35.8406 
G01 X-12.8568 Y35.8406 
G01 X-13.0073 Y35.8706 
G01 X-13.1492 Y35.9293 
G01 X-13.2768 Y36.0146 
G01 X-13.3854 Y36.1232 
G01 X-13.4707 Y36.2508 
G01 X-13.5294 Y36.3927 
G01 X-13.5594 Y36.5432 
G01 X-13.5594 Y36.6968 
G01 X-13.5294 Y36.8473 
G01 X-13.4707 Y36.9892 
G01 X-13.3854 Y37.1168 
G00 Z2.5400  
G00 X-13.3854 Y35.1168 
G01 Z-0.0600 F90    
G01 X-13.2768 Y35.2254 F300   
G01 X-13.1492 Y35.3107 
G01 X-13.0073 Y35.3694 
G01 X-12.8568 Y35.3994 
G01 X-12.7032 Y35.3994 
G01 X-12.5527 Y35.3694 
G01 X-12.4108 Y35.3107 
G01 X-12.2832 Y35.2254 
G01 X-12.1746 Y35.1168 
G01 X-12.0893 Y34.9892 
G01 X-12.0306 Y34.8473 
G01 X-12.0006 Y34.6968 
G01 X-12.0006 Y34.5432 
G01 X-12.0306 Y34.3927 
G01 X-12.0893 Y34.2508 
G01 X-12.1746 Y34.1232 
G01 X-12.2832 Y34.0146 
G01 X-12.4108 Y33.9293 
G01 X-12.5527 Y33.8706 
G01 X-12.7032 Y33.8406 
G01 X-12.8568 Y33.8406 
G01 X-13.0073 Y33.8706 
G01 X-13.1492 Y33.9293 
G01 X-13.2768 Y34.0146 
G01 X-13.3854 Y34.1232 
G01 X-13.4707 Y34.2508 
G01 X-13.5294 Y34.3927 
G01 X-13.5594 Y34.5432 
G01 X-13.5594 Y34.6968 
G01 X-13.5294 Y34.8473 
G01 X-13.4707 Y34.9892 
G01 X-13.3854 Y35.1168 
G00 Z2.5400  
G00 X-13.3854 Y33.1168 
G01 Z-0.0600 F90    
G01 X-13.2768 Y33.2254 F300   
G01 X-13.1492 Y33.3107 
G01 X-13.0073 Y33.3694 
G01 X-12.8568 Y33.3994 
G01 X-12.7032 Y33.3994 
G01 X-12.5527 Y33.3694 
G01 X-12.4108 Y33.3107 
G01 X-12.2832 Y33.2254 
G01 X-12.1746 Y33.1168 
G01 X-12.0893 Y32.9892 
G01 X-12.0306 Y32.8473 
G01 X-12.0006 Y32.6968 
G01 X-12.0006 Y32.5432 
G01 X-12.0306 Y32.3927 
G01 X-12.0893 Y32.2508 
G01 X-12.1746 Y32.1232 
G01 X-12.2832 Y32.0146 
G01 X-12.4108 Y31.9293 
G01 X-12.5527 Y31.8706 
G01 X-12.7032 Y31.8406 
G01 X-12.8568 Y31.8406 
G01 X-13.0073 Y31.8706 
G01 X-13.1492 Y31.9293 
G01 X-13.2768 Y32.0146 
G01 X-13.3854 Y32.1232 
G01 X-13.4707 Y32.2508 
G01 X-13.5294 Y32.3927 
G01 X-13.5594 Y32.5432 
G01 X-13.5594 Y32.6968 
G01 X-13.5294 Y32.8473 
G01 X-13.4707 Y32.9892 
G01 X-13.3854 Y33.1168 
G00 Z2.5400  
G00 X-13.3854 Y31.1168 
G01 Z-0.0600 F90    
G01 X-13.2768 Y31.2254 F300   
G01 X-13.1492 Y31.3107 
G01 X-13.0073 Y31.3694 
G01 X-12.8568 Y31.3994 
G01 X-12.7032 Y31.3994 
G01 X-12.5527 Y31.3694 
G01 X-12.4108 Y31.3107 
G01 X-12.2832 Y31.2254 
G01 X-12.1746 Y31.1168 
G01 X-12.0893 Y30.9892 
G01 X-12.0306 Y30.8473 
G01 X-12.0006 Y30.6968 
G01 X-12.0006 Y30.5432 
G01 X-12.0306 Y30.3927 
G01 X-12.0893 Y30.2508 
G01 X-12.1746 Y30.1232 
G01 X-12.2832 Y30.0146 
G01 X-12.4108 Y29.9293 
G01 X-12.5527 Y29.8706 
G01 X-12.7032 Y29.8406 
G01 X-12.8568 Y29.8406 
G01 X-13.0073 Y29.8706 
G01 X-13.1492 Y29.9293 
G01 X-13.2768 Y30.0146 
G01 X-13.3854 Y30.1232 
G01 X-13.4707 Y30.2508 
G01 X-13.5294 Y30.3927 
G01 X-13.5594 Y30.5432 
G01 X-13.5594 Y30.6968 
G01 X-13.5294 Y30.8473 
G01 X-13.4707 Y30.9892 
G01 X-13.3854 Y31.1168 
G00 Z2.5400  
G00 X-13.3854 Y29.1168 
G01 Z-0.0600 F90    
G01 X-13.2768 Y29.2254 F300   
G01 X-13.1492 Y29.3107 
G01 X-13.0073 Y29.3694 
G01 X-12.8568 Y29.3994 
G01 X-12.7032 Y29.3994 
G01 X-12.5527 Y29.3694 
G01 X-12.4108 Y29.3107 
G01 X-12.2832 Y29.2254 
G01 X-12.1746 Y29.1168 
G01 X-12.0893 Y28.9892 
G01 X-12.0306 Y28.8473 
G01 X-12.0006 Y28.6968 
G01 X-12.0006 Y28.5432 
G01 X-12.0306 Y28.3927 
G01 X-12.0893 Y28.2508 
G01 X-12.1746 Y28.1232 
G01 X-12.2832 Y28.0146 
G01 X-12.4108 Y27.9293 
G01 X-12.5527 Y27.8706 
G01 X-12.7032 Y27.8406 
G01 X-12.8568 Y27.8406 
G01 X-13.0073 Y27.8706 
G01 X-13.1492 Y27.9293 
G01 X-13.2768 Y28.0146 
G01 X-13.3854 Y28.1232 
G01 X-13.4707 Y28.2508 
G01 X-13.5294 Y28.3927 
G01 X-13.5594 Y28.5432 
G01 X-13.5594 Y28.6968 
G01 X-13.5294 Y28.8473 
G01 X-13.4707 Y28.9892 
G01 X-13.3854 Y29.1168 
G00 Z2.5400  
G00 X-13.3854 Y27.1168 
G01 Z-0.0600 F90    
G01 X-13.2768 Y27.2254 F300   
G01 X-13.1492 Y27.3107 
G01 X-13.0073 Y27.3694 
G01 X-12.8568 Y27.3994 
G01 X-12.7032 Y27.3994 
G01 X-12.5527 Y27.3694 
G01 X-12.4108 Y27.3107 
G01 X-12.2832 Y27.2254 
G01 X-12.1746 Y27.1168 
G01 X-12.0893 Y26.9892 
G01 X-12.0306 Y26.8473 
G01 X-12.0006 Y26.6968 
G01 X-12.0006 Y26.5432 
G01 X-12.0306 Y26.3927 
G01 X-12.0893 Y26.2508 
G01 X-12.1746 Y26.1232 
G01 X-12.2832 Y26.0146 
G01 X-12.4108 Y25.9293 
G01 X-12.5527 Y25.8706 
G01 X-12.7032 Y25.8406 
G01 X-12.8568 Y25.8406 
G01 X-13.0073 Y25.8706 
G01 X-13.1492 Y25.9293 
G01 X-13.2768 Y26.0146 
G01 X-13.3854 Y26.1232 
G01 X-13.4707 Y26.2508 
G01 X-13.5294 Y26.3927 
G01 X-13.5594 Y26.5432 
G01 X-13.5594 Y26.6968 
G01 X-13.5294 Y26.8473 
G01 X-13.4707 Y26.9892 
G01 X-13.3854 Y27.1168 
G00 Z2.5400  
G00 X-13.3854 Y25.1168 
G01 Z-0.0600 F90    
G01 X-13.2768 Y25.2254 F300   
G01 X-13.1492 Y25.3107 
G01 X-13.0073 Y25.3694 
G01 X-12.8568 Y25.3994 
G01 X-12.7032 Y25.3994 
G01 X-12.5527 Y25.3694 
G01 X-12.4108 Y25.3107 
G01 X-12.2832 Y25.2254 
G01 X-12.1746 Y25.1168 
G01 X-12.0893 Y24.9892 
G01 X-12.0306 Y24.8473 
G01 X-12.0006 Y24.6968 
G01 X-12.0006 Y24.5432 
G01 X-12.0306 Y24.3927 
G01 X-12.0893 Y24.2508 
G01 X-12.1746 Y24.1232 
G01 X-12.2832 Y24.0146 
G01 X-12.4108 Y23.9293 
G01 X-12.5527 Y23.8706 
G01 X-12.7032 Y23.8406 
G01 X-12.8568 Y23.8406 
G01 X-13.0073 Y23.8706 
G01 X-13.1492 Y23.9293 
G01 X-13.2768 Y24.0146 
G01 X-13.3854 Y24.1232 
G01 X-13.4707 Y24.2508 
G01 X-13.5294 Y24.3927 
G01 X-13.5594 Y24.5432 
G01 X-13.5594 Y24.6968 
G01 X-13.5294 Y24.8473 
G01 X-13.4707 Y24.9892 
G01 X-13.3854 Y25.1168 
G00 Z2.5400  
G00 X-11.3854 Y25.1168 
G01 Z-0.0600 F90    
G01 X-11.2768 Y25.2254 F300   
G01 X-11.1492 Y25.3107 
G01 X-11.0073 Y25.3694 
G01 X-10.8568 Y25.3994 
G01 X-10.7032 Y25.3994 
G01 X-10.5527 Y25.3694 
G01 X-10.4108 Y25.3107 
G01 X-10.2832 Y25.2254 
G01 X-10.1746 Y25.1168 
G01 X-10.0893 Y24.9892 
G01 X-10.0306 Y24.8473 
G01 X-10.0006 Y24.6968 
G01 X-10.0006 Y24.5432 
G01 X-10.0306 Y24.3927 
G01 X-10.0893 Y24.2508 
G01 X-10.1746 Y24.1232 
G01 X-10.2832 Y24.0146 
G01 X-10.4108 Y23.9293 
G01 X-10.5527 Y23.8706 
G01 X-10.7032 Y23.8406 
G01 X-10.8568 Y23.8406 
G01 X-11.0073 Y23.8706 
G01 X-11.1492 Y23.9293 
G01 X-11.2768 Y24.0146 
G01 X-11.3854 Y24.1232 
G01 X-11.4707 Y24.2508 
G01 X-11.5294 Y24.3927 
G01 X-11.5594 Y24.5432 
G01 X-11.5594 Y24.6968 
G01 X-11.5294 Y24.8473 
G01 X-11.4707 Y24.9892 
G01 X-11.3854 Y25.1168 
G00 Z2.5400  
G00 X-11.2768 Y26.0146 
G01 Z-0.0600 F90    
G01 X-11.3854 Y26.1232 F300   
G01 X-11.4707 Y26.2508 
G01 X-11.5294 Y26.3927 
G01 X-11.5594 Y26.5432 
G01 X-11.5594 Y26.6968 
G01 X-11.5294 Y26.8473 
G01 X-11.4707 Y26.9892 
G01 X-11.3854 Y27.1168 
G01 X-11.2768 Y27.2254 
G01 X-11.1492 Y27.3107 
G01 X-11.0073 Y27.3694 
G01 X-10.8568 Y27.3994 
G01 X-10.7032 Y27.3994 
G01 X-10.5527 Y27.3694 
G01 X-10.4108 Y27.3107 
G01 X-10.2832 Y27.2254 
G01 X-10.1746 Y27.1168 
G01 X-10.0893 Y26.9892 
G01 X-10.0306 Y26.8473 
G01 X-10.0006 Y26.6968 
G01 X-10.0006 Y26.5432 
G01 X-10.0306 Y26.3927 
G01 X-10.0893 Y26.2508 
G01 X-10.1746 Y26.1232 
G01 X-10.2832 Y26.0146 
G01 X-10.4108 Y25.9293 
G01 X-10.5527 Y25.8706 
G01 X-10.7032 Y25.8406 
G01 X-10.8568 Y25.8406 
G01 X-11.0073 Y25.8706 
G01 X-11.1492 Y25.9293 
G01 X-11.2768 Y26.0146 
G00 Z2.5400  
G00 X-11.2768 Y28.0146 
G01 Z-0.0600 F90    
G01 X-11.3854 Y28.1232 F300   
G01 X-11.4707 Y28.2508 
G01 X-11.5294 Y28.3927 
G01 X-11.5594 Y28.5432 
G01 X-11.5594 Y28.6968 
G01 X-11.5294 Y28.8473 
G01 X-11.4707 Y28.9892 
G01 X-11.3854 Y29.1168 
G01 X-11.2768 Y29.2254 
G01 X-11.1492 Y29.3107 
G01 X-11.0073 Y29.3694 
G01 X-10.8568 Y29.3994 
G01 X-10.7032 Y29.3994 
G01 X-10.5527 Y29.3694 
G01 X-10.4108 Y29.3107 
G01 X-10.2832 Y29.2254 
G01 X-10.1746 Y29.1168 
G01 X-10.0893 Y28.9892 
G01 X-10.0306 Y28.8473 
G01 X-10.0006 Y28.6968 
G01 X-10.0006 Y28.5432 
G01 X-10.0306 Y28.3927 
G01 X-10.0893 Y28.2508 
G01 X-10.1746 Y28.1232 
G01 X-10.2832 Y28.0146 
G01 X-10.4108 Y27.9293 
G01 X-10.5527 Y27.8706 
G01 X-10.7032 Y27.8406 
G01 X-10.8568 Y27.8406 
G01 X-11.0073 Y27.8706 
G01 X-11.1492 Y27.9293 
G01 X-11.2768 Y28.0146 
G00 Z2.5400  
G00 X-11.2768 Y30.0146 
G01 Z-0.0600 F90    
G01 X-11.3854 Y30.1232 F300   
G01 X-11.4707 Y30.2508 
G01 X-11.5294 Y30.3927 
G01 X-11.5594 Y30.5432 
G01 X-11.5594 Y30.6968 
G01 X-11.5294 Y30.8473 
G01 X-11.4707 Y30.9892 
G01 X-11.3854 Y31.1168 
G01 X-11.2768 Y31.2254 
G01 X-11.1492 Y31.3107 
G01 X-11.0073 Y31.3694 
G01 X-10.8568 Y31.3994 
G01 X-10.7032 Y31.3994 
G01 X-10.5527 Y31.3694 
G01 X-10.4108 Y31.3107 
G01 X-10.2832 Y31.2254 
G01 X-10.1746 Y31.1168 
G01 X-10.0893 Y30.9892 
G01 X-10.0306 Y30.8473 
G01 X-10.0006 Y30.6968 
G01 X-10.0006 Y30.5432 
G01 X-10.0306 Y30.3927 
G01 X-10.0893 Y30.2508 
G01 X-10.1746 Y30.1232 
G01 X-10.2832 Y30.0146 
G01 X-10.4108 Y29.9293 
G01 X-10.5527 Y29.8706 
G01 X-10.7032 Y29.8406 
G01 X-10.8568 Y29.8406 
G01 X-11.0073 Y29.8706 
G01 X-11.1492 Y29.9293 
G01 X-11.2768 Y30.0146 
G00 Z2.5400  
G00 X-11.2768 Y32.0146 
G01 Z-0.0600 F90    
G01 X-11.3854 Y32.1232 F300   
G01 X-11.4707 Y32.2508 
G01 X-11.5294 Y32.3927 
G01 X-11.5594 Y32.5432 
G01 X-11.5594 Y32.6968 
G01 X-11.5294 Y32.8473 
G01 X-11.4707 Y32.9892 
G01 X-11.3854 Y33.1168 
G01 X-11.2768 Y33.2254 
G01 X-11.1492 Y33.3107 
G01 X-11.0073 Y33.3694 
G01 X-10.8568 Y33.3994 
G01 X-10.7032 Y33.3994 
G01 X-10.5527 Y33.3694 
G01 X-10.4108 Y33.3107 
G01 X-10.2832 Y33.2254 
G01 X-10.1746 Y33.1168 
G01 X-10.0893 Y32.9892 
G01 X-10.0306 Y32.8473 
G01 X-10.0006 Y32.6968 
G01 X-10.0006 Y32.5432 
G01 X-10.0306 Y32.3927 
G01 X-10.0893 Y32.2508 
G01 X-10.1746 Y32.1232 
G01 X-10.2832 Y32.0146 
G01 X-10.4108 Y31.9293 
G01 X-10.5527 Y31.8706 
G01 X-10.7032 Y31.8406 
G01 X-10.8568 Y31.8406 
G01 X-11.0073 Y31.8706 
G01 X-11.1492 Y31.9293 
G01 X-11.2768 Y32.0146 
G00 Z2.5400  
G00 X-11.2768 Y34.0146 
G01 Z-0.0600 F90    
G01 X-11.3854 Y34.1232 F300   
G01 X-11.4707 Y34.2508 
G01 X-11.5294 Y34.3927 
G01 X-11.5594 Y34.5432 
G01 X-11.5594 Y34.6968 
G01 X-11.5294 Y34.8473 
G01 X-11.4707 Y34.9892 
G01 X-11.3854 Y35.1168 
G01 X-11.2768 Y35.2254 
G01 X-11.1492 Y35.3107 
G01 X-11.0073 Y35.3694 
G01 X-10.8568 Y35.3994 
G01 X-10.7032 Y35.3994 
G01 X-10.5527 Y35.3694 
G01 X-10.4108 Y35.3107 
G01 X-10.2832 Y35.2254 
G01 X-10.1746 Y35.1168 
G01 X-10.0893 Y34.9892 
G01 X-10.0306 Y34.8473 
G01 X-10.0006 Y34.6968 
G01 X-10.0006 Y34.5432 
G01 X-10.0306 Y34.3927 
G01 X-10.0893 Y34.2508 
G01 X-10.1746 Y34.1232 
G01 X-10.2832 Y34.0146 
G01 X-10.4108 Y33.9293 
G01 X-10.5527 Y33.8706 
G01 X-10.7032 Y33.8406 
G01 X-10.8568 Y33.8406 
G01 X-11.0073 Y33.8706 
G01 X-11.1492 Y33.9293 
G01 X-11.2768 Y34.0146 
G00 Z2.5400  
G00 X-11.2768 Y36.0146 
G01 Z-0.0600 F90    
G01 X-11.3854 Y36.1232 F300   
G01 X-11.4707 Y36.2508 
G01 X-11.5294 Y36.3927 
G01 X-11.5594 Y36.5432 
G01 X-11.5594 Y36.6968 
G01 X-11.5294 Y36.8473 
G01 X-11.4707 Y36.9892 
G01 X-11.3854 Y37.1168 
G01 X-11.2768 Y37.2254 
G01 X-11.1492 Y37.3107 
G01 X-11.0073 Y37.3694 
G01 X-10.8568 Y37.3994 
G01 X-10.7032 Y37.3994 
G01 X-10.5527 Y37.3694 
G01 X-10.4108 Y37.3107 
G01 X-10.2832 Y37.2254 
G01 X-10.1746 Y37.1168 
G01 X-10.0893 Y36.9892 
G01 X-10.0306 Y36.8473 
G01 X-10.0006 Y36.6968 
G01 X-10.0006 Y36.5432 
G01 X-10.0306 Y36.3927 
G01 X-10.0893 Y36.2508 
G01 X-10.1746 Y36.1232 
G01 X-10.2832 Y36.0146 
G01 X-10.4108 Y35.9293 
G01 X-10.5527 Y35.8706 
G01 X-10.7032 Y35.8406 
G01 X-10.8568 Y35.8406 
G01 X-11.0073 Y35.8706 
G01 X-11.1492 Y35.9293 
G01 X-11.2768 Y36.0146 
G00 Z2.5400  
G00 X-34.6310 Y35.5266 
G01 Z-0.0600 F90    
G01 X-34.5294 Y35.4250 F300   
G01 X-34.4496 Y35.3055 
G01 X-34.3946 Y35.1728 
G01 X-34.3666 Y35.0318 
G01 X-34.3666 Y34.8882 
G01 X-34.3946 Y34.7472 
G01 X-34.4496 Y34.6145 
G01 X-34.5294 Y34.4950 
G01 X-34.6310 Y34.3934 
G01 X-34.7505 Y34.3136 
G01 X-34.8832 Y34.2586 
G01 X-35.0242 Y34.2306 
G01 X-36.4758 Y34.2306 
G01 X-36.6168 Y34.2586 
G01 X-36.7495 Y34.3136 
G01 X-36.8690 Y34.3934 
G01 X-36.9706 Y34.4950 
G01 X-37.0504 Y34.6145 
G01 X-37.1054 Y34.7472 
G01 X-37.1334 Y34.8882 
G01 X-37.1334 Y35.0318 
G01 X-37.1054 Y35.1728 
G01 X-37.0504 Y35.3055 
G01 X-36.9706 Y35.4250 
G01 X-36.8690 Y35.5266 
G01 X-36.7495 Y35.6064 
G01 X-36.6168 Y35.6614 
G01 X-36.4758 Y35.6894 
G01 X-35.0242 Y35.6894 
G01 X-34.8832 Y35.6614 
G01 X-34.7505 Y35.6064 
G01 X-34.6310 Y35.5266 
G00 Z2.5400  
G00 X-34.6310 Y36.9334 
G01 Z-0.0600 F90    
G01 X-34.7505 Y36.8536 F300   
G01 X-34.8832 Y36.7986 
G01 X-35.0242 Y36.7706 
G01 X-36.4758 Y36.7706 
G01 X-36.6168 Y36.7986 
G01 X-36.7495 Y36.8536 
G01 X-36.8690 Y36.9334 
G01 X-36.9706 Y37.0350 
G01 X-37.0504 Y37.1545 
G01 X-37.1054 Y37.2872 
G01 X-37.1334 Y37.4282 
G01 X-37.1334 Y37.5718 
G01 X-37.1054 Y37.7128 
G01 X-37.0504 Y37.8455 
G01 X-36.9706 Y37.9650 
G01 X-36.8690 Y38.0666 
G01 X-36.7495 Y38.1464 
G01 X-36.6168 Y38.2014 
G01 X-36.4758 Y38.2294 
G01 X-35.0242 Y38.2294 
G01 X-34.8832 Y38.2014 
G01 X-34.7505 Y38.1464 
G01 X-34.6310 Y38.0666 
G01 X-34.5294 Y37.9650 
G01 X-34.4496 Y37.8455 
G01 X-34.3946 Y37.7128 
G01 X-34.3666 Y37.5718 
G01 X-34.3666 Y37.4282 
G01 X-34.3946 Y37.2872 
G01 X-34.4496 Y37.1545 
G01 X-34.5294 Y37.0350 
G01 X-34.6310 Y36.9334 
G00 Z2.5400  
G00 X-34.6310 Y39.4734 
G01 Z-0.0600 F90    
G01 X-34.7505 Y39.3936 F300   
G01 X-34.8832 Y39.3386 
G01 X-35.0242 Y39.3106 
G01 X-36.4758 Y39.3106 
G01 X-36.6168 Y39.3386 
G01 X-36.7495 Y39.3936 
G01 X-36.8690 Y39.4734 
G01 X-36.9706 Y39.5750 
G01 X-37.0504 Y39.6945 
G01 X-37.1054 Y39.8272 
G01 X-37.1334 Y39.9682 
G01 X-37.1334 Y40.1118 
G01 X-37.1054 Y40.2528 
G01 X-37.0504 Y40.3855 
G01 X-36.9706 Y40.5050 
G01 X-36.8690 Y40.6066 
G01 X-36.7495 Y40.6864 
G01 X-36.6168 Y40.7414 
G01 X-36.4758 Y40.7694 
G01 X-35.0242 Y40.7694 
G01 X-34.8832 Y40.7414 
G01 X-34.7505 Y40.6864 
G01 X-34.6310 Y40.6066 
G01 X-34.5294 Y40.5050 
G01 X-34.4496 Y40.3855 
G01 X-34.3946 Y40.2528 
G01 X-34.3666 Y40.1118 
G01 X-34.3666 Y39.9682 
G01 X-34.3946 Y39.8272 
G01 X-34.4496 Y39.6945 
G01 X-34.5294 Y39.5750 
G01 X-34.6310 Y39.4734 
G00 Z2.5400  
G00 X-34.6310 Y42.0134 
G01 Z-0.0600 F90    
G01 X-34.7505 Y41.9336 F300   
G01 X-34.8832 Y41.8786 
G01 X-35.0242 Y41.8506 
G01 X-36.4758 Y41.8506 
G01 X-36.6168 Y41.8786 
G01 X-36.7495 Y41.9336 
G01 X-36.8690 Y42.0134 
G01 X-36.9706 Y42.1150 
G01 X-37.0504 Y42.2345 
G01 X-37.1054 Y42.3672 
G01 X-37.1334 Y42.5082 
G01 X-37.1334 Y42.6518 
G01 X-37.1054 Y42.7928 
G01 X-37.0504 Y42.9255 
G01 X-36.9706 Y43.0450 
G01 X-36.8690 Y43.1466 
G01 X-36.7495 Y43.2264 
G01 X-36.6168 Y43.2814 
G01 X-36.4758 Y43.3094 
G01 X-35.0242 Y43.3094 
G01 X-34.8832 Y43.2814 
G01 X-34.7505 Y43.2264 
G01 X-34.6310 Y43.1466 
G01 X-34.5294 Y43.0450 
G01 X-34.4496 Y42.9255 
G01 X-34.3946 Y42.7928 
G01 X-34.3666 Y42.6518 
G01 X-34.3666 Y42.5082 
G01 X-34.3946 Y42.3672 
G01 X-34.4496 Y42.2345 
G01 X-34.5294 Y42.1150 
G01 X-34.6310 Y42.0134 
G00 Z2.5400  
G00 X-34.6310 Y44.5534 
G01 Z-0.0600 F90    
G01 X-34.7505 Y44.4736 F300   
G01 X-34.8832 Y44.4186 
G01 X-35.0242 Y44.3906 
G01 X-36.4758 Y44.3906 
G01 X-36.6168 Y44.4186 
G01 X-36.7495 Y44.4736 
G01 X-36.8690 Y44.5534 
G01 X-36.9706 Y44.6550 
G01 X-37.0504 Y44.7745 
G01 X-37.1054 Y44.9072 
G01 X-37.1334 Y45.0482 
G01 X-37.1334 Y45.1918 
G01 X-37.1054 Y45.3328 
G01 X-37.0504 Y45.4655 
G01 X-36.9706 Y45.5850 
G01 X-36.8690 Y45.6866 
G01 X-36.7495 Y45.7664 
G01 X-36.6168 Y45.8214 
G01 X-36.4758 Y45.8494 
G01 X-35.0242 Y45.8494 
G01 X-34.8832 Y45.8214 
G01 X-34.7505 Y45.7664 
G01 X-34.6310 Y45.6866 
G01 X-34.5294 Y45.5850 
G01 X-34.4496 Y45.4655 
G01 X-34.3946 Y45.3328 
G01 X-34.3666 Y45.1918 
G01 X-34.3666 Y45.0482 
G01 X-34.3946 Y44.9072 
G01 X-34.4496 Y44.7745 
G01 X-34.5294 Y44.6550 
G01 X-34.6310 Y44.5534 
G00 Z2.5400  
G00 X-33.4764 Y49.9759 
G01 Z-0.0600 F90    
G01 X-35.8402 Y52.3398 F300   
G01 X-35.9252 Y52.4248 
G01 X-35.9853 Y52.5288 
G01 X-36.0164 Y52.6449 
G01 X-36.0164 Y65.4651 
G01 X-35.9853 Y65.5812 
G01 X-35.9252 Y65.6852 
G01 X-35.8402 Y65.7702 
G01 X-35.7362 Y65.8303 
G01 X-35.6201 Y65.8614 
G01 X-35.4999 Y65.8614 
G01 X-35.3838 Y65.8303 
G01 X-35.2798 Y65.7702 
G01 X-35.1948 Y65.6852 
G01 X-35.1347 Y65.5812 
G01 X-35.1036 Y65.4651 
G01 X-35.1036 Y52.8940 
G01 X-32.6548 Y50.4452 
G01 X-32.5947 Y50.3412 
G01 X-32.5636 Y50.2251 
G01 X-32.5636 Y29.1499 
G01 X-32.5947 Y29.0338 
G01 X-32.6548 Y28.9298 
G01 X-32.7398 Y28.8448 
G01 X-34.0098 Y27.5748 
G01 X-34.1138 Y27.5147 
G01 X-34.2299 Y27.4836 
G01 X-34.3809 Y27.4836 
G01 X-34.3666 Y27.4118 
G01 X-34.3666 Y27.2682 
G01 X-34.3946 Y27.1272 
G01 X-34.4496 Y26.9945 
G01 X-34.5294 Y26.8750 
G01 X-34.6310 Y26.7734 
G01 X-34.7505 Y26.6936 
G01 X-34.8832 Y26.6386 
G01 X-35.0242 Y26.6106 
G01 X-36.4758 Y26.6106 
G01 X-36.6168 Y26.6386 
G01 X-36.7495 Y26.6936 
G01 X-36.8690 Y26.7734 
G01 X-36.9706 Y26.8750 
G01 X-37.0504 Y26.9945 
G01 X-37.1054 Y27.1272 
G01 X-37.1334 Y27.2682 
G01 X-37.1334 Y27.4118 
G01 X-37.1054 Y27.5528 
G01 X-37.0504 Y27.6855 
G01 X-36.9706 Y27.8050 
G01 X-36.8690 Y27.9066 
G01 X-36.7495 Y27.9864 
G01 X-36.6168 Y28.0414 
G01 X-36.4758 Y28.0694 
G01 X-35.9978 Y28.0694 
G01 X-35.9853 Y28.1162 
G01 X-35.9801 Y28.1252 
G01 X-35.9770 Y28.1351 
G01 X-35.9501 Y28.1771 
G01 X-35.9252 Y28.2202 
G01 X-35.9179 Y28.2276 
G01 X-35.9123 Y28.2363 
G01 X-35.8755 Y28.2700 
G01 X-35.8402 Y28.3052 
G01 X-35.8312 Y28.3104 
G01 X-35.8236 Y28.3174 
G01 X-35.7793 Y28.3404 
G01 X-35.7362 Y28.3653 
G01 X-35.7261 Y28.3680 
G01 X-35.7169 Y28.3728 
G01 X-35.6682 Y28.3835 
G01 X-35.6201 Y28.3964 
G01 X-35.6097 Y28.3964 
G01 X-35.5996 Y28.3986 
G01 X-35.5497 Y28.3964 
G01 X-34.4790 Y28.3964 
G01 X-33.4764 Y29.3990 
G01 X-33.4764 Y49.9759 
G00 Z2.5400  
G00 X-33.5929 Y52.6942 
G01 Z-0.0600 F90    
G01 X-33.7350 Y52.7225 F300   
G01 X-33.8689 Y52.7779 
G01 X-33.9894 Y52.8585 
G01 X-34.0919 Y52.9610 
G01 X-34.1725 Y53.0815 
G01 X-34.2279 Y53.2154 
G01 X-34.2562 Y53.3575 
G01 X-34.2562 Y53.5025 
G01 X-34.2279 Y53.6446 
G01 X-34.1725 Y53.7785 
G01 X-34.0919 Y53.8990 
G01 X-33.9894 Y54.0015 
G01 X-33.8689 Y54.0821 
G01 X-33.7350 Y54.1375 
G01 X-33.5929 Y54.1658 
G01 X-32.1271 Y54.1658 
G01 X-31.9850 Y54.1375 
G01 X-31.8511 Y54.0821 
G01 X-31.7306 Y54.0015 
G01 X-31.6281 Y53.8990 
G01 X-31.5475 Y53.7785 
G01 X-31.4921 Y53.6446 
G01 X-31.4638 Y53.5025 
G01 X-31.4638 Y53.3575 
G01 X-31.4921 Y53.2154 
G01 X-31.5475 Y53.0815 
G01 X-31.6281 Y52.9610 
G01 X-31.7306 Y52.8585 
G01 X-31.8511 Y52.7779 
G01 X-31.9850 Y52.7225 
G01 X-32.1271 Y52.6942 
G01 X-33.5929 Y52.6942 
G00 Z2.5400  
G00 X-33.5929 Y55.2342 
G01 Z-0.0600 F90    
G01 X-33.7350 Y55.2625 F300   
G01 X-33.8689 Y55.3179 
G01 X-33.9894 Y55.3985 
G01 X-34.0919 Y55.5010 
G01 X-34.1725 Y55.6215 
G01 X-34.2279 Y55.7554 
G01 X-34.2562 Y55.8975 
G01 X-34.2562 Y56.0425 
G01 X-34.2279 Y56.1846 
G01 X-34.1725 Y56.3185 
G01 X-34.0919 Y56.4390 
G01 X-33.9894 Y56.5415 
G01 X-33.8689 Y56.6221 
G01 X-33.7350 Y56.6775 
G01 X-33.5929 Y56.7058 
G01 X-32.1271 Y56.7058 
G01 X-31.9850 Y56.6775 
G01 X-31.8511 Y56.6221 
G01 X-31.7306 Y56.5415 
G01 X-31.6281 Y56.4390 
G01 X-31.5475 Y56.3185 
G01 X-31.4921 Y56.1846 
G01 X-31.4638 Y56.0425 
G01 X-31.4638 Y55.8975 
G01 X-31.4921 Y55.7554 
G01 X-31.5281 Y55.6685 
G01 X-30.1148 Y54.2552 
G01 X-30.0547 Y54.1512 
G01 X-30.0236 Y54.0351 
G01 X-30.0236 Y26.6099 
G01 X-30.0547 Y26.4938 
G01 X-30.1148 Y26.3898 
G01 X-30.1998 Y26.3048 
G01 X-34.0098 Y22.4948 
G01 X-34.1138 Y22.4347 
G01 X-34.2299 Y22.4036 
G01 X-34.3809 Y22.4036 
G01 X-34.3666 Y22.3318 
G01 X-34.3666 Y22.1882 
G01 X-34.3946 Y22.0472 
G01 X-34.4496 Y21.9145 
G01 X-34.5294 Y21.7950 
G01 X-34.6310 Y21.6934 
G01 X-34.7505 Y21.6136 
G01 X-34.8832 Y21.5586 
G01 X-35.0242 Y21.5306 
G01 X-36.4758 Y21.5306 
G01 X-36.6168 Y21.5586 
G01 X-36.7495 Y21.6136 
G01 X-36.8690 Y21.6934 
G01 X-36.9706 Y21.7950 
G01 X-37.0504 Y21.9145 
G01 X-37.1054 Y22.0472 
G01 X-37.1334 Y22.1882 
G01 X-37.1334 Y22.3318 
G01 X-37.1054 Y22.4728 
G01 X-37.0504 Y22.6055 
G01 X-36.9706 Y22.7250 
G01 X-36.8690 Y22.8266 
G01 X-36.7495 Y22.9064 
G01 X-36.6168 Y22.9614 
G01 X-36.4758 Y22.9894 
G01 X-35.9978 Y22.9894 
G01 X-35.9853 Y23.0362 
G01 X-35.9801 Y23.0452 
G01 X-35.9770 Y23.0551 
G01 X-35.9501 Y23.0971 
G01 X-35.9252 Y23.1402 
G01 X-35.9179 Y23.1476 
G01 X-35.9123 Y23.1563 
G01 X-35.8755 Y23.1900 
G01 X-35.8402 Y23.2252 
G01 X-35.8312 Y23.2304 
G01 X-35.8236 Y23.2374 
G01 X-35.7793 Y23.2604 
G01 X-35.7362 Y23.2853 
G01 X-35.7261 Y23.2880 
G01 X-35.7169 Y23.2928 
G01 X-35.6682 Y23.3035 
G01 X-35.6201 Y23.3164 
G01 X-35.6097 Y23.3164 
G01 X-35.5996 Y23.3186 
G01 X-35.5497 Y23.3164 
G01 X-34.4790 Y23.3164 
G01 X-30.9364 Y26.8590 
G01 X-30.9364 Y53.7859 
G01 X-32.3846 Y55.2342 
G01 X-33.5929 Y55.2342 
G00 Z2.5400  
G00 X-33.5929 Y57.7742 
G01 Z-0.0600 F90    
G01 X-33.7350 Y57.8025 F300   
G01 X-33.8689 Y57.8579 
G01 X-33.9894 Y57.9385 
G01 X-34.0919 Y58.0410 
G01 X-34.1725 Y58.1615 
G01 X-34.2279 Y58.2954 
G01 X-34.2562 Y58.4375 
G01 X-34.2562 Y58.5825 
G01 X-34.2279 Y58.7246 
G01 X-34.1725 Y58.8585 
G01 X-34.0919 Y58.9790 
G01 X-33.9894 Y59.0815 
G01 X-33.8689 Y59.1621 
G01 X-33.7350 Y59.2175 
G01 X-33.5929 Y59.2458 
G01 X-32.1271 Y59.2458 
G01 X-31.9850 Y59.2175 
G01 X-31.8511 Y59.1621 
G01 X-31.7306 Y59.0815 
G01 X-31.6281 Y58.9790 
G01 X-31.5475 Y58.8585 
G01 X-31.4921 Y58.7246 
G01 X-31.4638 Y58.5825 
G01 X-31.4638 Y58.4375 
G01 X-31.4921 Y58.2954 
G01 X-31.5475 Y58.1615 
G01 X-31.6281 Y58.0410 
G01 X-31.7306 Y57.9385 
G01 X-31.8511 Y57.8579 
G01 X-31.9850 Y57.8025 
G01 X-32.1271 Y57.7742 
G01 X-33.5929 Y57.7742 
G00 Z2.5400  
G00 X-33.5929 Y60.3142 
G01 Z-0.0600 F90    
G01 X-33.7350 Y60.3425 F300   
G01 X-33.8689 Y60.3979 
G01 X-33.9894 Y60.4785 
G01 X-34.0919 Y60.5810 
G01 X-34.1725 Y60.7015 
G01 X-34.2279 Y60.8354 
G01 X-34.2562 Y60.9775 
G01 X-34.2562 Y61.1225 
G01 X-34.2279 Y61.2646 
G01 X-34.1725 Y61.3985 
G01 X-34.0919 Y61.5190 
G01 X-33.9894 Y61.6215 
G01 X-33.8689 Y61.7021 
G01 X-33.7350 Y61.7575 
G01 X-33.5929 Y61.7858 
G01 X-32.1271 Y61.7858 
G01 X-31.9850 Y61.7575 
G01 X-31.8511 Y61.7021 
G01 X-31.7306 Y61.6215 
G01 X-31.6281 Y61.5190 
G01 X-31.5475 Y61.3985 
G01 X-31.4921 Y61.2646 
G01 X-31.4638 Y61.1225 
G01 X-31.4638 Y60.9775 
G01 X-31.4921 Y60.8354 
G01 X-31.5475 Y60.7015 
G01 X-31.6281 Y60.5810 
G01 X-31.7306 Y60.4785 
G01 X-31.8511 Y60.3979 
G01 X-31.9850 Y60.3425 
G01 X-32.1271 Y60.3142 
G01 X-33.5929 Y60.3142 
G00 Z2.5400  
G00 X-33.5929 Y62.8542 
G01 Z-0.0600 F90    
G01 X-33.7350 Y62.8825 F300   
G01 X-33.8689 Y62.9379 
G01 X-33.9894 Y63.0185 
G01 X-34.0919 Y63.1210 
G01 X-34.1725 Y63.2415 
G01 X-34.2279 Y63.3754 
G01 X-34.2562 Y63.5175 
G01 X-34.2562 Y63.6625 
G01 X-34.2279 Y63.8046 
G01 X-34.1725 Y63.9385 
G01 X-34.0919 Y64.0590 
G01 X-33.9894 Y64.1615 
G01 X-33.8689 Y64.2421 
G01 X-33.7350 Y64.2975 
G01 X-33.5929 Y64.3258 
G01 X-32.1271 Y64.3258 
G01 X-31.9850 Y64.2975 
G01 X-31.8511 Y64.2421 
G01 X-31.7306 Y64.1615 
G01 X-31.6281 Y64.0590 
G01 X-31.5475 Y63.9385 
G01 X-31.4921 Y63.8046 
G01 X-31.4638 Y63.6625 
G01 X-31.4638 Y63.5175 
G01 X-31.4921 Y63.3754 
G01 X-31.5475 Y63.2415 
G01 X-31.6281 Y63.1210 
G01 X-31.7306 Y63.0185 
G01 X-31.8511 Y62.9379 
G01 X-31.9850 Y62.8825 
G01 X-32.1271 Y62.8542 
G01 X-33.5929 Y62.8542 
G00 Z2.5400  
G00 X-33.5929 Y65.3942 
G01 Z-0.0600 F90    
G01 X-33.7350 Y65.4225 F300   
G01 X-33.8689 Y65.4779 
G01 X-33.9894 Y65.5585 
G01 X-34.0919 Y65.6610 
G01 X-34.1725 Y65.7815 
G01 X-34.2279 Y65.9154 
G01 X-34.2562 Y66.0575 
G01 X-34.2562 Y66.2025 
G01 X-34.2530 Y66.2186 
G01 X-53.4001 Y66.2186 
G01 X-53.5162 Y66.2497 
G01 X-53.6202 Y66.3098 
G01 X-55.5252 Y68.2148 
G01 X-55.6102 Y68.2998 
G01 X-55.6703 Y68.4038 
G01 X-55.7014 Y68.5199 
G01 X-55.7014 Y69.9101 
G01 X-55.6703 Y70.0262 
G01 X-55.6102 Y70.1302 
G01 X-54.3350 Y71.4055 
G01 X-54.3311 Y71.4118 
G01 X-54.2926 Y71.4478 
G01 X-54.2552 Y71.4852 
G01 X-54.2488 Y71.4889 
G01 X-54.2434 Y71.4940 
G01 X-54.1969 Y71.5189 
G01 X-54.1512 Y71.5453 
G01 X-54.1440 Y71.5472 
G01 X-54.1375 Y71.5507 
G01 X-54.0861 Y71.5627 
G01 X-54.0351 Y71.5764 
G01 X-54.0277 Y71.5764 
G01 X-54.0205 Y71.5781 
G01 X-53.9690 Y71.5764 
G01 X-53.9554 Y71.5968 
G01 X-53.8468 Y71.7054 
G01 X-53.7192 Y71.7907 
G01 X-53.5773 Y71.8494 
G01 X-53.4268 Y71.8794 
G01 X-53.2732 Y71.8794 
G01 X-53.1227 Y71.8494 
G01 X-52.9808 Y71.7907 
G01 X-52.8532 Y71.7054 
G01 X-52.7446 Y71.5968 
G01 X-52.6593 Y71.4692 
G01 X-52.6006 Y71.3273 
G01 X-52.5706 Y71.1768 
G01 X-52.5706 Y71.0232 
G01 X-52.6006 Y70.8727 
G01 X-52.6593 Y70.7308 
G01 X-52.7446 Y70.6032 
G01 X-52.8532 Y70.4946 
G01 X-52.9808 Y70.4093 
G01 X-53.1227 Y70.3506 
G01 X-53.2732 Y70.3206 
G01 X-53.4268 Y70.3206 
G01 X-53.5773 Y70.3506 
G01 X-53.7192 Y70.4093 
G01 X-53.8468 Y70.4946 
G01 X-53.9009 Y70.5487 
G01 X-54.7886 Y69.6609 
G01 X-54.7886 Y68.7690 
G01 X-53.1510 Y67.1314 
G01 X-33.0255 Y67.1314 
G01 X-32.9708 Y67.1327 
G01 X-32.9654 Y67.1314 
G01 X-32.9599 Y67.1314 
G01 X-32.9072 Y67.1173 
G01 X-32.8540 Y67.1044 
G01 X-32.8492 Y67.1017 
G01 X-32.8438 Y67.1003 
G01 X-32.7965 Y67.0730 
G01 X-32.7485 Y67.0468 
G01 X-32.7445 Y67.0430 
G01 X-32.7398 Y67.0402 
G01 X-32.7011 Y67.0016 
G01 X-32.6615 Y66.9638 
G01 X-32.6587 Y66.9591 
G01 X-32.6548 Y66.9552 
G01 X-32.6275 Y66.9079 
G01 X-32.6018 Y66.8658 
G01 X-32.1271 Y66.8658 
G01 X-31.9850 Y66.8375 
G01 X-31.8511 Y66.7821 
G01 X-31.7306 Y66.7015 
G01 X-31.6281 Y66.5990 
G01 X-31.5475 Y66.4785 
G01 X-31.4921 Y66.3446 
G01 X-31.4638 Y66.2025 
G01 X-31.4638 Y66.0575 
G01 X-31.4921 Y65.9154 
G01 X-31.5475 Y65.7815 
G01 X-31.6281 Y65.6610 
G01 X-31.7306 Y65.5585 
G01 X-31.8511 Y65.4779 
G01 X-31.9850 Y65.4225 
G01 X-32.1271 Y65.3942 
G01 X-33.5929 Y65.3942 
G00 Z2.5400  
G00 X-33.5929 Y67.9342 
G01 Z-0.0600 F90    
G01 X-33.7350 Y67.9625 F300   
G01 X-33.8689 Y68.0179 
G01 X-33.9894 Y68.0985 
G01 X-34.0919 Y68.2010 
G01 X-34.1725 Y68.3215 
G01 X-34.2279 Y68.4554 
G01 X-34.2562 Y68.5975 
G01 X-34.2562 Y68.7425 
G01 X-34.2279 Y68.8846 
G01 X-34.1725 Y69.0185 
G01 X-34.0919 Y69.1390 
G01 X-33.9894 Y69.2415 
G01 X-33.8689 Y69.3221 
G01 X-33.7350 Y69.3775 
G01 X-33.5929 Y69.4058 
G01 X-32.1271 Y69.4058 
G01 X-31.9850 Y69.3775 
G01 X-31.8511 Y69.3221 
G01 X-31.7306 Y69.2415 
G01 X-31.6281 Y69.1390 
G01 X-31.5475 Y69.0185 
G01 X-31.4921 Y68.8846 
G01 X-31.4638 Y68.7425 
G01 X-31.4638 Y68.5975 
G01 X-31.4921 Y68.4554 
G01 X-31.5475 Y68.3215 
G01 X-31.6281 Y68.2010 
G01 X-31.7306 Y68.0985 
G01 X-31.8511 Y68.0179 
G01 X-31.9850 Y67.9625 
G01 X-32.1271 Y67.9342 
G01 X-33.5929 Y67.9342 
G00 Z2.5400  
G00 X-29.6664 Y70.2960 
G01 Z-0.0600 F90    
G01 X-35.7490 Y76.3786 F300   
G01 X-51.8809 Y76.3786 
G01 X-52.7118 Y75.5477 
G01 X-52.6593 Y75.4692 
G01 X-52.6006 Y75.3273 
G01 X-52.5706 Y75.1768 
G01 X-52.5706 Y75.0232 
G01 X-52.6006 Y74.8727 
G01 X-52.6593 Y74.7308 
G01 X-52.7446 Y74.6032 
G01 X-52.8532 Y74.4946 
G01 X-52.9808 Y74.4093 
G01 X-53.1227 Y74.3506 
G01 X-53.2732 Y74.3206 
G01 X-53.4268 Y74.3206 
G01 X-53.5773 Y74.3506 
G01 X-53.7192 Y74.4093 
G01 X-53.8468 Y74.4946 
G01 X-53.9554 Y74.6032 
G01 X-54.0407 Y74.7308 
G01 X-54.0994 Y74.8727 
G01 X-54.1294 Y75.0232 
G01 X-54.1294 Y75.1768 
G01 X-54.0994 Y75.3273 
G01 X-54.0407 Y75.4692 
G01 X-53.9554 Y75.5968 
G01 X-53.8468 Y75.7054 
G01 X-53.7490 Y75.7708 
G01 X-53.7328 Y75.7975 
G01 X-53.7052 Y75.8452 
G01 X-53.7017 Y75.8488 
G01 X-53.6991 Y75.8530 
G01 X-53.6592 Y75.8912 
G01 X-52.3502 Y77.2002 
G01 X-52.2462 Y77.2603 
G01 X-52.1301 Y77.2914 
G01 X-35.4999 Y77.2914 
G01 X-35.3838 Y77.2603 
G01 X-35.2798 Y77.2002 
G01 X-35.1948 Y77.1152 
G01 X-28.8448 Y70.7652 
G01 X-28.7847 Y70.6612 
G01 X-28.7536 Y70.5451 
G01 X-28.7536 Y61.7840 
G01 X-26.4809 Y59.5114 
G01 X-25.4055 Y59.5114 
G01 X-25.3508 Y59.5127 
G01 X-25.3454 Y59.5114 
G01 X-25.3399 Y59.5114 
G01 X-25.2872 Y59.4973 
G01 X-25.2340 Y59.4844 
G01 X-25.2292 Y59.4817 
G01 X-25.2238 Y59.4803 
G01 X-25.1765 Y59.4530 
G01 X-25.1285 Y59.4268 
G01 X-25.1245 Y59.4230 
G01 X-25.1198 Y59.4202 
G01 X-25.0811 Y59.3816 
G01 X-25.0415 Y59.3438 
G01 X-25.0387 Y59.3391 
G01 X-25.0348 Y59.3352 
G01 X-25.0075 Y59.2879 
G01 X-24.9818 Y59.2458 
G01 X-24.5071 Y59.2458 
G01 X-24.3650 Y59.2175 
G01 X-24.2311 Y59.1621 
G01 X-24.1106 Y59.0815 
G01 X-24.0081 Y58.9790 
G01 X-23.9275 Y58.8585 
G01 X-23.8721 Y58.7246 
G01 X-23.8438 Y58.5825 
G01 X-23.8438 Y58.4375 
G01 X-23.8721 Y58.2954 
G01 X-23.9275 Y58.1615 
G01 X-24.0081 Y58.0410 
G01 X-24.1106 Y57.9385 
G01 X-24.2311 Y57.8579 
G01 X-24.3650 Y57.8025 
G01 X-24.5071 Y57.7742 
G01 X-25.9729 Y57.7742 
G01 X-26.1150 Y57.8025 
G01 X-26.2489 Y57.8579 
G01 X-26.3694 Y57.9385 
G01 X-26.4719 Y58.0410 
G01 X-26.5525 Y58.1615 
G01 X-26.6079 Y58.2954 
G01 X-26.6362 Y58.4375 
G01 X-26.6362 Y58.5825 
G01 X-26.6330 Y58.5986 
G01 X-26.7301 Y58.5986 
G01 X-26.8462 Y58.6297 
G01 X-26.9502 Y58.6898 
G01 X-29.4902 Y61.2298 
G01 X-29.5752 Y61.3148 
G01 X-29.6353 Y61.4188 
G01 X-29.6664 Y61.5349 
G01 X-29.6664 Y70.2960 
G00 Z2.5400  
G00 X-28.3653 Y70.3088 
G01 Z-0.0600 F90    
G01 X-28.3964 Y70.4249 F300   
G01 X-28.3964 Y70.9309 
G01 X-35.1140 Y77.6486 
G01 X-52.5159 Y77.6486 
G01 X-56.0586 Y74.1060 
G01 X-56.0586 Y68.1340 
G01 X-46.6248 Y58.7002 
G01 X-46.5647 Y58.5962 
G01 X-46.5336 Y58.4801 
G01 X-46.5336 Y40.8290 
G01 X-36.6409 Y30.9364 
G01 X-36.2212 Y30.9364 
G01 X-36.1875 Y30.9403 
G01 X-36.1613 Y30.9364 
G01 X-36.1349 Y30.9364 
G01 X-36.1022 Y30.9276 
G01 X-36.0686 Y30.9226 
G01 X-36.0444 Y30.9121 
G01 X-36.0188 Y30.9053 
G01 X-35.9895 Y30.8883 
G01 X-35.9583 Y30.8748 
G01 X-35.9376 Y30.8584 
G01 X-35.9148 Y30.8452 
G01 X-35.8908 Y30.8212 
G01 X-35.8642 Y30.8001 
G01 X-35.8485 Y30.7789 
G01 X-35.8298 Y30.7602 
G01 X-35.8128 Y30.7309 
G01 X-35.7227 Y30.6094 
G01 X-35.0242 Y30.6094 
G01 X-34.8832 Y30.5814 
G01 X-34.7505 Y30.5264 
G01 X-34.6310 Y30.4466 
G01 X-34.5294 Y30.3450 
G01 X-34.4496 Y30.2255 
G01 X-34.3946 Y30.0928 
G01 X-34.3666 Y29.9518 
G01 X-34.3666 Y29.8082 
G01 X-34.3946 Y29.6672 
G01 X-34.4496 Y29.5345 
G01 X-34.5294 Y29.4150 
G01 X-34.6310 Y29.3134 
G01 X-34.7505 Y29.2336 
G01 X-34.8832 Y29.1786 
G01 X-35.0242 Y29.1506 
G01 X-36.4758 Y29.1506 
G01 X-36.6168 Y29.1786 
G01 X-36.7495 Y29.2336 
G01 X-36.8690 Y29.3134 
G01 X-36.9706 Y29.4150 
G01 X-37.0504 Y29.5345 
G01 X-37.1054 Y29.6672 
G01 X-37.1334 Y29.8082 
G01 X-37.1334 Y29.9518 
G01 X-37.1054 Y30.0928 
G01 X-37.0989 Y30.1083 
G01 X-37.1102 Y30.1148 
G01 X-47.2702 Y40.2748 
G01 X-47.3552 Y40.3598 
G01 X-47.4153 Y40.4638 
G01 X-47.4464 Y40.5799 
G01 X-47.4464 Y58.2309 
G01 X-56.7952 Y67.5798 
G01 X-56.8802 Y67.6648 
G01 X-56.9403 Y67.7688 
G01 X-56.9714 Y67.8849 
G01 X-56.9714 Y74.3551 
G01 X-56.9403 Y74.4712 
G01 X-56.8802 Y74.5752 
G01 X-53.0702 Y78.3852 
G01 X-52.9852 Y78.4702 
G01 X-52.8812 Y78.5303 
G01 X-52.7651 Y78.5614 
G01 X-34.8649 Y78.5614 
G01 X-34.7488 Y78.5303 
G01 X-34.6448 Y78.4702 
G01 X-27.6598 Y71.4852 
G01 X-27.5748 Y71.4002 
G01 X-27.5147 Y71.2962 
G01 X-27.4836 Y71.1801 
G01 X-27.4836 Y70.6740 
G01 X-26.4809 Y69.6714 
G01 X-25.4055 Y69.6714 
G01 X-25.3508 Y69.6727 
G01 X-25.3454 Y69.6714 
G01 X-25.3399 Y69.6714 
G01 X-25.2872 Y69.6573 
G01 X-25.2340 Y69.6444 
G01 X-25.2292 Y69.6417 
G01 X-25.2238 Y69.6403 
G01 X-25.1765 Y69.6130 
G01 X-25.1285 Y69.5868 
G01 X-25.1245 Y69.5830 
G01 X-25.1198 Y69.5802 
G01 X-25.0811 Y69.5416 
G01 X-25.0415 Y69.5038 
G01 X-25.0387 Y69.4991 
G01 X-25.0348 Y69.4952 
G01 X-25.0075 Y69.4479 
G01 X-24.9818 Y69.4058 
G01 X-24.5071 Y69.4058 
G01 X-24.3650 Y69.3775 
G01 X-24.2311 Y69.3221 
G01 X-24.1106 Y69.2415 
G01 X-24.0081 Y69.1390 
G01 X-23.9275 Y69.0185 
G01 X-23.8721 Y68.8846 
G01 X-23.8438 Y68.7425 
G01 X-23.8438 Y68.5975 
G01 X-23.8721 Y68.4554 
G01 X-23.9275 Y68.3215 
G01 X-24.0081 Y68.2010 
G01 X-24.1106 Y68.0985 
G01 X-24.2311 Y68.0179 
G01 X-24.3650 Y67.9625 
G01 X-24.5071 Y67.9342 
G01 X-25.9729 Y67.9342 
G01 X-26.1150 Y67.9625 
G01 X-26.2489 Y68.0179 
G01 X-26.3694 Y68.0985 
G01 X-26.4719 Y68.2010 
G01 X-26.5525 Y68.3215 
G01 X-26.6079 Y68.4554 
G01 X-26.6362 Y68.5975 
G01 X-26.6362 Y68.7425 
G01 X-26.6330 Y68.7586 
G01 X-26.7301 Y68.7586 
G01 X-26.8462 Y68.7897 
G01 X-26.9502 Y68.8498 
G01 X-27.0352 Y68.9348 
G01 X-28.3052 Y70.2048 
G01 X-28.3653 Y70.3088 
G00 Z2.5400  
G00 X-26.3694 Y70.6385 
G01 Z-0.0600 F90    
G01 X-26.4719 Y70.7410 F300   
G01 X-26.5525 Y70.8615 
G01 X-26.6079 Y70.9954 
G01 X-26.6362 Y71.1375 
G01 X-26.6362 Y71.2825 
G01 X-26.6079 Y71.4246 
G01 X-26.5525 Y71.5585 
G01 X-26.4719 Y71.6790 
G01 X-26.3694 Y71.7815 
G01 X-26.2489 Y71.8621 
G01 X-26.1150 Y71.9175 
G01 X-25.9729 Y71.9458 
G01 X-24.5071 Y71.9458 
G01 X-24.3650 Y71.9175 
G01 X-24.2311 Y71.8621 
G01 X-24.1106 Y71.7815 
G01 X-24.0081 Y71.6790 
G01 X-23.9275 Y71.5585 
G01 X-23.8721 Y71.4246 
G01 X-23.8438 Y71.2825 
G01 X-23.8438 Y71.1375 
G01 X-23.8721 Y70.9954 
G01 X-23.9275 Y70.8615 
G01 X-24.0081 Y70.7410 
G01 X-24.1106 Y70.6385 
G01 X-24.2311 Y70.5579 
G01 X-24.3650 Y70.5025 
G01 X-24.5071 Y70.4742 
G01 X-25.9729 Y70.4742 
G01 X-26.1150 Y70.5025 
G01 X-26.2489 Y70.5579 
G01 X-26.3694 Y70.6385 
G00 Z2.5400  
G00 X-26.3694 Y66.7015 
G01 Z-0.0600 F90    
G01 X-26.2489 Y66.7821 F300   
G01 X-26.1150 Y66.8375 
G01 X-25.9729 Y66.8658 
G01 X-24.5071 Y66.8658 
G01 X-24.3650 Y66.8375 
G01 X-24.2311 Y66.7821 
G01 X-24.1106 Y66.7015 
G01 X-24.0081 Y66.5990 
G01 X-23.9275 Y66.4785 
G01 X-23.8721 Y66.3446 
G01 X-23.8438 Y66.2025 
G01 X-23.8438 Y66.0575 
G01 X-23.8721 Y65.9154 
G01 X-23.9275 Y65.7815 
G01 X-24.0081 Y65.6610 
G01 X-24.1106 Y65.5585 
G01 X-24.2311 Y65.4779 
G01 X-24.3650 Y65.4225 
G01 X-24.5071 Y65.3942 
G01 X-25.9729 Y65.3942 
G01 X-26.1150 Y65.4225 
G01 X-26.2489 Y65.4779 
G01 X-26.3694 Y65.5585 
G01 X-26.4719 Y65.6610 
G01 X-26.5525 Y65.7815 
G01 X-26.6079 Y65.9154 
G01 X-26.6362 Y66.0575 
G01 X-26.6362 Y66.2025 
G01 X-26.6079 Y66.3446 
G01 X-26.5525 Y66.4785 
G01 X-26.4719 Y66.5990 
G01 X-26.3694 Y66.7015 
G00 Z2.5400  
G00 X-26.3694 Y61.6215 
G01 Z-0.0600 F90    
G01 X-26.2489 Y61.7021 F300   
G01 X-26.1150 Y61.7575 
G01 X-25.9729 Y61.7858 
G01 X-24.5071 Y61.7858 
G01 X-24.3650 Y61.7575 
G01 X-24.2311 Y61.7021 
G01 X-24.1106 Y61.6215 
G01 X-24.0081 Y61.5190 
G01 X-23.9275 Y61.3985 
G01 X-23.8721 Y61.2646 
G01 X-23.8438 Y61.1225 
G01 X-23.8438 Y60.9775 
G01 X-23.8721 Y60.8354 
G01 X-23.9275 Y60.7015 
G01 X-24.0081 Y60.5810 
G01 X-24.1106 Y60.4785 
G01 X-24.2311 Y60.3979 
G01 X-24.3650 Y60.3425 
G01 X-24.5071 Y60.3142 
G01 X-25.9729 Y60.3142 
G01 X-26.1150 Y60.3425 
G01 X-26.2489 Y60.3979 
G01 X-26.3694 Y60.4785 
G01 X-26.4719 Y60.5810 
G01 X-26.5525 Y60.7015 
G01 X-26.6079 Y60.8354 
G01 X-26.6362 Y60.9775 
G01 X-26.6362 Y61.1225 
G01 X-26.6079 Y61.2646 
G01 X-26.5525 Y61.3985 
G01 X-26.4719 Y61.5190 
G01 X-26.3694 Y61.6215 
G00 Z2.5400  
G00 X-26.3694 Y56.5415 
G01 Z-0.0600 F90    
G01 X-26.2489 Y56.6221 F300   
G01 X-26.1150 Y56.6775 
G01 X-25.9729 Y56.7058 
G01 X-24.5071 Y56.7058 
G01 X-24.3650 Y56.6775 
G01 X-24.2311 Y56.6221 
G01 X-24.1106 Y56.5415 
G01 X-24.0081 Y56.4390 
G01 X-23.9275 Y56.3185 
G01 X-23.8721 Y56.1846 
G01 X-23.8438 Y56.0425 
G01 X-23.8438 Y55.8975 
G01 X-23.8721 Y55.7554 
G01 X-23.9275 Y55.6215 
G01 X-24.0081 Y55.5010 
G01 X-24.1106 Y55.3985 
G01 X-24.2311 Y55.3179 
G01 X-24.3650 Y55.2625 
G01 X-24.5071 Y55.2342 
G01 X-25.9729 Y55.2342 
G01 X-26.1150 Y55.2625 
G01 X-26.2489 Y55.3179 
G01 X-26.3694 Y55.3985 
G01 X-26.4719 Y55.5010 
G01 X-26.5525 Y55.6215 
G01 X-26.6079 Y55.7554 
G01 X-26.6362 Y55.8975 
G01 X-26.6362 Y56.0425 
G01 X-26.6079 Y56.1846 
G01 X-26.5525 Y56.3185 
G01 X-26.4719 Y56.4390 
G01 X-26.3694 Y56.5415 
G00 Z2.5400  
G00 X-26.3694 Y54.0015 
G01 Z-0.0600 F90    
G01 X-26.2489 Y54.0821 F300   
G01 X-26.1150 Y54.1375 
G01 X-25.9729 Y54.1658 
G01 X-24.5071 Y54.1658 
G01 X-24.3650 Y54.1375 
G01 X-24.2311 Y54.0821 
G01 X-24.1106 Y54.0015 
G01 X-24.0081 Y53.8990 
G01 X-23.9275 Y53.7785 
G01 X-23.8721 Y53.6446 
G01 X-23.8438 Y53.5025 
G01 X-23.8438 Y53.3575 
G01 X-23.8721 Y53.2154 
G01 X-23.9275 Y53.0815 
G01 X-24.0081 Y52.9610 
G01 X-24.1106 Y52.8585 
G01 X-24.2311 Y52.7779 
G01 X-24.3650 Y52.7225 
G01 X-24.5071 Y52.6942 
G01 X-25.9729 Y52.6942 
G01 X-26.1150 Y52.7225 
G01 X-26.2489 Y52.7779 
G01 X-26.3694 Y52.8585 
G01 X-26.4719 Y52.9610 
G01 X-26.5525 Y53.0815 
G01 X-26.6079 Y53.2154 
G01 X-26.6362 Y53.3575 
G01 X-26.6362 Y53.5025 
G01 X-26.6079 Y53.6446 
G01 X-26.5525 Y53.7785 
G01 X-26.4719 Y53.8990 
G01 X-26.3694 Y54.0015 
G00 Z2.5400  
G00 X-48.0293 Y53.9792 
G01 Z-0.0600 F90    
G01 X-47.9706 Y53.8373 F300   
G01 X-47.9406 Y53.6868 
G01 X-47.9406 Y53.5332 
G01 X-47.9706 Y53.3827 
G01 X-48.0293 Y53.2408 
G01 X-48.1146 Y53.1132 
G01 X-48.2232 Y53.0046 
G01 X-48.3508 Y52.9193 
G01 X-48.4927 Y52.8606 
G01 X-48.6432 Y52.8306 
G01 X-48.7968 Y52.8306 
G01 X-48.9473 Y52.8606 
G01 X-49.0892 Y52.9193 
G01 X-49.2168 Y53.0046 
G01 X-49.3254 Y53.1132 
G01 X-49.4107 Y53.2408 
G01 X-49.4694 Y53.3827 
G01 X-49.4994 Y53.5332 
G01 X-49.4994 Y53.6868 
G01 X-49.4694 Y53.8373 
G01 X-49.4107 Y53.9792 
G01 X-49.3254 Y54.1068 
G01 X-49.2168 Y54.2154 
G01 X-49.0892 Y54.3007 
G01 X-48.9473 Y54.3594 
G01 X-48.7968 Y54.3894 
G01 X-48.6432 Y54.3894 
G01 X-48.4927 Y54.3594 
G01 X-48.3508 Y54.3007 
G01 X-48.2232 Y54.2154 
G01 X-48.1146 Y54.1068 
G01 X-48.0293 Y53.9792 
G00 Z2.5400  
G00 X-48.2232 Y52.2154 
G01 Z-0.0600 F90    
G01 X-48.1146 Y52.1068 F300   
G01 X-48.0293 Y51.9792 
G01 X-47.9706 Y51.8373 
G01 X-47.9406 Y51.6868 
G01 X-47.9406 Y51.5332 
G01 X-47.9706 Y51.3827 
G01 X-48.0293 Y51.2408 
G01 X-48.1146 Y51.1132 
G01 X-48.2232 Y51.0046 
G01 X-48.3508 Y50.9193 
G01 X-48.4927 Y50.8606 
G01 X-48.6432 Y50.8306 
G01 X-48.7968 Y50.8306 
G01 X-48.9473 Y50.8606 
G01 X-49.0892 Y50.9193 
G01 X-49.2168 Y51.0046 
G01 X-49.3254 Y51.1132 
G01 X-49.4107 Y51.2408 
G01 X-49.4694 Y51.3827 
G01 X-49.4994 Y51.5332 
G01 X-49.4994 Y51.6868 
G01 X-49.4694 Y51.8373 
G01 X-49.4107 Y51.9792 
G01 X-49.3254 Y52.1068 
G01 X-49.2168 Y52.2154 
G01 X-49.0892 Y52.3007 
G01 X-48.9473 Y52.3594 
G01 X-48.7968 Y52.3894 
G01 X-48.6432 Y52.3894 
G01 X-48.4927 Y52.3594 
G01 X-48.3508 Y52.3007 
G01 X-48.2232 Y52.2154 
G00 Z2.5400  
G00 X-50.2232 Y52.2154 
G01 Z-0.0600 F90    
G01 X-50.1146 Y52.1068 F300   
G01 X-50.0293 Y51.9792 
G01 X-49.9706 Y51.8373 
G01 X-49.9406 Y51.6868 
G01 X-49.9406 Y51.5332 
G01 X-49.9706 Y51.3827 
G01 X-50.0293 Y51.2408 
G01 X-50.1146 Y51.1132 
G01 X-50.2232 Y51.0046 
G01 X-50.3508 Y50.9193 
G01 X-50.4927 Y50.8606 
G01 X-50.6432 Y50.8306 
G01 X-50.7968 Y50.8306 
G01 X-50.9473 Y50.8606 
G01 X-51.0892 Y50.9193 
G01 X-51.2168 Y51.0046 
G01 X-51.3254 Y51.1132 
G01 X-51.4107 Y51.2408 
G01 X-51.4694 Y51.3827 
G01 X-51.4994 Y51.5332 
G01 X-51.4994 Y51.6868 
G01 X-51.4694 Y51.8373 
G01 X-51.4107 Y51.9792 
G01 X-51.3254 Y52.1068 
G01 X-51.2168 Y52.2154 
G01 X-51.0892 Y52.3007 
G01 X-50.9473 Y52.3594 
G01 X-50.7968 Y52.3894 
G01 X-50.6432 Y52.3894 
G01 X-50.4927 Y52.3594 
G01 X-50.3508 Y52.3007 
G01 X-50.2232 Y52.2154 
G00 Z2.5400  
G00 X-50.2232 Y53.0046 
G01 Z-0.0600 F90    
G01 X-50.3508 Y52.9193 F300   
G01 X-50.4927 Y52.8606 
G01 X-50.6432 Y52.8306 
G01 X-50.7968 Y52.8306 
G01 X-50.9473 Y52.8606 
G01 X-51.0892 Y52.9193 
G01 X-51.2168 Y53.0046 
G01 X-51.3254 Y53.1132 
G01 X-51.4107 Y53.2408 
G01 X-51.4694 Y53.3827 
G01 X-51.4994 Y53.5332 
G01 X-51.4994 Y53.6868 
G01 X-51.4694 Y53.8373 
G01 X-51.4107 Y53.9792 
G01 X-51.3254 Y54.1068 
G01 X-51.2168 Y54.2154 
G01 X-51.0892 Y54.3007 
G01 X-50.9473 Y54.3594 
G01 X-50.7968 Y54.3894 
G01 X-50.6432 Y54.3894 
G01 X-50.4927 Y54.3594 
G01 X-50.3508 Y54.3007 
G01 X-50.2232 Y54.2154 
G01 X-50.1146 Y54.1068 
G01 X-50.0293 Y53.9792 
G01 X-49.9706 Y53.8373 
G01 X-49.9406 Y53.6868 
G01 X-49.9406 Y53.5332 
G01 X-49.9706 Y53.3827 
G01 X-50.0293 Y53.2408 
G01 X-50.1146 Y53.1132 
G01 X-50.2232 Y53.0046 
G00 Z2.5400  
G00 X-50.2232 Y50.2154 
G01 Z-0.0600 F90    
G01 X-50.1146 Y50.1068 F300   
G01 X-50.0293 Y49.9792 
G01 X-49.9706 Y49.8373 
G01 X-49.9406 Y49.6868 
G01 X-49.9406 Y49.5332 
G01 X-49.9706 Y49.3827 
G01 X-50.0293 Y49.2408 
G01 X-50.1146 Y49.1132 
G01 X-50.2232 Y49.0046 
G01 X-50.3508 Y48.9193 
G01 X-50.4927 Y48.8606 
G01 X-50.6432 Y48.8306 
G01 X-50.7968 Y48.8306 
G01 X-50.9473 Y48.8606 
G01 X-51.0892 Y48.9193 
G01 X-51.2168 Y49.0046 
G01 X-51.3254 Y49.1132 
G01 X-51.4107 Y49.2408 
G01 X-51.4694 Y49.3827 
G01 X-51.4994 Y49.5332 
G01 X-51.4994 Y49.6868 
G01 X-51.4694 Y49.8373 
G01 X-51.4107 Y49.9792 
G01 X-51.3254 Y50.1068 
G01 X-51.2168 Y50.2154 
G01 X-51.0892 Y50.3007 
G01 X-50.9473 Y50.3594 
G01 X-50.7968 Y50.3894 
G01 X-50.6432 Y50.3894 
G01 X-50.4927 Y50.3594 
G01 X-50.3508 Y50.3007 
G01 X-50.2232 Y50.2154 
G00 Z2.5400  
G00 X-49.3254 Y50.1068 
G01 Z-0.0600 F90    
G01 X-49.2168 Y50.2154 F300   
G01 X-49.0892 Y50.3007 
G01 X-48.9473 Y50.3594 
G01 X-48.7968 Y50.3894 
G01 X-48.6432 Y50.3894 
G01 X-48.4927 Y50.3594 
G01 X-48.3508 Y50.3007 
G01 X-48.2232 Y50.2154 
G01 X-48.1146 Y50.1068 
G01 X-48.0293 Y49.9792 
G01 X-47.9706 Y49.8373 
G01 X-47.9406 Y49.6868 
G01 X-47.9406 Y49.5332 
G01 X-47.9706 Y49.3827 
G01 X-48.0293 Y49.2408 
G01 X-48.1146 Y49.1132 
G01 X-48.2232 Y49.0046 
G01 X-48.3508 Y48.9193 
G01 X-48.4927 Y48.8606 
G01 X-48.6432 Y48.8306 
G01 X-48.7968 Y48.8306 
G01 X-48.9473 Y48.8606 
G01 X-49.0892 Y48.9193 
G01 X-49.2168 Y49.0046 
G01 X-49.3254 Y49.1132 
G01 X-49.4107 Y49.2408 
G01 X-49.4694 Y49.3827 
G01 X-49.4994 Y49.5332 
G01 X-49.4994 Y49.6868 
G01 X-49.4694 Y49.8373 
G01 X-49.4107 Y49.9792 
G01 X-49.3254 Y50.1068 
G00 Z2.5400  
G00 X-49.3254 Y48.1068 
G01 Z-0.0600 F90    
G01 X-49.2168 Y48.2154 F300   
G01 X-49.0892 Y48.3007 
G01 X-48.9473 Y48.3594 
G01 X-48.7968 Y48.3894 
G01 X-48.6432 Y48.3894 
G01 X-48.4927 Y48.3594 
G01 X-48.3508 Y48.3007 
G01 X-48.2232 Y48.2154 
G01 X-48.1146 Y48.1068 
G01 X-48.0293 Y47.9792 
G01 X-47.9706 Y47.8373 
G01 X-47.9406 Y47.6868 
G01 X-47.9406 Y47.5332 
G01 X-47.9706 Y47.3827 
G01 X-48.0293 Y47.2408 
G01 X-48.1146 Y47.1132 
G01 X-48.2232 Y47.0046 
G01 X-48.3508 Y46.9193 
G01 X-48.4927 Y46.8606 
G01 X-48.6432 Y46.8306 
G01 X-48.7968 Y46.8306 
G01 X-48.9473 Y46.8606 
G01 X-49.0892 Y46.9193 
G01 X-49.2168 Y47.0046 
G01 X-49.3254 Y47.1132 
G01 X-49.4107 Y47.2408 
G01 X-49.4694 Y47.3827 
G01 X-49.4994 Y47.5332 
G01 X-49.4994 Y47.6868 
G01 X-49.4694 Y47.8373 
G01 X-49.4107 Y47.9792 
G01 X-49.3254 Y48.1068 
G00 Z2.5400  
G00 X-50.1146 Y48.1068 
G01 Z-0.0600 F90    
G01 X-50.0293 Y47.9792 F300   
G01 X-49.9706 Y47.8373 
G01 X-49.9406 Y47.6868 
G01 X-49.9406 Y47.5332 
G01 X-49.9706 Y47.3827 
G01 X-50.0293 Y47.2408 
G01 X-50.1146 Y47.1132 
G01 X-50.2232 Y47.0046 
G01 X-50.3508 Y46.9193 
G01 X-50.4927 Y46.8606 
G01 X-50.6432 Y46.8306 
G01 X-50.7968 Y46.8306 
G01 X-50.9473 Y46.8606 
G01 X-51.0892 Y46.9193 
G01 X-51.2168 Y47.0046 
G01 X-51.3254 Y47.1132 
G01 X-51.4107 Y47.2408 
G01 X-51.4694 Y47.3827 
G01 X-51.4994 Y47.5332 
G01 X-51.4994 Y47.6868 
G01 X-51.4694 Y47.8373 
G01 X-51.4107 Y47.9792 
G01 X-51.3254 Y48.1068 
G01 X-51.2168 Y48.2154 
G01 X-51.0892 Y48.3007 
G01 X-50.9473 Y48.3594 
G01 X-50.7968 Y48.3894 
G01 X-50.6432 Y48.3894 
G01 X-50.4927 Y48.3594 
G01 X-50.3508 Y48.3007 
G01 X-50.2232 Y48.2154 
G01 X-50.1146 Y48.1068 
G00 Z2.5400  
G00 X-50.2232 Y46.2154 
G01 Z-0.0600 F90    
G01 X-50.1146 Y46.1068 F300   
G01 X-50.0293 Y45.9792 
G01 X-49.9706 Y45.8373 
G01 X-49.9406 Y45.6868 
G01 X-49.9406 Y45.5332 
G01 X-49.9706 Y45.3827 
G01 X-50.0293 Y45.2408 
G01 X-50.1146 Y45.1132 
G01 X-50.2232 Y45.0046 
G01 X-50.3508 Y44.9193 
G01 X-50.4927 Y44.8606 
G01 X-50.6432 Y44.8306 
G01 X-50.7968 Y44.8306 
G01 X-50.9473 Y44.8606 
G01 X-51.0892 Y44.9193 
G01 X-51.2168 Y45.0046 
G01 X-51.3254 Y45.1132 
G01 X-51.4107 Y45.2408 
G01 X-51.4694 Y45.3827 
G01 X-51.4994 Y45.5332 
G01 X-51.4994 Y45.6868 
G01 X-51.4694 Y45.8373 
G01 X-51.4107 Y45.9792 
G01 X-51.3254 Y46.1068 
G01 X-51.2168 Y46.2154 
G01 X-51.0892 Y46.3007 
G01 X-50.9473 Y46.3594 
G01 X-50.7968 Y46.3894 
G01 X-50.6432 Y46.3894 
G01 X-50.4927 Y46.3594 
G01 X-50.3508 Y46.3007 
G01 X-50.2232 Y46.2154 
G00 Z2.5400  
G00 X-49.3254 Y46.1068 
G01 Z-0.0600 F90    
G01 X-49.2168 Y46.2154 F300   
G01 X-49.0892 Y46.3007 
G01 X-48.9473 Y46.3594 
G01 X-48.7968 Y46.3894 
G01 X-48.6432 Y46.3894 
G01 X-48.4927 Y46.3594 
G01 X-48.3508 Y46.3007 
G01 X-48.2232 Y46.2154 
G01 X-48.1146 Y46.1068 
G01 X-48.0293 Y45.9792 
G01 X-47.9706 Y45.8373 
G01 X-47.9406 Y45.6868 
G01 X-47.9406 Y45.5332 
G01 X-47.9706 Y45.3827 
G01 X-48.0293 Y45.2408 
G01 X-48.1146 Y45.1132 
G01 X-48.2232 Y45.0046 
G01 X-48.3508 Y44.9193 
G01 X-48.4927 Y44.8606 
G01 X-48.6432 Y44.8306 
G01 X-48.7968 Y44.8306 
G01 X-48.9473 Y44.8606 
G01 X-49.0892 Y44.9193 
G01 X-49.2168 Y45.0046 
G01 X-49.3254 Y45.1132 
G01 X-49.4107 Y45.2408 
G01 X-49.4694 Y45.3827 
G01 X-49.4994 Y45.5332 
G01 X-49.4994 Y45.6868 
G01 X-49.4694 Y45.8373 
G01 X-49.4107 Y45.9792 
G01 X-49.3254 Y46.1068 
G00 Z2.5400  
G00 X-49.3254 Y44.1068 
G01 Z-0.0600 F90    
G01 X-49.2168 Y44.2154 F300   
G01 X-49.0892 Y44.3007 
G01 X-48.9473 Y44.3594 
G01 X-48.7968 Y44.3894 
G01 X-48.6432 Y44.3894 
G01 X-48.4927 Y44.3594 
G01 X-48.3508 Y44.3007 
G01 X-48.2232 Y44.2154 
G01 X-48.1146 Y44.1068 
G01 X-48.0293 Y43.9792 
G01 X-47.9706 Y43.8373 
G01 X-47.9406 Y43.6868 
G01 X-47.9406 Y43.5332 
G01 X-47.9706 Y43.3827 
G01 X-48.0293 Y43.2408 
G01 X-48.1146 Y43.1132 
G01 X-48.2232 Y43.0046 
G01 X-48.3508 Y42.9193 
G01 X-48.4927 Y42.8606 
G01 X-48.6432 Y42.8306 
G01 X-48.7968 Y42.8306 
G01 X-48.9473 Y42.8606 
G01 X-49.0892 Y42.9193 
G01 X-49.2168 Y43.0046 
G01 X-49.3254 Y43.1132 
G01 X-49.4107 Y43.2408 
G01 X-49.4694 Y43.3827 
G01 X-49.4994 Y43.5332 
G01 X-49.4994 Y43.6868 
G01 X-49.4694 Y43.8373 
G01 X-49.4107 Y43.9792 
G01 X-49.3254 Y44.1068 
G00 Z2.5400  
G00 X-50.1146 Y44.1068 
G01 Z-0.0600 F90    
G01 X-50.0293 Y43.9792 F300   
G01 X-49.9706 Y43.8373 
G01 X-49.9406 Y43.6868 
G01 X-49.9406 Y43.5332 
G01 X-49.9706 Y43.3827 
G01 X-50.0293 Y43.2408 
G01 X-50.1146 Y43.1132 
G01 X-50.2232 Y43.0046 
G01 X-50.3508 Y42.9193 
G01 X-50.4927 Y42.8606 
G01 X-50.6432 Y42.8306 
G01 X-50.7968 Y42.8306 
G01 X-50.9473 Y42.8606 
G01 X-51.0892 Y42.9193 
G01 X-51.2168 Y43.0046 
G01 X-51.3254 Y43.1132 
G01 X-51.4107 Y43.2408 
G01 X-51.4694 Y43.3827 
G01 X-51.4994 Y43.5332 
G01 X-51.4994 Y43.6868 
G01 X-51.4694 Y43.8373 
G01 X-51.4107 Y43.9792 
G01 X-51.3254 Y44.1068 
G01 X-51.2168 Y44.2154 
G01 X-51.0892 Y44.3007 
G01 X-50.9473 Y44.3594 
G01 X-50.7968 Y44.3894 
G01 X-50.6432 Y44.3894 
G01 X-50.4927 Y44.3594 
G01 X-50.3508 Y44.3007 
G01 X-50.2232 Y44.2154 
G01 X-50.1146 Y44.1068 
G00 Z2.5400  
G00 X-50.2232 Y42.2154 
G01 Z-0.0600 F90    
G01 X-50.1146 Y42.1068 F300   
G01 X-50.0293 Y41.9792 
G01 X-49.9706 Y41.8373 
G01 X-49.9406 Y41.6868 
G01 X-49.9406 Y41.5332 
G01 X-49.9706 Y41.3827 
G01 X-50.0293 Y41.2408 
G01 X-50.1146 Y41.1132 
G01 X-50.2232 Y41.0046 
G01 X-50.3508 Y40.9193 
G01 X-50.4927 Y40.8606 
G01 X-50.6432 Y40.8306 
G01 X-50.7968 Y40.8306 
G01 X-50.9473 Y40.8606 
G01 X-51.0892 Y40.9193 
G01 X-51.2168 Y41.0046 
G01 X-51.3254 Y41.1132 
G01 X-51.4107 Y41.2408 
G01 X-51.4694 Y41.3827 
G01 X-51.4994 Y41.5332 
G01 X-51.4994 Y41.6868 
G01 X-51.4694 Y41.8373 
G01 X-51.4107 Y41.9792 
G01 X-51.3254 Y42.1068 
G01 X-51.2168 Y42.2154 
G01 X-51.0892 Y42.3007 
G01 X-50.9473 Y42.3594 
G01 X-50.7968 Y42.3894 
G01 X-50.6432 Y42.3894 
G01 X-50.4927 Y42.3594 
G01 X-50.3508 Y42.3007 
G01 X-50.2232 Y42.2154 
G00 Z2.5400  
G00 X-49.3254 Y42.1068 
G01 Z-0.0600 F90    
G01 X-49.2168 Y42.2154 F300   
G01 X-49.0892 Y42.3007 
G01 X-48.9473 Y42.3594 
G01 X-48.7968 Y42.3894 
G01 X-48.6432 Y42.3894 
G01 X-48.4927 Y42.3594 
G01 X-48.3508 Y42.3007 
G01 X-48.2232 Y42.2154 
G01 X-48.1146 Y42.1068 
G01 X-48.0293 Y41.9792 
G01 X-47.9706 Y41.8373 
G01 X-47.9406 Y41.6868 
G01 X-47.9406 Y41.5332 
G01 X-47.9706 Y41.3827 
G01 X-48.0293 Y41.2408 
G01 X-48.1146 Y41.1132 
G01 X-48.2232 Y41.0046 
G01 X-48.3508 Y40.9193 
G01 X-48.4927 Y40.8606 
G01 X-48.6432 Y40.8306 
G01 X-48.7968 Y40.8306 
G01 X-48.9473 Y40.8606 
G01 X-49.0892 Y40.9193 
G01 X-49.2168 Y41.0046 
G01 X-49.3254 Y41.1132 
G01 X-49.4107 Y41.2408 
G01 X-49.4694 Y41.3827 
G01 X-49.4994 Y41.5332 
G01 X-49.4994 Y41.6868 
G01 X-49.4694 Y41.8373 
G01 X-49.4107 Y41.9792 
G01 X-49.3254 Y42.1068 
G00 Z2.5400  
G00 X-49.3254 Y40.1068 
G01 Z-0.0600 F90    
G01 X-49.2168 Y40.2154 F300   
G01 X-49.0892 Y40.3007 
G01 X-48.9473 Y40.3594 
G01 X-48.7968 Y40.3894 
G01 X-48.6432 Y40.3894 
G01 X-48.4927 Y40.3594 
G01 X-48.3508 Y40.3007 
G01 X-48.2232 Y40.2154 
G01 X-48.1146 Y40.1068 
G01 X-48.0293 Y39.9792 
G01 X-47.9706 Y39.8373 
G01 X-47.9406 Y39.6868 
G01 X-47.9406 Y39.5332 
G01 X-47.9706 Y39.3827 
G01 X-48.0293 Y39.2408 
G01 X-48.1146 Y39.1132 
G01 X-48.2232 Y39.0046 
G01 X-48.3508 Y38.9193 
G01 X-48.4927 Y38.8606 
G01 X-48.6432 Y38.8306 
G01 X-48.7968 Y38.8306 
G01 X-48.9473 Y38.8606 
G01 X-49.0892 Y38.9193 
G01 X-49.2168 Y39.0046 
G01 X-49.3254 Y39.1132 
G01 X-49.4107 Y39.2408 
G01 X-49.4694 Y39.3827 
G01 X-49.4994 Y39.5332 
G01 X-49.4994 Y39.6868 
G01 X-49.4694 Y39.8373 
G01 X-49.4107 Y39.9792 
G01 X-49.3254 Y40.1068 
G00 Z2.5400  
G00 X-50.1146 Y40.1068 
G01 Z-0.0600 F90    
G01 X-50.0293 Y39.9792 F300   
G01 X-49.9706 Y39.8373 
G01 X-49.9406 Y39.6868 
G01 X-49.9406 Y39.5332 
G01 X-49.9706 Y39.3827 
G01 X-50.0293 Y39.2408 
G01 X-50.1146 Y39.1132 
G01 X-50.2232 Y39.0046 
G01 X-50.3508 Y38.9193 
G01 X-50.4927 Y38.8606 
G01 X-50.6432 Y38.8306 
G01 X-50.7968 Y38.8306 
G01 X-50.9473 Y38.8606 
G01 X-51.0892 Y38.9193 
G01 X-51.2168 Y39.0046 
G01 X-51.3254 Y39.1132 
G01 X-51.4107 Y39.2408 
G01 X-51.4694 Y39.3827 
G01 X-51.4994 Y39.5332 
G01 X-51.4994 Y39.6868 
G01 X-51.4694 Y39.8373 
G01 X-51.4107 Y39.9792 
G01 X-51.3254 Y40.1068 
G01 X-51.2168 Y40.2154 
G01 X-51.0892 Y40.3007 
G01 X-50.9473 Y40.3594 
G01 X-50.7968 Y40.3894 
G01 X-50.6432 Y40.3894 
G01 X-50.4927 Y40.3594 
G01 X-50.3508 Y40.3007 
G01 X-50.2232 Y40.2154 
G01 X-50.1146 Y40.1068 
G00 Z2.5400  
G00 X-49.3254 Y38.1068 
G01 Z-0.0600 F90    
G01 X-49.2168 Y38.2154 F300   
G01 X-49.0892 Y38.3007 
G01 X-48.9473 Y38.3594 
G01 X-48.7968 Y38.3894 
G01 X-48.6432 Y38.3894 
G01 X-48.4927 Y38.3594 
G01 X-48.3508 Y38.3007 
G01 X-48.2232 Y38.2154 
G01 X-48.1146 Y38.1068 
G01 X-48.0293 Y37.9792 
G01 X-47.9706 Y37.8373 
G01 X-47.9406 Y37.6868 
G01 X-47.9406 Y37.5332 
G01 X-47.9706 Y37.3827 
G01 X-48.0293 Y37.2408 
G01 X-48.1146 Y37.1132 
G01 X-48.2232 Y37.0046 
G01 X-48.3508 Y36.9193 
G01 X-48.4927 Y36.8606 
G01 X-48.6432 Y36.8306 
G01 X-48.7968 Y36.8306 
G01 X-48.9473 Y36.8606 
G01 X-49.0892 Y36.9193 
G01 X-49.2168 Y37.0046 
G01 X-49.3254 Y37.1132 
G01 X-49.4107 Y37.2408 
G01 X-49.4694 Y37.3827 
G01 X-49.4994 Y37.5332 
G01 X-49.4994 Y37.6868 
G01 X-49.4694 Y37.8373 
G01 X-49.4107 Y37.9792 
G01 X-49.3254 Y38.1068 
G00 Z2.5400  
G00 X-49.3254 Y36.1068 
G01 Z-0.0600 F90    
G01 X-49.2168 Y36.2154 F300   
G01 X-49.0892 Y36.3007 
G01 X-48.9473 Y36.3594 
G01 X-48.7968 Y36.3894 
G01 X-48.6432 Y36.3894 
G01 X-48.4927 Y36.3594 
G01 X-48.3508 Y36.3007 
G01 X-48.2232 Y36.2154 
G01 X-48.1146 Y36.1068 
G01 X-48.0293 Y35.9792 
G01 X-47.9706 Y35.8373 
G01 X-47.9406 Y35.6868 
G01 X-47.9406 Y35.5332 
G01 X-47.9706 Y35.3827 
G01 X-48.0293 Y35.2408 
G01 X-48.1146 Y35.1132 
G01 X-48.2232 Y35.0046 
G01 X-48.3508 Y34.9193 
G01 X-48.4927 Y34.8606 
G01 X-48.6432 Y34.8306 
G01 X-48.7968 Y34.8306 
G01 X-48.9473 Y34.8606 
G01 X-49.0892 Y34.9193 
G01 X-49.2168 Y35.0046 
G01 X-49.3254 Y35.1132 
G01 X-49.4107 Y35.2408 
G01 X-49.4694 Y35.3827 
G01 X-49.4994 Y35.5332 
G01 X-49.4994 Y35.6868 
G01 X-49.4694 Y35.8373 
G01 X-49.4107 Y35.9792 
G01 X-49.3254 Y36.1068 
G00 Z2.5400  
G00 X-50.1146 Y36.1068 
G01 Z-0.0600 F90    
G01 X-50.0293 Y35.9792 F300   
G01 X-49.9706 Y35.8373 
G01 X-49.9406 Y35.6868 
G01 X-49.9406 Y35.5332 
G01 X-49.9706 Y35.3827 
G01 X-50.0293 Y35.2408 
G01 X-50.1146 Y35.1132 
G01 X-50.2232 Y35.0046 
G01 X-50.3508 Y34.9193 
G01 X-50.4927 Y34.8606 
G01 X-50.6432 Y34.8306 
G01 X-50.7968 Y34.8306 
G01 X-50.9473 Y34.8606 
G01 X-51.0892 Y34.9193 
G01 X-51.2168 Y35.0046 
G01 X-51.3254 Y35.1132 
G01 X-51.4107 Y35.2408 
G01 X-51.4694 Y35.3827 
G01 X-51.4994 Y35.5332 
G01 X-51.4994 Y35.6868 
G01 X-51.4694 Y35.8373 
G01 X-51.4107 Y35.9792 
G01 X-51.3254 Y36.1068 
G01 X-51.2168 Y36.2154 
G01 X-51.0892 Y36.3007 
G01 X-50.9473 Y36.3594 
G01 X-50.7968 Y36.3894 
G01 X-50.6432 Y36.3894 
G01 X-50.4927 Y36.3594 
G01 X-50.3508 Y36.3007 
G01 X-50.2232 Y36.2154 
G01 X-50.1146 Y36.1068 
G00 Z2.5400  
G00 X-50.2232 Y34.2154 
G01 Z-0.0600 F90    
G01 X-50.1146 Y34.1068 F300   
G01 X-50.0293 Y33.9792 
G01 X-49.9706 Y33.8373 
G01 X-49.9406 Y33.6868 
G01 X-49.9406 Y33.5332 
G01 X-49.9706 Y33.3827 
G01 X-50.0293 Y33.2408 
G01 X-50.1146 Y33.1132 
G01 X-50.2232 Y33.0046 
G01 X-50.3508 Y32.9193 
G01 X-50.4927 Y32.8606 
G01 X-50.6432 Y32.8306 
G01 X-50.7968 Y32.8306 
G01 X-50.9473 Y32.8606 
G01 X-51.0892 Y32.9193 
G01 X-51.2168 Y33.0046 
G01 X-51.3254 Y33.1132 
G01 X-51.4107 Y33.2408 
G01 X-51.4694 Y33.3827 
G01 X-51.4994 Y33.5332 
G01 X-51.4994 Y33.6868 
G01 X-51.4694 Y33.8373 
G01 X-51.4107 Y33.9792 
G01 X-51.3254 Y34.1068 
G01 X-51.2168 Y34.2154 
G01 X-51.0892 Y34.3007 
G01 X-50.9473 Y34.3594 
G01 X-50.7968 Y34.3894 
G01 X-50.6432 Y34.3894 
G01 X-50.4927 Y34.3594 
G01 X-50.3508 Y34.3007 
G01 X-50.2232 Y34.2154 
G00 Z2.5400  
G00 X-49.3254 Y34.1068 
G01 Z-0.0600 F90    
G01 X-49.2168 Y34.2154 F300   
G01 X-49.0892 Y34.3007 
G01 X-48.9473 Y34.3594 
G01 X-48.7968 Y34.3894 
G01 X-48.6432 Y34.3894 
G01 X-48.4927 Y34.3594 
G01 X-48.3508 Y34.3007 
G01 X-48.2232 Y34.2154 
G01 X-48.1146 Y34.1068 
G01 X-48.0293 Y33.9792 
G01 X-47.9706 Y33.8373 
G01 X-47.9406 Y33.6868 
G01 X-47.9406 Y33.5332 
G01 X-47.9706 Y33.3827 
G01 X-48.0293 Y33.2408 
G01 X-48.1146 Y33.1132 
G01 X-48.2232 Y33.0046 
G01 X-48.3508 Y32.9193 
G01 X-48.4927 Y32.8606 
G01 X-48.6432 Y32.8306 
G01 X-48.7968 Y32.8306 
G01 X-48.9473 Y32.8606 
G01 X-49.0892 Y32.9193 
G01 X-49.2168 Y33.0046 
G01 X-49.3254 Y33.1132 
G01 X-49.4107 Y33.2408 
G01 X-49.4694 Y33.3827 
G01 X-49.4994 Y33.5332 
G01 X-49.4994 Y33.6868 
G01 X-49.4694 Y33.8373 
G01 X-49.4107 Y33.9792 
G01 X-49.3254 Y34.1068 
G00 Z2.5400  
G00 X-49.3254 Y32.1068 
G01 Z-0.0600 F90    
G01 X-49.2168 Y32.2154 F300   
G01 X-49.0892 Y32.3007 
G01 X-48.9473 Y32.3594 
G01 X-48.7968 Y32.3894 
G01 X-48.6432 Y32.3894 
G01 X-48.4927 Y32.3594 
G01 X-48.3508 Y32.3007 
G01 X-48.2232 Y32.2154 
G01 X-48.1146 Y32.1068 
G01 X-48.0293 Y31.9792 
G01 X-47.9706 Y31.8373 
G01 X-47.9406 Y31.6868 
G01 X-47.9406 Y31.5332 
G01 X-47.9706 Y31.3827 
G01 X-48.0293 Y31.2408 
G01 X-48.1146 Y31.1132 
G01 X-48.2232 Y31.0046 
G01 X-48.3508 Y30.9193 
G01 X-48.4927 Y30.8606 
G01 X-48.6432 Y30.8306 
G01 X-48.7968 Y30.8306 
G01 X-48.9473 Y30.8606 
G01 X-49.0892 Y30.9193 
G01 X-49.2168 Y31.0046 
G01 X-49.3254 Y31.1132 
G01 X-49.4107 Y31.2408 
G01 X-49.4694 Y31.3827 
G01 X-49.4994 Y31.5332 
G01 X-49.4994 Y31.6868 
G01 X-49.4694 Y31.8373 
G01 X-49.4107 Y31.9792 
G01 X-49.3254 Y32.1068 
G00 Z2.5400  
G00 X-50.1146 Y32.1068 
G01 Z-0.0600 F90    
G01 X-50.0293 Y31.9792 F300   
G01 X-49.9706 Y31.8373 
G01 X-49.9406 Y31.6868 
G01 X-49.9406 Y31.5332 
G01 X-49.9706 Y31.3827 
G01 X-50.0293 Y31.2408 
G01 X-50.1146 Y31.1132 
G01 X-50.2232 Y31.0046 
G01 X-50.3508 Y30.9193 
G01 X-50.4927 Y30.8606 
G01 X-50.6432 Y30.8306 
G01 X-50.7968 Y30.8306 
G01 X-50.9473 Y30.8606 
G01 X-51.0892 Y30.9193 
G01 X-51.2168 Y31.0046 
G01 X-51.3254 Y31.1132 
G01 X-51.4107 Y31.2408 
G01 X-51.4694 Y31.3827 
G01 X-51.4994 Y31.5332 
G01 X-51.4994 Y31.6868 
G01 X-51.4694 Y31.8373 
G01 X-51.4107 Y31.9792 
G01 X-51.3254 Y32.1068 
G01 X-51.2168 Y32.2154 
G01 X-51.0892 Y32.3007 
G01 X-50.9473 Y32.3594 
G01 X-50.7968 Y32.3894 
G01 X-50.6432 Y32.3894 
G01 X-50.4927 Y32.3594 
G01 X-50.3508 Y32.3007 
G01 X-50.2232 Y32.2154 
G01 X-50.1146 Y32.1068 
G00 Z2.5400  
G00 X-50.2232 Y30.2154 
G01 Z-0.0600 F90    
G01 X-50.1146 Y30.1068 F300   
G01 X-50.0293 Y29.9792 
G01 X-49.9706 Y29.8373 
G01 X-49.9406 Y29.6868 
G01 X-49.9406 Y29.5332 
G01 X-49.9706 Y29.3827 
G01 X-50.0293 Y29.2408 
G01 X-50.1146 Y29.1132 
G01 X-50.2232 Y29.0046 
G01 X-50.3508 Y28.9193 
G01 X-50.4927 Y28.8606 
G01 X-50.6432 Y28.8306 
G01 X-50.7968 Y28.8306 
G01 X-50.9473 Y28.8606 
G01 X-51.0892 Y28.9193 
G01 X-51.2168 Y29.0046 
G01 X-51.3254 Y29.1132 
G01 X-51.4107 Y29.2408 
G01 X-51.4694 Y29.3827 
G01 X-51.4994 Y29.5332 
G01 X-51.4994 Y29.6868 
G01 X-51.4694 Y29.8373 
G01 X-51.4107 Y29.9792 
G01 X-51.3254 Y30.1068 
G01 X-51.2168 Y30.2154 
G01 X-51.0892 Y30.3007 
G01 X-50.9473 Y30.3594 
G01 X-50.7968 Y30.3894 
G01 X-50.6432 Y30.3894 
G01 X-50.4927 Y30.3594 
G01 X-50.3508 Y30.3007 
G01 X-50.2232 Y30.2154 
G00 Z2.5400  
G00 X-49.3254 Y30.1068 
G01 Z-0.0600 F90    
G01 X-49.2168 Y30.2154 F300   
G01 X-49.0892 Y30.3007 
G01 X-48.9473 Y30.3594 
G01 X-48.7968 Y30.3894 
G01 X-48.6432 Y30.3894 
G01 X-48.4927 Y30.3594 
G01 X-48.3508 Y30.3007 
G01 X-48.2232 Y30.2154 
G01 X-48.1146 Y30.1068 
G01 X-48.0293 Y29.9792 
G01 X-47.9706 Y29.8373 
G01 X-47.9406 Y29.6868 
G01 X-47.9406 Y29.5332 
G01 X-47.9706 Y29.3827 
G01 X-48.0293 Y29.2408 
G01 X-48.1146 Y29.1132 
G01 X-48.2232 Y29.0046 
G01 X-48.3508 Y28.9193 
G01 X-48.4927 Y28.8606 
G01 X-48.6432 Y28.8306 
G01 X-48.7968 Y28.8306 
G01 X-48.9473 Y28.8606 
G01 X-49.0892 Y28.9193 
G01 X-49.2168 Y29.0046 
G01 X-49.3254 Y29.1132 
G01 X-49.4107 Y29.2408 
G01 X-49.4694 Y29.3827 
G01 X-49.4994 Y29.5332 
G01 X-49.4994 Y29.6868 
G01 X-49.4694 Y29.8373 
G01 X-49.4107 Y29.9792 
G01 X-49.3254 Y30.1068 
G00 Z2.5400  
G00 X-49.3254 Y28.1068 
G01 Z-0.0600 F90    
G01 X-49.2168 Y28.2154 F300   
G01 X-49.0892 Y28.3007 
G01 X-48.9473 Y28.3594 
G01 X-48.7968 Y28.3894 
G01 X-48.6432 Y28.3894 
G01 X-48.4927 Y28.3594 
G01 X-48.3508 Y28.3007 
G01 X-48.2232 Y28.2154 
G01 X-48.1146 Y28.1068 
G01 X-48.0293 Y27.9792 
G01 X-47.9706 Y27.8373 
G01 X-47.9406 Y27.6868 
G01 X-47.9406 Y27.5332 
G01 X-47.9706 Y27.3827 
G01 X-48.0293 Y27.2408 
G01 X-48.1146 Y27.1132 
G01 X-48.2232 Y27.0046 
G01 X-48.3508 Y26.9193 
G01 X-48.4927 Y26.8606 
G01 X-48.6432 Y26.8306 
G01 X-48.7968 Y26.8306 
G01 X-48.9473 Y26.8606 
G01 X-49.0892 Y26.9193 
G01 X-49.2168 Y27.0046 
G01 X-49.3254 Y27.1132 
G01 X-49.4107 Y27.2408 
G01 X-49.4694 Y27.3827 
G01 X-49.4994 Y27.5332 
G01 X-49.4994 Y27.6868 
G01 X-49.4694 Y27.8373 
G01 X-49.4107 Y27.9792 
G01 X-49.3254 Y28.1068 
G00 Z2.5400  
G00 X-50.1146 Y28.1068 
G01 Z-0.0600 F90    
G01 X-50.0293 Y27.9792 F300   
G01 X-49.9706 Y27.8373 
G01 X-49.9406 Y27.6868 
G01 X-49.9406 Y27.5332 
G01 X-49.9706 Y27.3827 
G01 X-50.0293 Y27.2408 
G01 X-50.1146 Y27.1132 
G01 X-50.2232 Y27.0046 
G01 X-50.3508 Y26.9193 
G01 X-50.4927 Y26.8606 
G01 X-50.6432 Y26.8306 
G01 X-50.7968 Y26.8306 
G01 X-50.9473 Y26.8606 
G01 X-51.0892 Y26.9193 
G01 X-51.2168 Y27.0046 
G01 X-51.3254 Y27.1132 
G01 X-51.4107 Y27.2408 
G01 X-51.4694 Y27.3827 
G01 X-51.4994 Y27.5332 
G01 X-51.4994 Y27.6868 
G01 X-51.4694 Y27.8373 
G01 X-51.4107 Y27.9792 
G01 X-51.3254 Y28.1068 
G01 X-51.2168 Y28.2154 
G01 X-51.0892 Y28.3007 
G01 X-50.9473 Y28.3594 
G01 X-50.7968 Y28.3894 
G01 X-50.6432 Y28.3894 
G01 X-50.4927 Y28.3594 
G01 X-50.3508 Y28.3007 
G01 X-50.2232 Y28.2154 
G01 X-50.1146 Y28.1068 
G00 Z2.5400  
G00 X-50.2232 Y26.2154 
G01 Z-0.0600 F90    
G01 X-50.1146 Y26.1068 F300   
G01 X-50.0293 Y25.9792 
G01 X-49.9706 Y25.8373 
G01 X-49.9406 Y25.6868 
G01 X-49.9406 Y25.5332 
G01 X-49.9706 Y25.3827 
G01 X-50.0293 Y25.2408 
G01 X-50.1146 Y25.1132 
G01 X-50.2232 Y25.0046 
G01 X-50.3508 Y24.9193 
G01 X-50.4927 Y24.8606 
G01 X-50.6432 Y24.8306 
G01 X-50.7968 Y24.8306 
G01 X-50.9473 Y24.8606 
G01 X-51.0892 Y24.9193 
G01 X-51.2168 Y25.0046 
G01 X-51.3254 Y25.1132 
G01 X-51.4107 Y25.2408 
G01 X-51.4694 Y25.3827 
G01 X-51.4994 Y25.5332 
G01 X-51.4994 Y25.6868 
G01 X-51.4694 Y25.8373 
G01 X-51.4107 Y25.9792 
G01 X-51.3254 Y26.1068 
G01 X-51.2168 Y26.2154 
G01 X-51.0892 Y26.3007 
G01 X-50.9473 Y26.3594 
G01 X-50.7968 Y26.3894 
G01 X-50.6432 Y26.3894 
G01 X-50.4927 Y26.3594 
G01 X-50.3508 Y26.3007 
G01 X-50.2232 Y26.2154 
G00 Z2.5400  
G00 X-49.3254 Y26.1068 
G01 Z-0.0600 F90    
G01 X-49.2168 Y26.2154 F300   
G01 X-49.0892 Y26.3007 
G01 X-48.9473 Y26.3594 
G01 X-48.7968 Y26.3894 
G01 X-48.6432 Y26.3894 
G01 X-48.4927 Y26.3594 
G01 X-48.3508 Y26.3007 
G01 X-48.2232 Y26.2154 
G01 X-48.1146 Y26.1068 
G01 X-48.0293 Y25.9792 
G01 X-47.9706 Y25.8373 
G01 X-47.9406 Y25.6868 
G01 X-47.9406 Y25.5332 
G01 X-47.9706 Y25.3827 
G01 X-48.0293 Y25.2408 
G01 X-48.1146 Y25.1132 
G01 X-48.2232 Y25.0046 
G01 X-48.3508 Y24.9193 
G01 X-48.4927 Y24.8606 
G01 X-48.6432 Y24.8306 
G01 X-48.7968 Y24.8306 
G01 X-48.9473 Y24.8606 
G01 X-49.0892 Y24.9193 
G01 X-49.2168 Y25.0046 
G01 X-49.3254 Y25.1132 
G01 X-49.4107 Y25.2408 
G01 X-49.4694 Y25.3827 
G01 X-49.4994 Y25.5332 
G01 X-49.4994 Y25.6868 
G01 X-49.4694 Y25.8373 
G01 X-49.4107 Y25.9792 
G01 X-49.3254 Y26.1068 
G00 Z2.5400  
G00 X-49.3254 Y24.1068 
G01 Z-0.0600 F90    
G01 X-49.2168 Y24.2154 F300   
G01 X-49.0892 Y24.3007 
G01 X-48.9473 Y24.3594 
G01 X-48.7968 Y24.3894 
G01 X-48.6432 Y24.3894 
G01 X-48.4927 Y24.3594 
G01 X-48.3508 Y24.3007 
G01 X-48.2232 Y24.2154 
G01 X-48.1146 Y24.1068 
G01 X-48.0293 Y23.9792 
G01 X-47.9706 Y23.8373 
G01 X-47.9406 Y23.6868 
G01 X-47.9406 Y23.5332 
G01 X-47.9706 Y23.3827 
G01 X-48.0293 Y23.2408 
G01 X-48.1146 Y23.1132 
G01 X-48.2232 Y23.0046 
G01 X-48.3508 Y22.9193 
G01 X-48.4927 Y22.8606 
G01 X-48.6432 Y22.8306 
G01 X-48.7968 Y22.8306 
G01 X-48.9473 Y22.8606 
G01 X-49.0892 Y22.9193 
G01 X-49.2168 Y23.0046 
G01 X-49.3254 Y23.1132 
G01 X-49.4107 Y23.2408 
G01 X-49.4694 Y23.3827 
G01 X-49.4994 Y23.5332 
G01 X-49.4994 Y23.6868 
G01 X-49.4694 Y23.8373 
G01 X-49.4107 Y23.9792 
G01 X-49.3254 Y24.1068 
G00 Z2.5400  
G00 X-50.1146 Y24.1068 
G01 Z-0.0600 F90    
G01 X-50.0293 Y23.9792 F300   
G01 X-49.9706 Y23.8373 
G01 X-49.9406 Y23.6868 
G01 X-49.9406 Y23.5332 
G01 X-49.9706 Y23.3827 
G01 X-50.0293 Y23.2408 
G01 X-50.1146 Y23.1132 
G01 X-50.2232 Y23.0046 
G01 X-50.3508 Y22.9193 
G01 X-50.4927 Y22.8606 
G01 X-50.6432 Y22.8306 
G01 X-50.7968 Y22.8306 
G01 X-50.9473 Y22.8606 
G01 X-51.0892 Y22.9193 
G01 X-51.2168 Y23.0046 
G01 X-51.3254 Y23.1132 
G01 X-51.4107 Y23.2408 
G01 X-51.4694 Y23.3827 
G01 X-51.4994 Y23.5332 
G01 X-51.4994 Y23.6868 
G01 X-51.4694 Y23.8373 
G01 X-51.4107 Y23.9792 
G01 X-51.3254 Y24.1068 
G01 X-51.2168 Y24.2154 
G01 X-51.0892 Y24.3007 
G01 X-50.9473 Y24.3594 
G01 X-50.7968 Y24.3894 
G01 X-50.6432 Y24.3894 
G01 X-50.4927 Y24.3594 
G01 X-50.3508 Y24.3007 
G01 X-50.2232 Y24.2154 
G01 X-50.1146 Y24.1068 
G00 Z2.5400  
G00 X-50.2232 Y22.2154 
G01 Z-0.0600 F90    
G01 X-50.1146 Y22.1068 F300   
G01 X-50.0293 Y21.9792 
G01 X-49.9706 Y21.8373 
G01 X-49.9406 Y21.6868 
G01 X-49.9406 Y21.5332 
G01 X-49.9706 Y21.3827 
G01 X-50.0293 Y21.2408 
G01 X-50.1146 Y21.1132 
G01 X-50.2232 Y21.0046 
G01 X-50.3508 Y20.9193 
G01 X-50.4927 Y20.8606 
G01 X-50.6432 Y20.8306 
G01 X-50.7968 Y20.8306 
G01 X-50.9473 Y20.8606 
G01 X-51.0892 Y20.9193 
G01 X-51.2168 Y21.0046 
G01 X-51.3254 Y21.1132 
G01 X-51.4107 Y21.2408 
G01 X-51.4694 Y21.3827 
G01 X-51.4994 Y21.5332 
G01 X-51.4994 Y21.6868 
G01 X-51.4694 Y21.8373 
G01 X-51.4107 Y21.9792 
G01 X-51.3254 Y22.1068 
G01 X-51.2168 Y22.2154 
G01 X-51.0892 Y22.3007 
G01 X-50.9473 Y22.3594 
G01 X-50.7968 Y22.3894 
G01 X-50.6432 Y22.3894 
G01 X-50.4927 Y22.3594 
G01 X-50.3508 Y22.3007 
G01 X-50.2232 Y22.2154 
G00 Z2.5400  
G00 X-49.3254 Y22.1068 
G01 Z-0.0600 F90    
G01 X-49.2168 Y22.2154 F300   
G01 X-49.0892 Y22.3007 
G01 X-48.9473 Y22.3594 
G01 X-48.7968 Y22.3894 
G01 X-48.6432 Y22.3894 
G01 X-48.4927 Y22.3594 
G01 X-48.3508 Y22.3007 
G01 X-48.2232 Y22.2154 
G01 X-48.1146 Y22.1068 
G01 X-48.0293 Y21.9792 
G01 X-47.9706 Y21.8373 
G01 X-47.9406 Y21.6868 
G01 X-47.9406 Y21.5332 
G01 X-47.9706 Y21.3827 
G01 X-48.0293 Y21.2408 
G01 X-48.1146 Y21.1132 
G01 X-48.2232 Y21.0046 
G01 X-48.3508 Y20.9193 
G01 X-48.4927 Y20.8606 
G01 X-48.6432 Y20.8306 
G01 X-48.7968 Y20.8306 
G01 X-48.9473 Y20.8606 
G01 X-49.0892 Y20.9193 
G01 X-49.2168 Y21.0046 
G01 X-49.3254 Y21.1132 
G01 X-49.4107 Y21.2408 
G01 X-49.4694 Y21.3827 
G01 X-49.4994 Y21.5332 
G01 X-49.4994 Y21.6868 
G01 X-49.4694 Y21.8373 
G01 X-49.4107 Y21.9792 
G01 X-49.3254 Y22.1068 
G00 Z2.5400  
G00 X-49.3254 Y20.1068 
G01 Z-0.0600 F90    
G01 X-49.2168 Y20.2154 F300   
G01 X-49.0892 Y20.3007 
G01 X-48.9473 Y20.3594 
G01 X-48.7968 Y20.3894 
G01 X-48.6432 Y20.3894 
G01 X-48.4927 Y20.3594 
G01 X-48.3508 Y20.3007 
G01 X-48.2232 Y20.2154 
G01 X-48.1146 Y20.1068 
G01 X-48.0293 Y19.9792 
G01 X-47.9706 Y19.8373 
G01 X-47.9406 Y19.6868 
G01 X-47.9406 Y19.5332 
G01 X-47.9706 Y19.3827 
G01 X-48.0293 Y19.2408 
G01 X-48.1146 Y19.1132 
G01 X-48.2232 Y19.0046 
G01 X-48.3508 Y18.9193 
G01 X-48.4927 Y18.8606 
G01 X-48.6432 Y18.8306 
G01 X-48.7968 Y18.8306 
G01 X-48.9473 Y18.8606 
G01 X-49.0892 Y18.9193 
G01 X-49.2168 Y19.0046 
G01 X-49.3254 Y19.1132 
G01 X-49.4107 Y19.2408 
G01 X-49.4694 Y19.3827 
G01 X-49.4994 Y19.5332 
G01 X-49.4994 Y19.6868 
G01 X-49.4694 Y19.8373 
G01 X-49.4107 Y19.9792 
G01 X-49.3254 Y20.1068 
G00 Z2.5400  
G00 X-50.1146 Y20.1068 
G01 Z-0.0600 F90    
G01 X-50.0293 Y19.9792 F300   
G01 X-49.9706 Y19.8373 
G01 X-49.9406 Y19.6868 
G01 X-49.9406 Y19.5332 
G01 X-49.9706 Y19.3827 
G01 X-50.0293 Y19.2408 
G01 X-50.1146 Y19.1132 
G01 X-50.2232 Y19.0046 
G01 X-50.3508 Y18.9193 
G01 X-50.4927 Y18.8606 
G01 X-50.6432 Y18.8306 
G01 X-50.7968 Y18.8306 
G01 X-50.9473 Y18.8606 
G01 X-51.0892 Y18.9193 
G01 X-51.2168 Y19.0046 
G01 X-51.3254 Y19.1132 
G01 X-51.4107 Y19.2408 
G01 X-51.4694 Y19.3827 
G01 X-51.4994 Y19.5332 
G01 X-51.4994 Y19.6868 
G01 X-51.4694 Y19.8373 
G01 X-51.4107 Y19.9792 
G01 X-51.3254 Y20.1068 
G01 X-51.2168 Y20.2154 
G01 X-51.0892 Y20.3007 
G01 X-50.9473 Y20.3594 
G01 X-50.7968 Y20.3894 
G01 X-50.6432 Y20.3894 
G01 X-50.4927 Y20.3594 
G01 X-50.3508 Y20.3007 
G01 X-50.2232 Y20.2154 
G01 X-50.1146 Y20.1068 
G00 Z2.5400  
G00 X-50.2232 Y18.2154 
G01 Z-0.0600 F90    
G01 X-50.1146 Y18.1068 F300   
G01 X-50.0293 Y17.9792 
G01 X-49.9706 Y17.8373 
G01 X-49.9406 Y17.6868 
G01 X-49.9406 Y17.5332 
G01 X-49.9706 Y17.3827 
G01 X-50.0293 Y17.2408 
G01 X-50.1146 Y17.1132 
G01 X-50.2232 Y17.0046 
G01 X-50.3508 Y16.9193 
G01 X-50.4927 Y16.8606 
G01 X-50.6432 Y16.8306 
G01 X-50.7968 Y16.8306 
G01 X-50.9473 Y16.8606 
G01 X-51.0892 Y16.9193 
G01 X-51.2168 Y17.0046 
G01 X-51.3254 Y17.1132 
G01 X-51.4107 Y17.2408 
G01 X-51.4694 Y17.3827 
G01 X-51.4994 Y17.5332 
G01 X-51.4994 Y17.6868 
G01 X-51.4694 Y17.8373 
G01 X-51.4107 Y17.9792 
G01 X-51.3254 Y18.1068 
G01 X-51.2168 Y18.2154 
G01 X-51.0892 Y18.3007 
G01 X-50.9473 Y18.3594 
G01 X-50.7968 Y18.3894 
G01 X-50.6432 Y18.3894 
G01 X-50.4927 Y18.3594 
G01 X-50.3508 Y18.3007 
G01 X-50.2232 Y18.2154 
G00 Z2.5400  
G00 X-49.3254 Y18.1068 
G01 Z-0.0600 F90    
G01 X-49.2168 Y18.2154 F300   
G01 X-49.0892 Y18.3007 
G01 X-48.9473 Y18.3594 
G01 X-48.7968 Y18.3894 
G01 X-48.6432 Y18.3894 
G01 X-48.4927 Y18.3594 
G01 X-48.3508 Y18.3007 
G01 X-48.2232 Y18.2154 
G01 X-48.1146 Y18.1068 
G01 X-48.0293 Y17.9792 
G01 X-47.9706 Y17.8373 
G01 X-47.9406 Y17.6868 
G01 X-47.9406 Y17.5332 
G01 X-47.9706 Y17.3827 
G01 X-48.0293 Y17.2408 
G01 X-48.1146 Y17.1132 
G01 X-48.2232 Y17.0046 
G01 X-48.3508 Y16.9193 
G01 X-48.4927 Y16.8606 
G01 X-48.6432 Y16.8306 
G01 X-48.7968 Y16.8306 
G01 X-48.9473 Y16.8606 
G01 X-49.0892 Y16.9193 
G01 X-49.2168 Y17.0046 
G01 X-49.3254 Y17.1132 
G01 X-49.4107 Y17.2408 
G01 X-49.4694 Y17.3827 
G01 X-49.4994 Y17.5332 
G01 X-49.4994 Y17.6868 
G01 X-49.4694 Y17.8373 
G01 X-49.4107 Y17.9792 
G01 X-49.3254 Y18.1068 
G00 Z2.5400  
G00 X-49.3254 Y16.1068 
G01 Z-0.0600 F90    
G01 X-49.2168 Y16.2154 F300   
G01 X-49.0892 Y16.3007 
G01 X-48.9473 Y16.3594 
G01 X-48.7968 Y16.3894 
G01 X-48.6432 Y16.3894 
G01 X-48.4927 Y16.3594 
G01 X-48.3508 Y16.3007 
G01 X-48.2232 Y16.2154 
G01 X-48.1146 Y16.1068 
G01 X-48.0293 Y15.9792 
G01 X-47.9706 Y15.8373 
G01 X-47.9406 Y15.6868 
G01 X-47.9406 Y15.5332 
G01 X-47.9706 Y15.3827 
G01 X-48.0293 Y15.2408 
G01 X-48.1146 Y15.1132 
G01 X-48.2232 Y15.0046 
G01 X-48.3508 Y14.9193 
G01 X-48.4927 Y14.8606 
G01 X-48.6432 Y14.8306 
G01 X-48.7968 Y14.8306 
G01 X-48.9473 Y14.8606 
G01 X-49.0892 Y14.9193 
G01 X-49.2168 Y15.0046 
G01 X-49.3254 Y15.1132 
G01 X-49.4107 Y15.2408 
G01 X-49.4694 Y15.3827 
G01 X-49.4994 Y15.5332 
G01 X-49.4994 Y15.6868 
G01 X-49.4694 Y15.8373 
G01 X-49.4107 Y15.9792 
G01 X-49.3254 Y16.1068 
G00 Z2.5400  
G00 X-50.1146 Y16.1068 
G01 Z-0.0600 F90    
G01 X-50.0293 Y15.9792 F300   
G01 X-49.9706 Y15.8373 
G01 X-49.9406 Y15.6868 
G01 X-49.9406 Y15.5332 
G01 X-49.9706 Y15.3827 
G01 X-50.0293 Y15.2408 
G01 X-50.1146 Y15.1132 
G01 X-50.2232 Y15.0046 
G01 X-50.3508 Y14.9193 
G01 X-50.4927 Y14.8606 
G01 X-50.6432 Y14.8306 
G01 X-50.7968 Y14.8306 
G01 X-50.9473 Y14.8606 
G01 X-51.0892 Y14.9193 
G01 X-51.2168 Y15.0046 
G01 X-51.3254 Y15.1132 
G01 X-51.4107 Y15.2408 
G01 X-51.4694 Y15.3827 
G01 X-51.4994 Y15.5332 
G01 X-51.4994 Y15.6868 
G01 X-51.4694 Y15.8373 
G01 X-51.4107 Y15.9792 
G01 X-51.3254 Y16.1068 
G01 X-51.2168 Y16.2154 
G01 X-51.0892 Y16.3007 
G01 X-50.9473 Y16.3594 
G01 X-50.7968 Y16.3894 
G01 X-50.6432 Y16.3894 
G01 X-50.4927 Y16.3594 
G01 X-50.3508 Y16.3007 
G01 X-50.2232 Y16.2154 
G01 X-50.1146 Y16.1068 
G00 Z2.5400  
G00 X-36.8690 Y16.6134 
G01 Z-0.0600 F90    
G01 X-36.9706 Y16.7150 F300   
G01 X-37.0504 Y16.8345 
G01 X-37.1054 Y16.9672 
G01 X-37.1334 Y17.1082 
G01 X-37.1334 Y17.2518 
G01 X-37.1054 Y17.3928 
G01 X-37.0504 Y17.5255 
G01 X-36.9706 Y17.6450 
G01 X-36.8690 Y17.7466 
G01 X-36.7495 Y17.8264 
G01 X-36.6168 Y17.8814 
G01 X-36.4758 Y17.9094 
G01 X-35.0242 Y17.9094 
G01 X-34.8832 Y17.8814 
G01 X-34.7505 Y17.8264 
G01 X-34.6310 Y17.7466 
G01 X-34.5294 Y17.6450 
G01 X-34.4496 Y17.5255 
G01 X-34.3946 Y17.3928 
G01 X-34.3666 Y17.2518 
G01 X-34.3666 Y17.1082 
G01 X-34.3946 Y16.9672 
G01 X-34.4496 Y16.8345 
G01 X-34.5294 Y16.7150 
G01 X-34.6310 Y16.6134 
G01 X-34.7505 Y16.5336 
G01 X-34.8832 Y16.4786 
G01 X-35.0242 Y16.4506 
G01 X-36.4758 Y16.4506 
G01 X-36.6168 Y16.4786 
G01 X-36.7495 Y16.5336 
G01 X-36.8690 Y16.6134 
G00 Z2.5400  
G00 X-36.8690 Y15.2066 
G01 Z-0.0600 F90    
G01 X-36.7495 Y15.2864 F300   
G01 X-36.6168 Y15.3414 
G01 X-36.4758 Y15.3694 
G01 X-35.0242 Y15.3694 
G01 X-34.8832 Y15.3414 
G01 X-34.7505 Y15.2864 
G01 X-34.6310 Y15.2066 
G01 X-34.5294 Y15.1050 
G01 X-34.4496 Y14.9855 
G01 X-34.3946 Y14.8528 
G01 X-34.3666 Y14.7118 
G01 X-34.3666 Y14.5682 
G01 X-34.3946 Y14.4272 
G01 X-34.4496 Y14.2945 
G01 X-34.5294 Y14.1750 
G01 X-34.6310 Y14.0734 
G01 X-34.7505 Y13.9936 
G01 X-34.8832 Y13.9386 
G01 X-35.0242 Y13.9106 
G01 X-36.4758 Y13.9106 
G01 X-36.6168 Y13.9386 
G01 X-36.7495 Y13.9936 
G01 X-36.8690 Y14.0734 
G01 X-36.9706 Y14.1750 
G01 X-37.0504 Y14.2945 
G01 X-37.1054 Y14.4272 
G01 X-37.1334 Y14.5682 
G01 X-37.1334 Y14.7118 
G01 X-37.1054 Y14.8528 
G01 X-37.0504 Y14.9855 
G01 X-36.9706 Y15.1050 
G01 X-36.8690 Y15.2066 
G00 Z2.5400  
G00 X-36.8690 Y12.6666 
G01 Z-0.0600 F90    
G01 X-36.7495 Y12.7464 F300   
G01 X-36.6168 Y12.8014 
G01 X-36.4758 Y12.8294 
G01 X-35.0242 Y12.8294 
G01 X-34.8832 Y12.8014 
G01 X-34.7505 Y12.7464 
G01 X-34.6310 Y12.6666 
G01 X-34.5294 Y12.5650 
G01 X-34.4496 Y12.4455 
G01 X-34.3946 Y12.3128 
G01 X-34.3666 Y12.1718 
G01 X-34.3666 Y12.0282 
G01 X-34.3946 Y11.8872 
G01 X-34.4496 Y11.7545 
G01 X-34.5294 Y11.6350 
G01 X-34.6310 Y11.5334 
G01 X-34.7505 Y11.4536 
G01 X-34.8832 Y11.3986 
G01 X-35.0242 Y11.3706 
G01 X-36.4758 Y11.3706 
G01 X-36.6168 Y11.3986 
G01 X-36.7495 Y11.4536 
G01 X-36.8690 Y11.5334 
G01 X-36.9706 Y11.6350 
G01 X-37.0504 Y11.7545 
G01 X-37.1054 Y11.8872 
G01 X-37.1334 Y12.0282 
G01 X-37.1334 Y12.1718 
G01 X-37.1054 Y12.3128 
G01 X-37.0504 Y12.4455 
G01 X-36.9706 Y12.5650 
G01 X-36.8690 Y12.6666 
G00 Z2.5400  
G00 X-36.8690 Y10.1266 
G01 Z-0.0600 F90    
G01 X-36.7495 Y10.2064 F300   
G01 X-36.6168 Y10.2614 
G01 X-36.4758 Y10.2894 
G01 X-35.0242 Y10.2894 
G01 X-34.8832 Y10.2614 
G01 X-34.7505 Y10.2064 
G01 X-34.6310 Y10.1266 
G01 X-34.5294 Y10.0250 
G01 X-34.4496 Y9.9055  
G01 X-34.3946 Y9.7728  
G01 X-34.3666 Y9.6318  
G01 X-34.3666 Y9.4882  
G01 X-34.3946 Y9.3472  
G01 X-34.4496 Y9.2145  
G01 X-34.5294 Y9.0950  
G01 X-34.6310 Y8.9934  
G01 X-34.7505 Y8.9136  
G01 X-34.8832 Y8.8586  
G01 X-35.0242 Y8.8306  
G01 X-36.4758 Y8.8306  
G01 X-36.6168 Y8.8586  
G01 X-36.7495 Y8.9136  
G01 X-36.8690 Y8.9934  
G01 X-36.9706 Y9.0950  
G01 X-37.0504 Y9.2145  
G01 X-37.1054 Y9.3472  
G01 X-37.1334 Y9.4882  
G01 X-37.1334 Y9.6318  
G01 X-37.1054 Y9.7728  
G01 X-37.0504 Y9.9055  
G01 X-36.9706 Y10.0250 
G01 X-36.8690 Y10.1266 
G00 Z2.5400  
G00 X-31.1350 Y10.2634 
G01 Z-0.0600 F90    
G01 X-31.2366 Y10.3650 F300   
G01 X-31.3164 Y10.4845 
G01 X-31.3714 Y10.6172 
G01 X-31.3994 Y10.7582 
G01 X-31.3994 Y10.9018 
G01 X-31.3714 Y11.0428 
G01 X-31.3164 Y11.1755 
G01 X-31.2366 Y11.2950 
G01 X-31.1350 Y11.3966 
G01 X-31.0155 Y11.4764 
G01 X-30.8828 Y11.5314 
G01 X-30.7418 Y11.5594 
G01 X-30.5982 Y11.5594 
G01 X-30.4572 Y11.5314 
G01 X-30.3245 Y11.4764 
G01 X-30.2050 Y11.3966 
G01 X-30.1034 Y11.2950 
G01 X-30.0236 Y11.1755 
G01 X-29.9686 Y11.0428 
G01 X-29.9406 Y10.9018 
G01 X-29.9406 Y10.7582 
G01 X-29.9686 Y10.6172 
G01 X-30.0236 Y10.4845 
G01 X-30.1034 Y10.3650 
G01 X-30.2050 Y10.2634 
G01 X-30.3245 Y10.1836 
G01 X-30.4572 Y10.1286 
G01 X-30.5982 Y10.1006 
G01 X-30.7418 Y10.1006 
G01 X-30.8828 Y10.1286 
G01 X-31.0155 Y10.1836 
G01 X-31.1350 Y10.2634 
G00 Z2.5400  
G00 X-31.1350 Y8.8566  
G01 Z-0.0600 F90    
G01 X-31.0155 Y8.9364  F300   
G01 X-30.8828 Y8.9914  
G01 X-30.7418 Y9.0194  
G01 X-30.5982 Y9.0194  
G01 X-30.4572 Y8.9914  
G01 X-30.3245 Y8.9364  
G01 X-30.2050 Y8.8566  
G01 X-30.1034 Y8.7550  
G01 X-30.0236 Y8.6355  
G01 X-29.9686 Y8.5028  
G01 X-29.9406 Y8.3618  
G01 X-29.9406 Y8.2182  
G01 X-29.9686 Y8.0772  
G01 X-30.0236 Y7.9445  
G01 X-30.1034 Y7.8250  
G01 X-30.2050 Y7.7234  
G01 X-30.3245 Y7.6436  
G01 X-30.4572 Y7.5886  
G01 X-30.5982 Y7.5606  
G01 X-30.7418 Y7.5606  
G01 X-30.8828 Y7.5886  
G01 X-31.0155 Y7.6436  
G01 X-31.1350 Y7.7234  
G01 X-31.2366 Y7.8250  
G01 X-31.3164 Y7.9445  
G01 X-31.3714 Y8.0772  
G01 X-31.3994 Y8.2182  
G01 X-31.3994 Y8.3618  
G01 X-31.3714 Y8.5028  
G01 X-31.3164 Y8.6355  
G01 X-31.2366 Y8.7550  
G01 X-31.1350 Y8.8566  
G00 Z2.5400  
G00 X-28.6966 Y8.7550  
G01 Z-0.0600 F90    
G01 X-28.5950 Y8.8566  F300   
G01 X-28.4755 Y8.9364  
G01 X-28.3428 Y8.9914  
G01 X-28.2018 Y9.0194  
G01 X-28.0582 Y9.0194  
G01 X-27.9172 Y8.9914  
G01 X-27.7845 Y8.9364  
G01 X-27.6650 Y8.8566  
G01 X-27.5634 Y8.7550  
G01 X-27.4836 Y8.6355  
G01 X-27.4286 Y8.5028  
G01 X-27.4006 Y8.3618  
G01 X-27.4006 Y8.2182  
G01 X-27.4286 Y8.0772  
G01 X-27.4836 Y7.9445  
G01 X-27.5634 Y7.8250  
G01 X-27.6650 Y7.7234  
G01 X-27.7845 Y7.6436  
G01 X-27.9172 Y7.5886  
G01 X-28.0582 Y7.5606  
G01 X-28.2018 Y7.5606  
G01 X-28.3428 Y7.5886  
G01 X-28.4755 Y7.6436  
G01 X-28.5950 Y7.7234  
G01 X-28.6966 Y7.8250  
G01 X-28.7764 Y7.9445  
G01 X-28.8314 Y8.0772  
G01 X-28.8594 Y8.2182  
G01 X-28.8594 Y8.3618  
G01 X-28.8314 Y8.5028  
G01 X-28.7764 Y8.6355  
G01 X-28.6966 Y8.7550  
G00 Z2.5400  
G00 X-28.5950 Y10.2634 
G01 Z-0.0600 F90    
G01 X-28.6966 Y10.3650 F300   
G01 X-28.7764 Y10.4845 
G01 X-28.8314 Y10.6172 
G01 X-28.8594 Y10.7582 
G01 X-28.8594 Y10.9018 
G01 X-28.8314 Y11.0428 
G01 X-28.7764 Y11.1755 
G01 X-28.6966 Y11.2950 
G01 X-28.5950 Y11.3966 
G01 X-28.4755 Y11.4764 
G01 X-28.3428 Y11.5314 
G01 X-28.2018 Y11.5594 
G01 X-28.0582 Y11.5594 
G01 X-27.9172 Y11.5314 
G01 X-27.7845 Y11.4764 
G01 X-27.6650 Y11.3966 
G01 X-27.5634 Y11.2950 
G01 X-27.4836 Y11.1755 
G01 X-27.4286 Y11.0428 
G01 X-27.4006 Y10.9018 
G01 X-27.4006 Y10.7582 
G01 X-27.4286 Y10.6172 
G01 X-27.4836 Y10.4845 
G01 X-27.5634 Y10.3650 
G01 X-27.6650 Y10.2634 
G01 X-27.7845 Y10.1836 
G01 X-27.9172 Y10.1286 
G01 X-28.0582 Y10.1006 
G01 X-28.2018 Y10.1006 
G01 X-28.3428 Y10.1286 
G01 X-28.4755 Y10.1836 
G01 X-28.5950 Y10.2634 
G00 Z2.5400  
G00 X-26.0550 Y10.2634 
G01 Z-0.0600 F90    
G01 X-26.1566 Y10.3650 F300   
G01 X-26.2364 Y10.4845 
G01 X-26.2914 Y10.6172 
G01 X-26.3194 Y10.7582 
G01 X-26.3194 Y10.9018 
G01 X-26.2914 Y11.0428 
G01 X-26.2364 Y11.1755 
G01 X-26.1566 Y11.2950 
G01 X-26.0550 Y11.3966 
G01 X-25.9355 Y11.4764 
G01 X-25.8028 Y11.5314 
G01 X-25.6618 Y11.5594 
G01 X-25.5182 Y11.5594 
G01 X-25.3772 Y11.5314 
G01 X-25.2445 Y11.4764 
G01 X-25.1250 Y11.3966 
G01 X-25.0234 Y11.2950 
G01 X-24.9436 Y11.1755 
G01 X-24.8886 Y11.0428 
G01 X-24.8606 Y10.9018 
G01 X-24.8606 Y10.7582 
G01 X-24.8886 Y10.6172 
G01 X-24.9436 Y10.4845 
G01 X-25.0234 Y10.3650 
G01 X-25.1250 Y10.2634 
G01 X-25.2445 Y10.1836 
G01 X-25.3772 Y10.1286 
G01 X-25.5182 Y10.1006 
G01 X-25.6618 Y10.1006 
G01 X-25.8028 Y10.1286 
G01 X-25.9355 Y10.1836 
G01 X-26.0550 Y10.2634 
G00 Z2.5400  
G00 X-26.0550 Y8.8566  
G01 Z-0.0600 F90    
G01 X-25.9355 Y8.9364  F300   
G01 X-25.8028 Y8.9914  
G01 X-25.6618 Y9.0194  
G01 X-25.5182 Y9.0194  
G01 X-25.3772 Y8.9914  
G01 X-25.2445 Y8.9364  
G01 X-25.1250 Y8.8566  
G01 X-25.0234 Y8.7550  
G01 X-24.9436 Y8.6355  
G01 X-24.8886 Y8.5028  
G01 X-24.8606 Y8.3618  
G01 X-24.8606 Y8.2182  
G01 X-24.8886 Y8.0772  
G01 X-24.9436 Y7.9445  
G01 X-25.0234 Y7.8250  
G01 X-25.1250 Y7.7234  
G01 X-25.2445 Y7.6436  
G01 X-25.3772 Y7.5886  
G01 X-25.5182 Y7.5606  
G01 X-25.6618 Y7.5606  
G01 X-25.8028 Y7.5886  
G01 X-25.9355 Y7.6436  
G01 X-26.0550 Y7.7234  
G01 X-26.1566 Y7.8250  
G01 X-26.2364 Y7.9445  
G01 X-26.2914 Y8.0772  
G01 X-26.3194 Y8.2182  
G01 X-26.3194 Y8.3618  
G01 X-26.2914 Y8.5028  
G01 X-26.2364 Y8.6355  
G01 X-26.1566 Y8.7550  
G01 X-26.0550 Y8.8566  
G00 Z2.5400  
G00 X-34.5294 Y19.2550 
G01 Z-0.0600 F90    
G01 X-34.6310 Y19.1534 F300   
G01 X-34.7505 Y19.0736 
G01 X-34.8832 Y19.0186 
G01 X-35.0242 Y18.9906 
G01 X-36.4758 Y18.9906 
G01 X-36.6168 Y19.0186 
G01 X-36.7495 Y19.0736 
G01 X-36.8690 Y19.1534 
G01 X-36.9706 Y19.2550 
G01 X-37.0504 Y19.3745 
G01 X-37.1054 Y19.5072 
G01 X-37.1334 Y19.6482 
G01 X-37.1334 Y19.7918 
G01 X-37.1054 Y19.9328 
G01 X-37.0504 Y20.0655 
G01 X-36.9706 Y20.1850 
G01 X-36.8690 Y20.2866 
G01 X-36.7495 Y20.3664 
G01 X-36.6168 Y20.4214 
G01 X-36.4758 Y20.4494 
G01 X-35.0242 Y20.4494 
G01 X-34.8832 Y20.4214 
G01 X-34.7505 Y20.3664 
G01 X-34.6310 Y20.2866 
G01 X-34.5294 Y20.1850 
G01 X-34.4496 Y20.0655 
G01 X-34.3946 Y19.9328 
G01 X-34.3666 Y19.7918 
G01 X-34.3666 Y19.6482 
G01 X-34.3946 Y19.5072 
G01 X-34.4496 Y19.3745 
G01 X-34.5294 Y19.2550 
G00 Z2.5400  
G00 X-34.5294 Y24.3350 
G01 Z-0.0600 F90    
G01 X-34.6310 Y24.2334 F300   
G01 X-34.7505 Y24.1536 
G01 X-34.8832 Y24.0986 
G01 X-35.0242 Y24.0706 
G01 X-36.4758 Y24.0706 
G01 X-36.6168 Y24.0986 
G01 X-36.7495 Y24.1536 
G01 X-36.8690 Y24.2334 
G01 X-36.9706 Y24.3350 
G01 X-37.0504 Y24.4545 
G01 X-37.1054 Y24.5872 
G01 X-37.1334 Y24.7282 
G01 X-37.1334 Y24.8718 
G01 X-37.1054 Y25.0128 
G01 X-37.0504 Y25.1455 
G01 X-36.9706 Y25.2650 
G01 X-36.8690 Y25.3666 
G01 X-36.7495 Y25.4464 
G01 X-36.6168 Y25.5014 
G01 X-36.4758 Y25.5294 
G01 X-35.0242 Y25.5294 
G01 X-34.8832 Y25.5014 
G01 X-34.7505 Y25.4464 
G01 X-34.6310 Y25.3666 
G01 X-34.5294 Y25.2650 
G01 X-34.4496 Y25.1455 
G01 X-34.3946 Y25.0128 
G01 X-34.3666 Y24.8718 
G01 X-34.3666 Y24.7282 
G01 X-34.3946 Y24.5872 
G01 X-34.4496 Y24.4545 
G01 X-34.5294 Y24.3350 
G00 Z2.5400  
G00 X-34.5294 Y31.9550 
G01 Z-0.0600 F90    
G01 X-34.6310 Y31.8534 F300   
G01 X-34.7505 Y31.7736 
G01 X-34.8832 Y31.7186 
G01 X-35.0242 Y31.6906 
G01 X-36.4758 Y31.6906 
G01 X-36.6168 Y31.7186 
G01 X-36.7495 Y31.7736 
G01 X-36.8690 Y31.8534 
G01 X-36.9706 Y31.9550 
G01 X-37.0504 Y32.0745 
G01 X-37.1054 Y32.2072 
G01 X-37.1334 Y32.3482 
G01 X-37.1334 Y32.4918 
G01 X-37.1054 Y32.6328 
G01 X-37.0504 Y32.7655 
G01 X-36.9706 Y32.8850 
