(.../pcb-gcode-3.6.2.4/pcb-gcode.ulp)
(Copyright 2005 - 2012 by John Johnson)
(See readme.txt for licensing terms.)
(This file generated from the board:)
(.../consip/eagle/Tokaleds/untitled.brd)
(Current profile is .../pcb-gcode-3.6.2.4/profiles/mach.pp  )
(This file generated 2/25/21 5:32 PM)
(Settings from pcb-machine.h)
(spindle on time = 0.5000)
(  Tool Size)
(0.1000  )
(spindle speed = 1000.0000)
(tool change at 0.0000  0.0000  40.0000 )
(feed rate xy = F300   )
(feed rate z  = F90    )
(Z Axis Settings)
(  High     Up        Down     Drill)
(3.0000  	2.5400  	-0.0600 	-1.8000 )
(Settings from pcb-defaults.h)
(isolate min = 0.0254)
(isolate max = 0.5080)
(isolate step = 0.1270)
(Generated top outlines, top drill, bottom outlines, bottom drill, )
(Unit of measure: mm)
(Beginning of every file)
(Beginning of every bottom file)
(Outline Begin)
(Bottom outline Begin)
(Metric Mode)
G21
(Absolute Coordinates)
G90
S1000
G00 Z3.0000  
G00 X0.0000  Y0.0000  
M03
G04 P0.500000
G00 Z2.5400  
G00 X-11.3018 Y4.5513  
G01 Z-0.0600 F90    
G01 X-11.4173 Y4.4358  F300   
G01 X-11.5531 Y4.3450  
G01 X-11.7041 Y4.2825  
G01 X-11.8643 Y4.2506  
G01 X-13.5357 Y4.2506  
G01 X-13.6959 Y4.2825  
G01 X-13.8469 Y4.3450  
G01 X-13.9827 Y4.4358  
G01 X-14.0982 Y4.5513  
G01 X-14.1890 Y4.6871  
G01 X-14.2459 Y4.8246  
G01 X-20.7758 Y4.8246  
G01 X-20.9221 Y4.8638  
G01 X-21.0533 Y4.9396  
G01 X-27.4138 Y11.3001 
G01 X-27.5471 Y11.2110 
G01 X-27.6981 Y11.1485 
G01 X-27.8583 Y11.1166 
G01 X-28.0217 Y11.1166 
G01 X-28.1819 Y11.1485 
G01 X-28.3329 Y11.2110 
G01 X-28.4687 Y11.3018 
G01 X-28.5842 Y11.4173 
G01 X-28.6750 Y11.5531 
G01 X-28.7375 Y11.7041 
G01 X-28.7694 Y11.8643 
G01 X-28.7694 Y13.5357 
G01 X-28.7375 Y13.6959 
G01 X-28.6750 Y13.8469 
G01 X-28.5842 Y13.9827 
G01 X-28.4687 Y14.0982 
G01 X-28.3329 Y14.1890 
G01 X-28.1819 Y14.2515 
G01 X-28.0217 Y14.2834 
G01 X-27.8583 Y14.2834 
G01 X-27.6981 Y14.2515 
G01 X-27.5471 Y14.1890 
G01 X-27.4113 Y14.0982 
G01 X-27.2958 Y13.9827 
G01 X-27.2050 Y13.8469 
G01 X-27.1425 Y13.6959 
G01 X-27.1106 Y13.5357 
G01 X-27.1106 Y12.6243 
G01 X-20.4617 Y5.9754  
G01 X-13.5412 Y5.9754  
G01 X-13.5071 Y5.9803  
G01 X-13.4658 Y5.9754  
G01 X-13.4242 Y5.9754  
G01 X-13.3909 Y5.9665  
G01 X-13.3566 Y5.9624  
G01 X-13.3181 Y5.9469  
G01 X-13.2779 Y5.9362  
G01 X-13.2480 Y5.9189  
G01 X-13.2242 Y5.9094  
G01 X-11.8643 Y5.9094  
G01 X-11.7041 Y5.8775  
G01 X-11.5531 Y5.8150  
G01 X-11.4173 Y5.7242  
G01 X-11.3018 Y5.6087  
G01 X-11.2110 Y5.4729  
G01 X-11.1485 Y5.3219  
G01 X-11.1166 Y5.1617  
G01 X-11.1166 Y4.9983  
G01 X-11.1485 Y4.8381  
G01 X-11.2110 Y4.6871  
G01 X-11.3018 Y4.5513  
G00 Z2.5400  
G00 X-11.3018 Y7.0913  
G01 Z-0.0600 F90    
G01 X-11.4173 Y6.9758  F300   
G01 X-11.5531 Y6.8850  
G01 X-11.7041 Y6.8225  
G01 X-11.8643 Y6.7906  
G01 X-13.5357 Y6.7906  
G01 X-13.6959 Y6.8225  
G01 X-13.8469 Y6.8850  
G01 X-13.9827 Y6.9758  
G01 X-14.0982 Y7.0913  
G01 X-14.1890 Y7.2271  
G01 X-14.2515 Y7.3781  
G01 X-14.2807 Y7.5246  
G01 X-19.8758 Y7.5246  
G01 X-20.0221 Y7.5638  
G01 X-20.1533 Y7.6396  
G01 X-27.2383 Y14.7246 
G01 X-28.5617 Y14.7246 
G01 X-29.6672 Y13.6191 
G01 X-29.6506 Y13.5357 
G01 X-29.6506 Y11.8643 
G01 X-29.6825 Y11.7041 
G01 X-29.7450 Y11.5531 
G01 X-29.8358 Y11.4173 
G01 X-29.9513 Y11.3018 
G01 X-30.0871 Y11.2110 
G01 X-30.2381 Y11.1485 
G01 X-30.3983 Y11.1166 
G01 X-30.5617 Y11.1166 
G01 X-30.7219 Y11.1485 
G01 X-30.8729 Y11.2110 
G01 X-31.0087 Y11.3018 
G01 X-31.1242 Y11.4173 
G01 X-31.2150 Y11.5531 
G01 X-31.2775 Y11.7041 
G01 X-31.3094 Y11.8643 
G01 X-31.3094 Y13.5357 
G01 X-31.2775 Y13.6959 
G01 X-31.2150 Y13.8469 
G01 X-31.1242 Y13.9827 
G01 X-31.0087 Y14.0982 
G01 X-30.8729 Y14.1890 
G01 X-30.7219 Y14.2515 
G01 X-30.6474 Y14.2663 
G01 X-29.1533 Y15.7604 
G01 X-29.0221 Y15.8362 
G01 X-28.8758 Y15.8754 
G01 X-26.9242 Y15.8754 
G01 X-26.7779 Y15.8362 
G01 X-26.6467 Y15.7604 
G01 X-26.5396 Y15.6533 
G01 X-19.5617 Y8.6754  
G01 X-13.5708 Y8.6754  
G01 X-13.5661 Y8.6766  
G01 X-13.4951 Y8.6754  
G01 X-13.4242 Y8.6754  
G01 X-13.4195 Y8.6741  
G01 X-13.4146 Y8.6740  
G01 X-13.3465 Y8.6546  
G01 X-13.2779 Y8.6362  
G01 X-13.2736 Y8.6337  
G01 X-13.2689 Y8.6324  
G01 X-13.2081 Y8.5959  
G01 X-13.1467 Y8.5604  
G01 X-13.1432 Y8.5570  
G01 X-12.9640 Y8.4494  
G01 X-11.8643 Y8.4494  
G01 X-11.7041 Y8.4175  
G01 X-11.5531 Y8.3550  
G01 X-11.4173 Y8.2642  
G01 X-11.3018 Y8.1487  
G01 X-11.2110 Y8.0129  
G01 X-11.1485 Y7.8619  
G01 X-11.1166 Y7.7017  
G01 X-11.1166 Y7.5383  
G01 X-11.1485 Y7.3781  
G01 X-11.2110 Y7.2271  
G01 X-11.3018 Y7.0913  
(Bottom outline End)
(Outline End)
(End of every bottom file)
(End of every file)
G00 Z2.5400  
G82 X-12.7000 Y5.0800  Z-0.2794 F90    R2.5400  P0.500000
G82 X-12.7000 Y7.6200  
G82 X-27.9400 Y12.7000 
G82 X-30.4800 Y12.7000 
G00 Z3.0000  
M05
M02
