(.../pcb-gcode-3.6.2.4/pcb-gcode.ulp)
(Copyright 2005 - 2012 by John Johnson)
(See readme.txt for licensing terms.)
(This file generated from the board:)
(.../consip/eagle/Tokaleds/untitled.brd)
(Current profile is .../pcb-gcode-3.6.2.4/profiles/mach.pp  )
(This file generated 2/25/21 5:32 PM)
(Settings from pcb-machine.h)
(spindle on time = 0.5000)
(spindle speed = 20000.0000)
(tool change at 0.0000  0.0000  40.0000 )
(feed rate xy = F0     )
(feed rate z  = F90    )
(Z Axis Settings)
(  High     Up        Down     Drill)
(3.0000  	2.5400  	-0.0600 	-1.8000 )
(Settings from pcb-defaults.h)
(isolate min = 0.0254)
(isolate max = 0.5080)
(isolate step = 0.1270)
(Generated top outlines, top drill, bottom outlines, bottom drill, )
(Unit of measure: mm)
(Beginning of every file)
(Beginning of every bottom file)
(Beginning of All Drill files)
(Bottom Drill Begin)
( Tool|       Size       |  Min Sub |  Max Sub |   Count )
( T01 | 1.000mm 0.0394in | 0.0000in | 0.0000in |       0 )
(Metric Mode)
G21
(Absolute Coordinates)
G90
S20000
G00 Z3.0000  
G00 X0.0000  Y0.0000  
M03
G04 P0.500000
(Tool Change Begin)
(Bottom Tool Change Begin)
M05
G00 Z40.0000 
M06 T01  ; 1.0000  
(Bottom Tool changed)
(Tool changed)
(Tool zero begin)
(Bottom Tool zero begin)
G01 Z0.0000  F90    
M06 
(Bottom Tool zero end)
(Tool zero end)
G00 Z2.5400  
M03
G04 P0.500000
(Bottom Tool Change End)
(Tool Change End)
G82 X-12.7000 Y5.0800  Z-1.8000 F90    R2.5400  P0.500000
G82 X-12.7000 Y7.6200  
G82 X-27.9400 Y12.7000 
G82 X-30.4800 Y12.7000 
(Bottom Drill End)
(End of all Drill Files)
(End of every bottom file)
(End of every file)
T01 
G00 Z3.0000  
M05
M02
